;FLAVOR:Marlin
;TIME:692
;Filament used: 0.397257m
;Layer height: 0.16
;MINX:87.933
;MINY:87.933
;MINZ:0.2
;MAXX:142.079
;MAXY:142.08
;MAXZ:7
;Generated with Cura_SteamEngine 4.12.0
M140 S50
M105
M190 S50
M104 S200
M105
M109 S200
M82 ;absolute extrusion mode
; Ender 3 Custom Start G-code
G92 E0 ; Reset Extruder
G28 ; Home all axes
G1 Z2.0 F3000 ; Move Z Axis up little to prevent scratching of Heat Bed
G1 X0.1 Y20 Z0.3 F5000.0 ; Move to start position
G1 X0.1 Y200.0 Z0.3 F1500.0 E15 ; Draw the first line
G1 X0.4 Y200.0 Z0.3 F5000.0 ; Move to side a little
G1 X0.4 Y20 Z0.3 F1500.0 E30 ; Draw the second line
G92 E0 ; Reset Extruder
G1 Z2.0 F3000 ; Move Z Axis up little to prevent scratching of Heat Bed
G1 X5 Y20 Z0.3 F5000.0 ; Move over to prevent blob squish
G92 E0
G92 E0
G1 F2700 E-5
;LAYER_COUNT:36
;LAYER:0
M107
G0 F6000 X98.193 Y91.517 Z0.2
;TYPE:SKIRT
G1 F2700 E0
G1 F1200 X98.674 Y91.049 E0.02232
G1 X99.374 Y90.424 E0.05353
G1 X100.124 Y89.861 E0.08472
G1 X100.919 Y89.364 E0.11591
G1 X101.754 Y88.937 E0.1471
G1 X102.622 Y88.582 E0.17829
G1 X103.517 Y88.303 E0.20947
G1 X104.433 Y88.1 E0.24068
G1 X105.363 Y87.977 E0.27188
G1 X106.3 Y87.933 E0.30308
G1 X107.237 Y87.969 E0.33427
G1 X108.168 Y88.085 E0.36547
G1 X109.085 Y88.28 E0.39665
G1 X109.983 Y88.552 E0.42786
G1 X110.854 Y88.899 E0.45904
G1 X111.692 Y89.32 E0.49024
G1 X112.491 Y89.81 E0.52141
G1 X113.246 Y90.367 E0.55262
G1 X113.893 Y90.931 E0.58116
G1 X114.087 Y91.114 E0.59003
G1 X114.317 Y91.338 E0.60071
G1 X138.451 Y115.472 E1.7359
G1 X138.962 Y115.997 E1.76027
G1 X139.586 Y116.696 E1.79143
G1 X140.15 Y117.446 E1.82264
G1 X140.647 Y118.241 E1.85383
G1 X141.074 Y119.076 E1.88502
G1 X141.429 Y119.944 E1.91621
G1 X141.709 Y120.839 E1.9474
G1 X141.911 Y121.755 E1.9786
G1 X142.035 Y122.685 E2.00981
G1 X142.079 Y123.622 E2.04101
G1 X142.043 Y124.559 E2.07219
G1 X141.927 Y125.49 E2.1034
G1 X141.733 Y126.407 E2.13457
G1 X141.461 Y127.305 E2.16578
G1 X141.113 Y128.176 E2.19698
G1 X140.693 Y129.014 E2.22815
G1 X140.203 Y129.814 E2.25936
G1 X139.646 Y130.569 E2.29056
G1 X139.082 Y131.216 E2.31911
G1 X138.85 Y131.462 E2.33036
G1 X138.625 Y131.693 E2.34108
G1 X131.831 Y138.486 E2.66063
G1 X131.342 Y138.962 E2.68332
G1 X130.642 Y139.587 E2.71454
G1 X129.892 Y140.15 E2.74573
G1 X129.097 Y140.647 E2.77691
G1 X128.262 Y141.075 E2.80812
G1 X127.394 Y141.43 E2.83931
G1 X126.499 Y141.71 E2.8705
G1 X125.583 Y141.912 E2.9017
G1 X124.654 Y142.036 E2.93287
G1 X123.717 Y142.08 E2.96407
G1 X122.78 Y142.044 E2.99526
G1 X121.849 Y141.928 E3.02646
G1 X120.931 Y141.734 E3.05767
G1 X120.034 Y141.462 E3.08885
G1 X119.163 Y141.115 E3.12003
G1 X118.324 Y140.694 E3.15125
G1 X117.525 Y140.204 E3.18243
G1 X116.77 Y139.647 E3.21363
G1 X116.078 Y139.041 E3.24422
G1 X115.82 Y138.795 E3.25608
G1 X115.516 Y138.493 E3.27033
G1 X115.254 Y138.223 E3.28285
G1 X113.389 Y136.356 E3.37062
G1 X113.229 Y136.202 E3.378
G1 X112.902 Y135.881 E3.39324
G1 X112.714 Y135.692 E3.40211
G1 X112.254 Y135.218 E3.42408
G1 X111.675 Y134.572 E3.45293
G1 X111.364 Y134.193 E3.46924
G1 X110.002 Y132.482 E3.54198
G1 X108.387 Y130.567 E3.6253
G1 X106.712 Y128.69 E3.70897
G1 X104.975 Y126.851 E3.7931
G1 X103.199 Y125.076 E3.87662
G1 X101.372 Y123.348 E3.96026
G1 X99.504 Y121.681 E4.04353
G1 X97.529 Y120.014 E4.12949
G1 X96.513 Y119.195 E4.1729
G1 X95.621 Y118.487 E4.21077
G1 X94.889 Y117.851 E4.24303
G1 X94.655 Y117.629 E4.25375
G1 X94.332 Y117.31 E4.26885
G1 X94.033 Y117.002 E4.28313
G1 X92.211 Y115.178 E4.36888
G1 X92.003 Y114.978 E4.37848
G1 X91.676 Y114.656 E4.39374
G1 X91.517 Y114.496 E4.40124
G1 X91.056 Y114.023 E4.42321
G1 X90.43 Y113.324 E4.45442
G1 X89.867 Y112.574 E4.48561
G1 X89.369 Y111.779 E4.51681
G1 X88.941 Y110.945 E4.54799
G1 X88.585 Y110.077 E4.57919
G1 X88.305 Y109.182 E4.61038
G1 X88.102 Y108.266 E4.64159
G1 X87.978 Y107.336 E4.6728
G1 X87.933 Y106.4 E4.70396
G1 X87.968 Y105.462 E4.73518
G1 X88.083 Y104.532 E4.76635
G1 X88.277 Y103.614 E4.79756
G1 X88.549 Y102.716 E4.82877
G1 X88.896 Y101.845 E4.85995
G1 X89.315 Y101.006 E4.89114
G1 X89.805 Y100.206 E4.92234
G1 X90.361 Y99.451 E4.95353
G1 X90.925 Y98.804 E4.98208
G1 X91.135 Y98.581 E4.99226
G1 X91.365 Y98.344 E5.00325
G1 X98.193 Y91.517 E5.32439
G0 F6000 X98.472 Y91.804
G1 F1200 X98.953 Y91.336 E5.34672
G1 X99.64 Y90.723 E5.37734
G1 X100.378 Y90.172 E5.40797
G1 X101.161 Y89.687 E5.43861
G1 X101.982 Y89.272 E5.4692
G1 X102.837 Y88.93 E5.49983
G1 X103.718 Y88.664 E5.53044
G1 X104.619 Y88.474 E5.56107
G1 X105.533 Y88.364 E5.59168
G1 X106.453 Y88.334 E5.6223
G1 X107.373 Y88.383 E5.65294
G1 X108.284 Y88.512 E5.68354
G1 X109.181 Y88.72 E5.71417
G1 X110.057 Y89.004 E5.7448
G1 X110.904 Y89.364 E5.77541
G1 X111.718 Y89.795 E5.80604
G1 X112.49 Y90.296 E5.83665
G1 X113.216 Y90.862 E5.86727
G1 X113.619 Y91.222 E5.88525
G1 X113.813 Y91.405 E5.89412
G1 X114.034 Y91.621 E5.90439
G1 X138.164 Y115.751 E7.0394
G1 X138.675 Y116.276 E7.06376
G1 X139.288 Y116.963 E7.09439
G1 X139.839 Y117.7 E7.12499
G1 X140.324 Y118.483 E7.15563
G1 X140.739 Y119.305 E7.18625
G1 X141.081 Y120.159 E7.21685
G1 X141.348 Y121.04 E7.24747
G1 X141.537 Y121.941 E7.27809
G1 X141.648 Y122.855 E7.30871
G1 X141.678 Y123.775 E7.33933
G1 X141.629 Y124.695 E7.36997
G1 X141.5 Y125.606 E7.40057
G1 X141.293 Y126.503 E7.43119
G1 X141.009 Y127.379 E7.46182
G1 X140.649 Y128.227 E7.49246
G1 X140.218 Y129.04 E7.52306
G1 X139.717 Y129.813 E7.5537
G1 X139.151 Y130.539 E7.58432
G1 X138.791 Y130.942 E7.60229
G1 X138.559 Y131.188 E7.61354
G1 X138.342 Y131.41 E7.62387
G1 X131.552 Y138.2 E7.94325
G1 X131.063 Y138.676 E7.96594
G1 X130.376 Y139.289 E7.99657
G1 X129.638 Y139.84 E8.0272
G1 X128.856 Y140.324 E8.05779
G1 X128.034 Y140.74 E8.08843
G1 X127.179 Y141.082 E8.11906
G1 X126.298 Y141.349 E8.14968
G1 X125.397 Y141.538 E8.1803
G1 X124.483 Y141.649 E8.21092
G1 X123.563 Y141.679 E8.24153
G1 X122.644 Y141.63 E8.27214
G1 X121.732 Y141.502 E8.30277
G1 X120.835 Y141.294 E8.3334
G1 X119.959 Y141.01 E8.36403
G1 X119.112 Y140.65 E8.39464
G1 X118.299 Y140.219 E8.42524
G1 X117.526 Y139.718 E8.45588
G1 X116.799 Y139.153 E8.48651
G1 X116.354 Y138.752 E8.50643
G1 X116.096 Y138.506 E8.51829
G1 X115.803 Y138.215 E8.53202
G1 X115.542 Y137.945 E8.54451
G1 X113.666 Y136.068 E8.63278
G1 X113.182 Y135.595 E8.65528
G1 X113.001 Y135.413 E8.66382
G1 X112.541 Y134.939 E8.68579
G1 X111.983 Y134.317 E8.71358
G1 X111.677 Y133.944 E8.72963
G1 X110.322 Y132.242 E8.80199
G1 X108.689 Y130.306 E8.88623
G1 X107 Y128.413 E8.97061
G1 X105.249 Y126.559 E9.05543
G1 X103.493 Y124.804 E9.138
G1 X101.629 Y123.041 E9.22333
G1 X99.765 Y121.377 E9.30644
G1 X97.805 Y119.723 E9.39174
G1 X96.762 Y118.882 E9.4363
G1 X95.87 Y118.174 E9.47418
G1 X95.164 Y117.561 E9.50528
G1 X94.93 Y117.339 E9.51601
G1 X94.619 Y117.031 E9.53056
G1 X94.354 Y116.758 E9.54322
G1 X92.488 Y114.89 E9.63104
G1 X92.284 Y114.693 E9.64047
G1 X91.957 Y114.371 E9.65573
G1 X91.803 Y114.216 E9.663
G1 X91.342 Y113.743 E9.68497
G1 X90.729 Y113.057 E9.71557
G1 X90.177 Y112.32 E9.74619
G1 X89.692 Y111.537 E9.77683
G1 X89.276 Y110.716 E9.80744
G1 X88.933 Y109.861 E9.83808
G1 X88.666 Y108.98 E9.8687
G1 X88.476 Y108.08 E9.89929
G1 X88.365 Y107.166 E9.92991
G1 X88.333 Y106.246 E9.96053
G1 X88.382 Y105.326 E9.99117
G1 X88.51 Y104.415 E10.02177
G1 X88.717 Y103.517 E10.05242
G1 X89.001 Y102.642 E10.08302
G1 X89.36 Y101.794 E10.11365
G1 X89.791 Y100.98 E10.14428
G1 X90.291 Y100.207 E10.1749
G1 X90.856 Y99.48 E10.20553
G1 X91.216 Y99.078 E10.22347
G1 X91.426 Y98.855 E10.23366
G1 X91.648 Y98.627 E10.24425
G1 X98.472 Y91.804 E10.5652
G0 F6000 X98.751 Y92.09
G1 F1200 X99.232 Y91.622 E10.58752
G1 X99.907 Y91.022 E10.61756
G1 X100.632 Y90.483 E10.64761
G1 X101.401 Y90.011 E10.67762
G1 X102.21 Y89.609 E10.70767
G1 X103.051 Y89.28 E10.7377
G1 X103.918 Y89.026 E10.76775
G1 X104.803 Y88.85 E10.79776
G1 X105.701 Y88.753 E10.8278
G1 X106.604 Y88.736 E10.85784
G1 X107.505 Y88.799 E10.88788
G1 X108.397 Y88.942 E10.91793
G1 X109.273 Y89.162 E10.94797
G1 X110.125 Y89.459 E10.97798
G1 X110.949 Y89.831 E11.00805
G1 X111.736 Y90.274 E11.03809
G1 X112.48 Y90.785 E11.06811
G1 X113.344 Y91.513 E11.10569
G1 X113.538 Y91.696 E11.11456
G1 X113.751 Y91.903 E11.12444
G1 X137.877 Y116.03 E12.25927
G1 X138.388 Y116.555 E12.28364
G1 X138.989 Y117.229 E12.31368
G1 X139.528 Y117.954 E12.34372
G1 X140 Y118.724 E12.37376
G1 X140.402 Y119.532 E12.40378
G1 X140.732 Y120.373 E12.43383
G1 X140.985 Y121.24 E12.46387
G1 X141.162 Y122.126 E12.49392
G1 X141.259 Y123.023 E12.52392
G1 X141.276 Y123.926 E12.55396
G1 X141.213 Y124.827 E12.584
G1 X141.071 Y125.719 E12.61405
G1 X140.85 Y126.595 E12.64409
G1 X140.553 Y127.448 E12.67414
G1 X140.182 Y128.271 E12.70416
G1 X139.739 Y129.058 E12.7342
G1 X139.229 Y129.803 E12.76423
G1 X138.5 Y130.667 E12.80183
G1 X138.268 Y130.913 E12.81307
G1 X138.059 Y131.127 E12.82302
G1 X131.273 Y137.913 E13.14222
G1 X130.784 Y138.389 E13.16491
G1 X130.109 Y138.99 E13.19497
G1 X129.384 Y139.528 E13.225
G1 X128.615 Y140.001 E13.25503
G1 X127.806 Y140.403 E13.28508
G1 X126.965 Y140.733 E13.31512
G1 X126.099 Y140.986 E13.34513
G1 X125.213 Y141.162 E13.37517
G1 X124.315 Y141.26 E13.40522
G1 X123.412 Y141.277 E13.43526
G1 X122.511 Y141.214 E13.4653
G1 X121.619 Y141.072 E13.49534
G1 X120.744 Y140.851 E13.52536
G1 X119.891 Y140.554 E13.5554
G1 X119.067 Y140.183 E13.58546
G1 X118.28 Y139.74 E13.61549
G1 X117.535 Y139.23 E13.64552
G1 X116.63 Y138.462 E13.685
G1 X116.372 Y138.216 E13.69686
G1 X116.09 Y137.936 E13.71007
G1 X115.829 Y137.667 E13.72254
G1 X113.943 Y135.779 E13.8113
G1 X113.463 Y135.31 E13.83362
G1 X113.288 Y135.135 E13.84185
G1 X112.828 Y134.661 E13.86382
G1 X112.291 Y134.062 E13.89058
G1 X111.99 Y133.695 E13.90636
G1 X110.625 Y131.98 E13.97927
G1 X108.978 Y130.027 E14.06424
G1 X107.307 Y128.155 E14.1477
G1 X105.557 Y126.302 E14.23247
G1 X103.749 Y124.495 E14.31749
G1 X101.923 Y122.768 E14.40108
G1 X100.006 Y121.057 E14.48654
G1 X98.058 Y119.414 E14.5713
G1 X96.948 Y118.518 E14.61875
G1 X96.119 Y117.86 E14.65395
G1 X95.44 Y117.271 E14.68385
G1 X95.206 Y117.049 E14.69458
G1 X94.906 Y116.753 E14.70859
G1 X94.607 Y116.445 E14.72287
G1 X92.764 Y114.6 E14.80961
G1 X92.564 Y114.408 E14.81883
G1 X92.237 Y114.086 E14.83409
G1 X92.089 Y113.937 E14.84108
G1 X91.628 Y113.464 E14.86305
G1 X91.027 Y112.79 E14.89308
G1 X90.488 Y112.066 E14.9231
G1 X90.015 Y111.296 E14.95316
G1 X89.612 Y110.488 E14.98319
G1 X89.282 Y109.647 E15.01324
G1 X89.028 Y108.781 E15.04325
G1 X88.851 Y107.895 E15.0733
G1 X88.754 Y106.997 E15.10335
G1 X88.736 Y106.094 E15.13339
G1 X88.798 Y105.193 E15.16342
G1 X88.94 Y104.302 E15.19343
G1 X89.16 Y103.426 E15.22347
G1 X89.456 Y102.573 E15.2535
G1 X89.827 Y101.749 E15.28356
G1 X90.269 Y100.962 E15.31358
G1 X90.779 Y100.216 E15.34364
G1 X91.507 Y99.352 E15.38122
G1 X91.717 Y99.129 E15.3914
G1 X91.931 Y98.91 E15.40159
G1 X98.751 Y92.09 E15.72238
G1 F2700 E10.72238
;MESH:setup_clip_v3.3mf
G0 F6000 X105.493 Y98.832
G0 X106.259 Y99.598
G0 X129.423 Y123.669
G0 X128.973 Y124.376
;TYPE:WALL-INNER
G1 F2700 E15.72238
G1 F1200 X105.638 Y101.041 E16.81999
G1 X106.345 Y100.334 E16.85324
G1 X129.679 Y123.669 E17.95082
G1 X128.973 Y124.376 E17.98406
G0 F6000 X128.973 Y124.942
G1 F1200 X105.072 Y101.041 E19.10829
G1 X106.345 Y99.768 E19.16816
G1 X130.245 Y123.669 E20.29237
G1 X128.973 Y124.942 E20.35223
G1 F2700 E15.35223
G0 F6000 X123.669 Y130.429
G1 F2700 E20.35223
G0 F6000 X123.669 Y130.811
;TYPE:WALL-OUTER
G1 F1200 X123.244 Y130.386 E20.37222
G1 X128.548 Y125.083 E20.62168
G1 X126.144 Y122.679 E20.73475
G1 X120.841 Y127.983 E20.98421
G1 X120.416 Y127.558 E21.0042
G1 X125.72 Y122.255 E21.25366
G1 X107.759 Y104.294 E22.09849
G1 X102.456 Y109.598 E22.34796
G1 X102.031 Y109.173 E22.36795
G1 X107.335 Y103.87 E22.61741
G1 X104.931 Y101.465 E22.73051
G1 X99.627 Y106.77 E22.98001
G1 X99.202 Y106.345 E23
G1 X106.345 Y99.202 E23.33599
G1 X130.811 Y123.669 E24.48682
G1 X123.669 Y130.811 E24.82276
G0 F6000 X123.669 Y130.429
G0 X128.871 Y125.083
G0 X128.775 Y124.022
G0 X128.972 Y123.825
;TYPE:SKIN
G1 F1200 X106.188 Y101.041 E25.89445
G1 X106.345 Y100.884 E25.90183
G1 X129.128 Y123.668 E26.9735
G1 X128.972 Y123.825 E26.98086
G0 F6000 X128.775 Y124.022
G0 X128.865 Y125.189
G0 X128.865 Y125.188
;TYPE:SKIN
G1 F1200 X128.723 Y125.329 E26.98516
G1 X124.905 Y129.148 E27.10131
G1 X123.632 Y130.42 E27.14002
G0 F6000 X123.632 Y130.421
G0 X128.871 Y125.083
G0 X126.144 Y122.356
G0 X120.807 Y127.594
G0 X120.804 Y127.593
G1 F1200 X120.946 Y127.451 E27.14435
G1 X126.037 Y122.36 E27.29964
G0 F6000 X126.039 Y122.361
G0 X107.759 Y103.971
G0 X107.652 Y103.975
G1 F1200 X107.511 Y104.117 E27.30395
G1 X103.692 Y107.935 E27.42038
G1 X102.42 Y109.208 E27.45918
G0 F6000 X102.422 Y109.209
G0 X107.658 Y103.87
G0 X104.931 Y101.142
G0 X99.593 Y106.381
G0 X99.591 Y106.38
G1 F1200 X99.733 Y106.238 E27.46351
G1 X104.683 Y101.288 E27.61433
G0 F6000 X104.735 Y101.058
G1 F1200 X104.913 Y101.236 E27.61852
G1 F2700 E22.61852
;MESH:NONMESH
G0 F300 X104.913 Y101.236 Z0.4
G0 F6000 X104.826 Y101.148
G0 X128.973 Y124.376
;TIME_ELAPSED:51.733163
;LAYER:1
M106 S85
;TYPE:WALL-INNER
;MESH:setup_clip_v3.3mf
G1 F2700 E27.61852
G1 F1350 X105.638 Y101.041 E28.71612
G1 X106.345 Y100.334 E28.74938
G1 X129.679 Y123.669 E29.84696
G1 X128.973 Y124.376 E29.88019
G0 F7500 X128.973 Y124.942
G1 F1350 X105.072 Y101.041 E31.00442
G1 X106.345 Y99.768 E31.0643
G1 X130.245 Y123.669 E32.18851
G1 X128.973 Y124.942 E32.24836
G1 F2700 E27.24836
G0 F7500 X123.669 Y130.429
G1 F2700 E32.24836
G0 F7500 X123.669 Y130.811
;TYPE:WALL-OUTER
G1 F1350 X123.244 Y130.386 E32.26835
G1 X128.548 Y125.083 E32.51781
G1 X126.144 Y122.679 E32.63089
G1 X120.841 Y127.983 E32.88035
G1 X120.416 Y127.558 E32.90034
G1 X125.72 Y122.255 E33.1498
G1 X107.759 Y104.294 E33.99463
G1 X102.456 Y109.598 E34.24409
G1 X102.031 Y109.173 E34.26408
G1 X107.335 Y103.87 E34.51354
G1 X104.931 Y101.465 E34.62664
G1 X99.627 Y106.77 E34.87615
G1 X99.202 Y106.345 E34.89614
G1 X106.345 Y99.202 E35.23213
G1 X130.811 Y123.669 E36.38296
G1 X123.669 Y130.811 E36.71889
G0 F7500 X123.669 Y130.429
G0 X128.871 Y125.083
G0 X128.775 Y124.022
G0 X128.972 Y123.825
;TYPE:SKIN
G1 F1350 X106.188 Y101.041 E37.79058
G1 X106.345 Y100.884 E37.79797
G1 X129.128 Y123.668 E38.86963
G1 X128.972 Y123.825 E38.87699
G0 F7500 X128.775 Y124.022
G0 X128.931 Y125.083
G0 X128.898 Y125.094
;TYPE:SKIN
G1 F1350 X123.549 Y130.443 E39.0028
G0 F7500 X123.636 Y130.356
G0 X128.871 Y125.083
G0 X126.144 Y122.356
G0 X120.808 Y127.528
G0 X120.72 Y127.615
G1 F1350 X126.07 Y122.265 E39.12862
G0 F7500 X126.103 Y122.255
G0 X107.718 Y103.87
G0 X107.685 Y103.881
G1 F1350 X102.336 Y109.23 E39.25442
G0 F7500 X102.423 Y109.143
G0 X107.658 Y103.87
G0 X104.931 Y101.142
G0 X99.594 Y106.315
G0 X99.506 Y106.402
G1 F1350 X104.856 Y101.052 E39.38024
G0 F7500 X105.353 Y101.041
G1 F2700 E34.38024
;MESH:NONMESH
G0 F300 X105.353 Y101.041 Z0.6
G0 F7500 X128.973 Y124.376
;TIME_ELAPSED:72.522489
;LAYER:2
M106 S170
;TYPE:WALL-INNER
;MESH:setup_clip_v3.3mf
G1 F2700 E39.38024
G1 F1500 X105.638 Y101.041 E40.47785
G1 X106.345 Y100.334 E40.5111
G1 X129.679 Y123.669 E41.60869
G1 X128.973 Y124.376 E41.64192
G0 F9000 X128.973 Y124.942
G1 F1500 X105.072 Y101.041 E42.76615
G1 X106.345 Y99.768 E42.82603
G1 X130.245 Y123.669 E43.95023
G1 X128.973 Y124.942 E44.01009
G1 F2700 E39.01009
G0 F9000 X123.669 Y130.429
G1 F2700 E44.01009
G0 F9000 X123.669 Y130.811
;TYPE:WALL-OUTER
G1 F1500 X123.244 Y130.386 E44.03008
G1 X128.548 Y125.083 E44.27954
G1 X126.144 Y122.679 E44.39262
G1 X120.841 Y127.983 E44.64208
G1 X120.416 Y127.558 E44.66207
G1 X125.72 Y122.255 E44.91153
G1 X107.759 Y104.294 E45.75636
G1 X102.456 Y109.598 E46.00582
G1 X102.031 Y109.173 E46.02581
G1 X107.335 Y103.87 E46.27527
G1 X104.931 Y101.465 E46.38837
G1 X99.627 Y106.77 E46.63788
G1 X99.202 Y106.345 E46.65787
G1 X106.345 Y99.202 E46.99385
G1 X130.811 Y123.669 E48.14468
G1 X123.669 Y130.811 E48.48062
G0 F9000 X123.669 Y130.429
G0 X128.871 Y125.083
G0 X128.775 Y124.022
G0 X128.972 Y123.825
;TYPE:SKIN
G1 F1500 X106.188 Y101.041 E49.55231
G1 X106.345 Y100.884 E49.55969
G1 X129.128 Y123.668 E50.63136
G1 X128.972 Y123.825 E50.63872
G0 F9000 X128.775 Y124.022
