;FLAVOR:Marlin
;TIME:1557
;Filament used: 0.766937m
;Layer height: 0.16
;MINX:70.748
;MINY:93.448
;MINZ:0.2
;MAXX:136.552
;MAXY:136.552
;MAXZ:6.84
;Generated with Cura_SteamEngine 4.12.0
M140 S50
M105
M190 S50
M104 S200
M105
M109 S200
M82 ;absolute extrusion mode
; Ender 3 Custom Start G-code
G92 E0 ; Reset Extruder
G28 ; Home all axes
G1 Z2.0 F3000 ; Move Z Axis up little to prevent scratching of Heat Bed
G1 X0.1 Y20 Z0.3 F5000.0 ; Move to start position
G1 X0.1 Y200.0 Z0.3 F1500.0 E15 ; Draw the first line
G1 X0.4 Y200.0 Z0.3 F5000.0 ; Move to side a little
G1 X0.4 Y20 Z0.3 F1500.0 E30 ; Draw the second line
G92 E0 ; Reset Extruder
G1 Z2.0 F3000 ; Move Z Axis up little to prevent scratching of Heat Bed
G1 X5 Y20 Z0.3 F5000.0 ; Move over to prevent blob squish
G92 E0
G92 E0
G1 F2700 E-5
;LAYER_COUNT:37
;LAYER:0
M107
G0 F6000 X76.665 Y96.245 Z0.2
;TYPE:SKIRT
G1 F2700 E0
G1 F1200 X76.893 Y96.082 E0.00932
G1 X77.472 Y95.695 E0.03249
G1 X77.687 Y95.561 E0.04091
G1 X78.106 Y95.312 E0.05712
G1 X78.177 Y95.272 E0.05983
G1 X78.894 Y94.902 E0.08667
G1 X79.198 Y94.759 E0.09784
G1 X79.701 Y94.538 E0.11612
G1 X79.813 Y94.492 E0.12014
G1 X80.534 Y94.225 E0.14571
G1 X80.833 Y94.126 E0.15619
G1 X81.65 Y93.89 E0.18448
G1 X81.836 Y93.844 E0.19085
G1 X82.875 Y93.639 E0.22607
G1 X83.371 Y93.566 E0.24275
G1 X84.408 Y93.464 E0.2774
G1 X84.544 Y93.457 E0.28193
G1 X85.486 Y93.448 E0.31327
G1 X86.156 Y93.471 E0.33556
G1 X86.361 Y93.48 E0.34239
G1 X88.755 Y93.607 E0.42212
G1 X91.29 Y93.67 E0.50646
G1 X93.807 Y93.662 E0.59018
G1 X96.287 Y93.584 E0.67271
G1 X97.456 Y93.51 E0.71167
G1 X97.784 Y93.503 E0.72258
G1 X98.413 Y93.467 E0.74353
G1 X99.03 Y93.449 E0.76406
G1 X99.686 Y93.448 E0.78588
G1 X100.078 Y93.454 E0.79892
G1 X100.576 Y93.471 E0.81549
G1 X103.137 Y93.521 E0.90069
G1 X106.328 Y93.482 E1.00683
G1 X107.497 Y93.448 E1.04573
G1 X108.182 Y93.449 E1.06851
G1 X109.061 Y93.48 E1.09776
G1 X111.455 Y93.607 E1.1775
G1 X113.991 Y93.67 E1.26188
G1 X116.508 Y93.662 E1.34559
G1 X118.987 Y93.584 E1.42808
G1 X120.156 Y93.51 E1.46704
G1 X120.484 Y93.503 E1.47796
G1 X121.113 Y93.467 E1.49891
G1 X121.725 Y93.449 E1.51927
G1 X122.223 Y93.448 E1.53584
G1 X122.997 Y93.474 E1.5616
G1 X123.216 Y93.489 E1.5689
G1 X124.383 Y93.632 E1.608
G1 X124.812 Y93.708 E1.62249
G1 X125.814 Y93.934 E1.65666
G1 X126.05 Y93.999 E1.6648
G1 X127.004 Y94.309 E1.69816
G1 X127.36 Y94.443 E1.71081
G1 X128.421 Y94.907 E1.74933
G1 X128.662 Y95.028 E1.7583
G1 X129.337 Y95.397 E1.78388
G1 X129.622 Y95.566 E1.7949
G1 X130.288 Y95.995 E1.82125
G1 X130.347 Y96.036 E1.82364
G1 X130.797 Y96.366 E1.8422
G1 X131.07 Y96.577 E1.85368
G1 X131.733 Y97.132 E1.88244
G1 X132.04 Y97.418 E1.89639
G1 X132.2 Y97.573 E1.9038
G1 X132.697 Y98.087 E1.92758
G1 X132.958 Y98.375 E1.94051
G1 X133.774 Y99.391 E1.98385
G1 X133.936 Y99.619 E1.99315
G1 X134.283 Y100.137 E2.01389
G1 X134.42 Y100.355 E2.02245
G1 X134.708 Y100.842 E2.04127
G1 X134.746 Y100.91 E2.04386
G1 X135.104 Y101.608 E2.06995
G1 X135.246 Y101.911 E2.08108
G1 X135.431 Y102.328 E2.09626
G1 X135.475 Y102.433 E2.10004
G1 X135.766 Y103.205 E2.12748
G1 X135.868 Y103.511 E2.13821
G1 X136.104 Y104.322 E2.16631
G1 X136.149 Y104.502 E2.17248
G1 X136.359 Y105.563 E2.20845
G1 X136.433 Y106.064 E2.22529
G1 X136.537 Y107.11 E2.26026
G1 X136.544 Y107.247 E2.26482
G1 X136.552 Y108.176 E2.29572
G1 X136.521 Y109.049 E2.32477
G1 X136.393 Y111.458 E2.40501
G1 X136.33 Y113.99 E2.48925
G1 X136.338 Y116.509 E2.57303
G1 X136.416 Y118.972 E2.65499
G1 X136.49 Y120.156 E2.69445
G1 X136.497 Y120.482 E2.7053
G1 X136.533 Y121.111 E2.72625
G1 X136.551 Y121.724 E2.74665
G1 X136.552 Y122.218 E2.76308
G1 X136.527 Y122.975 E2.78827
G1 X136.512 Y123.199 E2.79574
G1 X136.368 Y124.383 E2.83541
G1 X136.292 Y124.812 E2.8499
G1 X136.063 Y125.825 E2.88444
G1 X135.998 Y126.06 E2.89255
G1 X135.692 Y127 E2.92543
G1 X135.557 Y127.359 E2.93819
G1 X135.092 Y128.423 E2.97681
G1 X134.971 Y128.664 E2.98578
G1 X134.59 Y129.358 E3.01211
G1 X134.422 Y129.64 E3.02303
G1 X134.125 Y130.112 E3.04157
G1 X134.085 Y130.172 E3.04397
G1 X133.618 Y130.819 E3.07051
G1 X133.402 Y131.097 E3.08222
G1 X132.974 Y131.615 E3.10457
G1 X132.534 Y132.091 E3.12613
G1 X132.378 Y132.25 E3.13354
G1 X131.913 Y132.697 E3.15499
G1 X131.625 Y132.958 E3.16792
G1 X130.635 Y133.755 E3.21019
G1 X130.407 Y133.918 E3.21951
G1 X129.821 Y134.31 E3.24296
G1 X129.596 Y134.45 E3.25178
G1 X129.079 Y134.752 E3.27169
G1 X128.406 Y135.098 E3.29686
G1 X128.102 Y135.241 E3.30803
G1 X127.599 Y135.462 E3.32631
G1 X127.487 Y135.508 E3.33033
G1 X126.766 Y135.775 E3.35591
G1 X126.467 Y135.874 E3.36638
G1 X125.65 Y136.11 E3.39467
G1 X125.464 Y136.156 E3.40104
G1 X124.425 Y136.361 E3.43626
G1 X123.929 Y136.434 E3.45294
G1 X122.892 Y136.536 E3.48759
G1 X122.756 Y136.543 E3.49212
G1 X121.814 Y136.552 E3.52346
G1 X121.144 Y136.529 E3.54575
G1 X120.939 Y136.52 E3.55258
G1 X118.545 Y136.393 E3.63231
G1 X116.01 Y136.33 E3.71666
G1 X113.493 Y136.338 E3.80037
G1 X111.013 Y136.416 E3.8829
G1 X109.844 Y136.49 E3.92186
G1 X109.516 Y136.497 E3.93277
G1 X108.887 Y136.533 E3.95372
G1 X108.27 Y136.551 E3.97425
G1 X107.614 Y136.552 E3.99607
G1 X107.222 Y136.546 E4.00911
G1 X106.724 Y136.529 E4.02568
G1 X104.163 Y136.479 E4.11088
G1 X100.972 Y136.518 E4.21702
G1 X99.803 Y136.552 E4.25592
G1 X99.118 Y136.551 E4.2787
G1 X98.239 Y136.52 E4.30796
G1 X95.845 Y136.393 E4.38769
G1 X93.309 Y136.33 E4.47207
G1 X90.792 Y136.338 E4.55578
G1 X88.313 Y136.416 E4.63827
G1 X87.144 Y136.49 E4.67723
G1 X86.816 Y136.497 E4.68815
G1 X86.187 Y136.533 E4.7091
G1 X85.575 Y136.551 E4.72946
G1 X85.077 Y136.552 E4.74603
G1 X84.303 Y136.526 E4.77179
G1 X84.084 Y136.511 E4.77909
G1 X82.917 Y136.368 E4.81819
G1 X82.488 Y136.292 E4.83268
G1 X81.486 Y136.066 E4.86685
G1 X81.25 Y136.001 E4.87499
G1 X80.28 Y135.685 E4.90892
G1 X79.923 Y135.55 E4.92161
G1 X78.878 Y135.092 E4.95956
G1 X78.635 Y134.97 E4.96861
G1 X77.966 Y134.604 E4.99397
G1 X77.684 Y134.437 E5.00487
G1 X77.012 Y134.005 E5.03144
G1 X76.953 Y133.964 E5.03383
G1 X76.527 Y133.653 E5.05137
G1 X76.285 Y133.467 E5.06152
G1 X75.792 Y133.065 E5.08268
G1 X75.718 Y133.001 E5.08594
G1 X75.259 Y132.581 E5.10663
G1 X75.098 Y132.425 E5.11409
G1 X74.601 Y131.91 E5.13789
G1 X74.341 Y131.623 E5.15077
G1 X73.55 Y130.643 E5.19266
G1 X73.386 Y130.414 E5.20203
G1 X72.98 Y129.805 E5.22637
G1 X72.843 Y129.584 E5.23502
G1 X72.569 Y129.117 E5.25303
G1 X72.196 Y128.392 E5.28015
G1 X72.054 Y128.089 E5.29127
G1 X71.871 Y127.677 E5.30627
G1 X71.824 Y127.565 E5.31031
G1 X71.521 Y126.756 E5.33904
G1 X71.422 Y126.456 E5.34955
G1 X71.196 Y125.677 E5.37653
G1 X71.149 Y125.489 E5.38297
G1 X70.936 Y124.407 E5.41965
G1 X70.864 Y123.913 E5.43625
G1 X70.764 Y122.897 E5.47021
G1 X70.757 Y122.762 E5.47471
G1 X70.748 Y121.815 E5.5062
G1 X70.771 Y121.144 E5.52854
G1 X70.78 Y120.939 E5.53536
G1 X70.907 Y118.545 E5.6151
G1 X70.97 Y116.01 E5.69944
G1 X70.962 Y113.491 E5.78322
G1 X70.884 Y111.013 E5.86568
G1 X70.81 Y109.844 E5.90464
G1 X70.803 Y109.518 E5.91548
G1 X70.767 Y108.889 E5.93644
G1 X70.749 Y108.276 E5.95684
G1 X70.748 Y107.777 E5.97343
G1 X70.774 Y107.003 E5.99919
G1 X70.789 Y106.784 E6.00649
G1 X70.932 Y105.617 E6.0456
G1 X71.008 Y105.188 E6.06009
G1 X71.234 Y104.186 E6.09425
G1 X71.299 Y103.95 E6.10239
G1 X71.615 Y102.98 E6.13632
G1 X71.75 Y102.623 E6.14902
G1 X72.2 Y101.595 E6.18634
G1 X72.321 Y101.353 E6.19534
G1 X72.695 Y100.667 E6.22133
G1 X72.862 Y100.385 E6.23223
G1 X73.336 Y99.652 E6.26126
G1 X73.379 Y99.591 E6.26374
G1 X73.665 Y99.204 E6.27975
G1 X73.879 Y98.927 E6.29139
G1 X74.295 Y98.421 E6.31318
G1 X74.336 Y98.374 E6.31525
G1 X74.795 Y97.879 E6.33771
G1 X74.944 Y97.728 E6.34476
G1 X75.387 Y97.303 E6.36518
G1 X75.675 Y97.042 E6.37811
G1 X76.665 Y96.245 E6.42038
G0 F6000 X76.897 Y96.57
G1 F1200 X77.125 Y96.407 E6.4297
G1 X77.683 Y96.034 E6.45202
G1 X77.898 Y95.9 E6.46045
G1 X78.302 Y95.661 E6.47606
G1 X78.373 Y95.621 E6.47877
G1 X79.064 Y95.264 E6.50464
G1 X79.368 Y95.121 E6.51582
G1 X79.853 Y94.908 E6.53343
G1 X79.965 Y94.862 E6.53746
G1 X80.66 Y94.604 E6.56212
G1 X80.959 Y94.505 E6.57259
G1 X81.746 Y94.278 E6.59984
G1 X81.932 Y94.232 E6.60621
G1 X82.934 Y94.035 E6.64018
G1 X83.43 Y93.962 E6.65685
G1 X84.428 Y93.863 E6.69021
G1 X84.564 Y93.856 E6.69474
G1 X85.473 Y93.848 E6.72497
G1 X86.143 Y93.871 E6.74727
G1 X88.724 Y94.006 E6.83323
G1 X91.281 Y94.07 E6.9183
G1 X93.787 Y94.063 E7.00165
G1 X96.324 Y93.982 E7.08608
G1 X97.481 Y93.909 E7.12463
G1 X97.826 Y93.902 E7.13611
G1 X98.436 Y93.867 E7.15643
G1 X99.031 Y93.849 E7.17623
G1 X99.687 Y93.848 E7.19805
G1 X100.064 Y93.854 E7.21059
G1 X100.554 Y93.871 E7.2269
G1 X103.134 Y93.921 E7.31273
G1 X106.286 Y93.883 E7.41757
G1 X107.509 Y93.847 E7.45827
G1 X108.169 Y93.849 E7.48022
G1 X108.831 Y93.871 E7.50225
G1 X109.04 Y93.88 E7.50921
G1 X111.424 Y94.006 E7.58861
G1 X113.982 Y94.07 E7.67371
G1 X116.488 Y94.063 E7.75706
G1 X119.024 Y93.982 E7.84145
G1 X120.181 Y93.909 E7.88001
G1 X120.526 Y93.902 E7.89149
G1 X121.136 Y93.867 E7.91181
G1 X121.726 Y93.849 E7.93145
G1 X122.224 Y93.848 E7.94801
G1 X122.969 Y93.873 E7.9728
G1 X123.188 Y93.888 E7.9801
G1 X124.313 Y94.026 E8.0178
G1 X124.742 Y94.102 E8.03229
G1 X125.708 Y94.32 E8.06523
G1 X125.944 Y94.385 E8.07337
G1 X126.863 Y94.683 E8.1055
G1 X127.219 Y94.817 E8.11815
G1 X128.241 Y95.265 E8.15527
G1 X128.482 Y95.386 E8.16424
G1 X129.133 Y95.741 E8.1889
G1 X129.418 Y95.91 E8.19992
G1 X130.06 Y96.323 E8.22531
G1 X130.119 Y96.364 E8.2277
G1 X130.552 Y96.682 E8.24557
G1 X130.825 Y96.893 E8.25704
G1 X131.464 Y97.428 E8.28476
G1 X131.761 Y97.706 E8.29829
G1 X131.921 Y97.861 E8.3057
G1 X132.4 Y98.356 E8.32861
G1 X132.661 Y98.644 E8.34154
G1 X133.448 Y99.622 E8.38329
G1 X133.61 Y99.85 E8.3926
G1 X133.944 Y100.35 E8.4126
G1 X134.081 Y100.568 E8.42116
G1 X134.359 Y101.037 E8.43929
G1 X134.397 Y101.105 E8.44188
G1 X134.742 Y101.778 E8.46704
G1 X134.884 Y102.081 E8.47817
G1 X135.062 Y102.482 E8.49276
G1 X135.106 Y102.587 E8.49655
G1 X135.386 Y103.332 E8.52302
G1 X135.488 Y103.638 E8.53374
G1 X135.716 Y104.419 E8.5608
G1 X135.761 Y104.599 E8.56698
G1 X135.963 Y105.621 E8.60163
G1 X136.037 Y106.122 E8.61847
G1 X136.137 Y107.13 E8.65216
G1 X136.144 Y107.267 E8.65672
G1 X136.152 Y108.162 E8.68649
G1 X136.13 Y108.82 E8.70839
G1 X136.121 Y109.028 E8.71531
G1 X135.994 Y111.427 E8.79522
G1 X135.93 Y113.981 E8.88019
G1 X135.937 Y116.488 E8.96357
G1 X136.018 Y119.025 E9.048
G1 X136.091 Y120.181 E9.08652
G1 X136.098 Y120.524 E9.09793
G1 X136.133 Y121.134 E9.11826
G1 X136.151 Y121.725 E9.13792
G1 X136.152 Y122.219 E9.15435
G1 X136.128 Y122.948 E9.17861
G1 X136.113 Y123.172 E9.18608
G1 X135.974 Y124.313 E9.22431
G1 X135.898 Y124.742 E9.2388
G1 X135.677 Y125.719 E9.27212
G1 X135.612 Y125.954 E9.28023
G1 X135.318 Y126.859 E9.31187
G1 X135.183 Y127.218 E9.32463
G1 X134.734 Y128.243 E9.36185
G1 X134.613 Y128.484 E9.37082
G1 X134.246 Y129.153 E9.3962
G1 X134.078 Y129.435 E9.40712
G1 X133.792 Y129.89 E9.42499
G1 X133.752 Y129.95 E9.42739
G1 X133.302 Y130.574 E9.45298
G1 X133.086 Y130.852 E9.46469
G1 X132.672 Y131.353 E9.4863
G1 X132.248 Y131.811 E9.50706
G1 X132.092 Y131.97 E9.51447
G1 X131.644 Y132.4 E9.53512
G1 X131.356 Y132.661 E9.54805
G1 X130.403 Y133.43 E9.58878
G1 X130.175 Y133.593 E9.5981
G1 X129.61 Y133.97 E9.62069
G1 X129.385 Y134.11 E9.62951
G1 X128.946 Y134.369 E9.64646
G1 X128.885 Y134.403 E9.64878
G1 X128.236 Y134.736 E9.67304
G1 X127.932 Y134.879 E9.68422
G1 X127.447 Y135.092 E9.70184
G1 X127.335 Y135.138 E9.70586
G1 X126.64 Y135.396 E9.73052
G1 X126.341 Y135.495 E9.741
G1 X125.554 Y135.722 E9.76824
G1 X125.368 Y135.768 E9.77461
G1 X124.366 Y135.965 E9.80858
G1 X123.87 Y136.038 E9.82525
G1 X122.872 Y136.137 E9.85861
G1 X122.736 Y136.144 E9.86314
G1 X121.827 Y136.152 E9.89337
G1 X121.157 Y136.129 E9.91567
G1 X118.576 Y135.994 E10.00163
G1 X116.019 Y135.93 E10.0867
G1 X113.513 Y135.937 E10.17005
G1 X110.976 Y136.018 E10.25448
G1 X109.819 Y136.091 E10.29304
G1 X109.474 Y136.098 E10.30451
G1 X108.864 Y136.133 E10.32484
G1 X108.269 Y136.151 E10.34464
G1 X107.613 Y136.152 E10.36645
G1 X107.236 Y136.146 E10.37899
G1 X106.746 Y136.129 E10.3953
G1 X104.166 Y136.079 E10.48113
G1 X101.014 Y136.117 E10.58597
G1 X99.791 Y136.153 E10.62667
G1 X99.131 Y136.151 E10.64862
G1 X98.469 Y136.129 E10.67065
G1 X98.26 Y136.12 E10.67761
G1 X95.876 Y135.994 E10.75701
G1 X93.318 Y135.93 E10.84212
G1 X90.812 Y135.937 E10.92547
G1 X88.276 Y136.018 E11.00986
G1 X87.119 Y136.091 E11.04842
G1 X86.774 Y136.098 E11.05989
G1 X86.164 Y136.133 E11.08021
G1 X85.574 Y136.151 E11.09985
G1 X85.076 Y136.152 E11.11641
G1 X84.331 Y136.127 E11.1412
G1 X84.112 Y136.112 E11.1485
G1 X82.987 Y135.974 E11.1862
G1 X82.558 Y135.898 E11.20069
G1 X81.592 Y135.68 E11.23363
G1 X81.356 Y135.615 E11.24177
G1 X80.422 Y135.311 E11.27444
G1 X80.065 Y135.176 E11.28714
G1 X79.058 Y134.734 E11.32371
G1 X78.815 Y134.612 E11.33276
G1 X78.17 Y134.26 E11.3572
G1 X77.888 Y134.093 E11.3681
G1 X77.24 Y133.677 E11.39371
G1 X77.181 Y133.636 E11.3961
G1 X76.77 Y133.335 E11.41304
G1 X76.528 Y133.149 E11.42319
G1 X76.054 Y132.762 E11.44355
G1 X75.98 Y132.698 E11.4468
G1 X75.538 Y132.294 E11.46672
G1 X75.377 Y132.138 E11.47417
G1 X74.897 Y131.642 E11.49713
G1 X74.637 Y131.355 E11.51001
G1 X73.875 Y130.41 E11.55039
G1 X73.711 Y130.181 E11.55976
G1 X73.32 Y129.594 E11.58321
G1 X73.183 Y129.373 E11.59186
G1 X72.953 Y128.985 E11.60686
G1 X72.917 Y128.921 E11.60931
G1 X72.558 Y128.222 E11.63544
G1 X72.416 Y127.919 E11.64657
G1 X72.24 Y127.523 E11.66098
G1 X72.193 Y127.411 E11.66502
G1 X71.901 Y126.631 E11.69273
G1 X71.802 Y126.331 E11.70323
G1 X71.584 Y125.58 E11.72924
G1 X71.537 Y125.392 E11.73569
G1 X71.332 Y124.35 E11.77101
G1 X71.26 Y123.856 E11.78761
G1 X71.163 Y122.876 E11.82037
G1 X71.156 Y122.741 E11.82486
G1 X71.148 Y121.829 E11.8552
G1 X71.171 Y121.158 E11.87753
G1 X71.306 Y118.576 E11.96352
G1 X71.37 Y116.019 E12.0486
G1 X71.363 Y113.512 E12.13198
G1 X71.282 Y110.975 E12.2164
G1 X71.209 Y109.819 E12.25493
G1 X71.202 Y109.476 E12.26634
G1 X71.167 Y108.866 E12.28666
G1 X71.149 Y108.275 E12.30633
G1 X71.148 Y107.776 E12.32292
G1 X71.173 Y107.031 E12.34772
G1 X71.188 Y106.812 E12.35502
G1 X71.326 Y105.687 E12.39272
G1 X71.402 Y105.258 E12.40721
G1 X71.62 Y104.292 E12.44014
G1 X71.685 Y104.056 E12.44829
G1 X71.989 Y103.122 E12.48096
G1 X72.124 Y102.765 E12.49365
G1 X72.558 Y101.774 E12.52963
G1 X72.679 Y101.532 E12.53863
G1 X73.039 Y100.871 E12.56367
G1 X73.206 Y100.589 E12.57457
G1 X73.663 Y99.883 E12.60254
G1 X73.706 Y99.822 E12.60502
G1 X73.982 Y99.449 E12.62045
G1 X74.196 Y99.172 E12.6321
G1 X74.596 Y98.684 E12.65308
G1 X74.637 Y98.637 E12.65516
G1 X75.08 Y98.16 E12.67681
G1 X75.229 Y98.009 E12.68386
G1 X75.656 Y97.6 E12.70353
G1 X75.944 Y97.339 E12.71646
G1 X76.897 Y96.57 E12.75719
G0 F6000 X77.13 Y96.895
G1 F1200 X77.358 Y96.732 E12.76651
G1 X77.895 Y96.374 E12.78798
G1 X78.11 Y96.24 E12.7964
G1 X78.498 Y96.009 E12.81142
G1 X78.569 Y95.969 E12.81413
G1 X79.234 Y95.626 E12.83902
G1 X79.538 Y95.483 E12.85019
G1 X80.005 Y95.278 E12.86715
G1 X80.117 Y95.232 E12.87118
G1 X80.786 Y94.984 E12.89491
G1 X81.085 Y94.885 E12.90539
G1 X81.842 Y94.666 E12.9316
G1 X82.028 Y94.62 E12.93797
G1 X82.992 Y94.431 E12.97064
G1 X83.488 Y94.358 E12.98732
G1 X84.449 Y94.262 E13.01944
G1 X84.585 Y94.255 E13.02397
G1 X85.459 Y94.248 E13.05304
G1 X86.318 Y94.279 E13.08163
G1 X88.727 Y94.407 E13.16187
G1 X91.273 Y94.471 E13.24657
G1 X93.8 Y94.462 E13.33062
G1 X96.33 Y94.382 E13.41481
G1 X97.506 Y94.308 E13.454
G1 X97.841 Y94.302 E13.46515
G1 X98.459 Y94.266 E13.48574
G1 X99.031 Y94.249 E13.50477
G1 X99.687 Y94.248 E13.52659
G1 X100.051 Y94.254 E13.5387
G1 X100.534 Y94.27 E13.55477
G1 X103.131 Y94.321 E13.64116
G1 X106.301 Y94.282 E13.74661
G1 X107.52 Y94.247 E13.78717
G1 X108.156 Y94.249 E13.80832
G1 X109.018 Y94.279 E13.83701
G1 X111.427 Y94.407 E13.91725
G1 X113.974 Y94.471 E14.00199
G1 X116.501 Y94.462 E14.08603
G1 X119.03 Y94.382 E14.17019
G1 X120.206 Y94.308 E14.20938
G1 X120.541 Y94.302 E14.22053
G1 X121.159 Y94.266 E14.24112
G1 X121.727 Y94.249 E14.26002
G1 X122.225 Y94.248 E14.27658
G1 X122.942 Y94.272 E14.30044
G1 X123.161 Y94.287 E14.30774
