;FLAVOR:Marlin
;TIME:692
;Filament used: 0.392681m
;Layer height: 0.16
;MINX:87.931
;MINY:87.891
;MINZ:0.2
;MAXX:142.079
;MAXY:142.018
;MAXZ:7
;Generated with Cura_SteamEngine 4.12.0
M140 S50
M105
M190 S50
M104 S200
M105
M109 S200
M82 ;absolute extrusion mode
; Ender 3 Custom Start G-code
G92 E0 ; Reset Extruder
G28 ; Home all axes
G1 Z2.0 F3000 ; Move Z Axis up little to prevent scratching of Heat Bed
G1 X0.1 Y20 Z0.3 F5000.0 ; Move to start position
G1 X0.1 Y200.0 Z0.3 F1500.0 E15 ; Draw the first line
G1 X0.4 Y200.0 Z0.3 F5000.0 ; Move to side a little
G1 X0.4 Y20 Z0.3 F1500.0 E30 ; Draw the second line
G92 E0 ; Reset Extruder
G1 Z2.0 F3000 ; Move Z Axis up little to prevent scratching of Heat Bed
G1 X5 Y20 Z0.3 F5000.0 ; Move over to prevent blob squish
G92 E0
G92 E0
G1 F2700 E-5
;LAYER_COUNT:36
;LAYER:0
M107
G0 F6000 X98.191 Y91.475 Z0.2
;TYPE:SKIRT
G1 F2700 E0
G1 F1200 X98.672 Y91.007 E0.02232
G1 X99.372 Y90.382 E0.05353
G1 X100.122 Y89.819 E0.08472
G1 X100.917 Y89.322 E0.11591
G1 X101.752 Y88.895 E0.1471
G1 X102.62 Y88.54 E0.17829
G1 X103.515 Y88.261 E0.20947
G1 X104.431 Y88.058 E0.24068
G1 X105.361 Y87.935 E0.27188
G1 X106.298 Y87.891 E0.30308
G1 X107.235 Y87.927 E0.33427
G1 X108.166 Y88.043 E0.36547
G1 X109.083 Y88.238 E0.39665
G1 X109.981 Y88.51 E0.42786
G1 X110.852 Y88.857 E0.45904
G1 X111.69 Y89.278 E0.49024
G1 X112.489 Y89.768 E0.52141
G1 X113.244 Y90.325 E0.55262
G1 X113.909 Y90.906 E0.58199
G1 X114.138 Y91.123 E0.59248
G1 X114.35 Y91.33 E0.60233
G1 X138.487 Y115.468 E1.73769
G1 X138.955 Y115.948 E1.75999
G1 X139.581 Y116.647 E1.79119
G1 X140.144 Y117.396 E1.82236
G1 X140.642 Y118.191 E1.85356
G1 X141.07 Y119.025 E1.88474
G1 X141.426 Y119.893 E1.91594
G1 X141.706 Y120.788 E1.94713
G1 X141.91 Y121.704 E1.97835
G1 X142.034 Y122.633 E2.00952
G1 X142.079 Y123.57 E2.04072
G1 X142.044 Y124.507 E2.07191
G1 X141.929 Y125.438 E2.10311
G1 X141.735 Y126.356 E2.13431
G1 X141.464 Y127.254 E2.16551
G1 X141.117 Y128.125 E2.1967
G1 X140.698 Y128.964 E2.22789
G1 X140.208 Y129.764 E2.25909
G1 X139.652 Y130.519 E2.29028
G1 X139.082 Y131.174 E2.31915
G1 X138.9 Y131.367 E2.32798
G1 X138.676 Y131.598 E2.33868
G1 X131.834 Y138.439 E2.66048
G1 X131.359 Y138.902 E2.68255
G1 X130.66 Y139.527 E2.71373
G1 X129.911 Y140.091 E2.74492
G1 X129.116 Y140.589 E2.77612
G1 X128.281 Y141.017 E2.80733
G1 X127.413 Y141.372 E2.83852
G1 X126.518 Y141.653 E2.86972
G1 X125.603 Y141.856 E2.90089
G1 X124.673 Y141.98 E2.9321
G1 X123.288 Y142.018 E2.97818
G1 X122.325 Y141.944 E3.0103
G1 X121.4 Y141.791 E3.04149
G1 X120.491 Y141.56 E3.07268
G1 X119.605 Y141.252 E3.10388
G1 X118.749 Y140.87 E3.13506
G1 X117.928 Y140.417 E3.16624
G1 X117.148 Y139.895 E3.19746
G1 X116.11 Y139.03 E3.2424
G1 X115.92 Y138.851 E3.25108
G1 X115.578 Y138.515 E3.26703
G1 X115.218 Y138.145 E3.2842
G1 X113.393 Y136.318 E3.37009
G1 X113.121 Y136.056 E3.38265
G1 X112.864 Y135.803 E3.39464
G1 X112.698 Y135.636 E3.40248
G1 X112.26 Y135.186 E3.42336
G1 X111.628 Y134.477 E3.45495
G1 X111.362 Y134.151 E3.46895
G1 X110 Y132.44 E3.54168
G1 X108.38 Y130.519 E3.62526
G1 X106.71 Y128.648 E3.70868
G1 X104.973 Y126.809 E3.79281
G1 X103.197 Y125.034 E3.87633
G1 X101.37 Y123.306 E3.95997
G1 X99.502 Y121.639 E4.04324
G1 X97.527 Y119.972 E4.1292
G1 X96.511 Y119.153 E4.1726
G1 X95.619 Y118.445 E4.21048
G1 X94.879 Y117.801 E4.24311
G1 X94.676 Y117.608 E4.25242
G1 X94.377 Y117.313 E4.26639
G1 X93.963 Y116.888 E4.28613
G1 X92.347 Y115.297 E4.36155
G1 X92.103 Y115.035 E4.37346
G1 X91.663 Y114.602 E4.39399
G1 X91.507 Y114.445 E4.40136
G1 X91.059 Y113.986 E4.42269
G1 X90.433 Y113.288 E4.45387
G1 X89.869 Y112.539 E4.48506
G1 X89.371 Y111.744 E4.51626
G1 X88.942 Y110.91 E4.54745
G1 X88.586 Y110.042 E4.57866
G1 X88.305 Y109.147 E4.60986
G1 X88.101 Y108.232 E4.64104
G1 X87.976 Y107.302 E4.67225
G1 X87.931 Y106.366 E4.70341
G1 X87.966 Y105.428 E4.73463
G1 X88.08 Y104.497 E4.76583
G1 X88.273 Y103.58 E4.797
G1 X88.544 Y102.682 E4.8282
G1 X88.89 Y101.81 E4.8594
G1 X89.31 Y100.971 E4.89061
G1 X89.799 Y100.171 E4.92179
G1 X90.354 Y99.415 E4.95298
G1 X90.924 Y98.761 E4.98184
G1 X91.135 Y98.537 E4.99207
G1 X91.364 Y98.301 E5.00301
G1 X98.191 Y91.475 E5.32411
G0 F6000 X98.47 Y91.762
G1 F1200 X98.951 Y91.294 E5.34643
G1 X99.638 Y90.681 E5.37705
G1 X100.376 Y90.13 E5.40769
G1 X101.159 Y89.645 E5.43832
G1 X101.98 Y89.23 E5.46892
G1 X102.835 Y88.888 E5.49954
G1 X103.716 Y88.622 E5.53015
G1 X104.617 Y88.432 E5.56078
G1 X105.531 Y88.322 E5.5914
G1 X106.451 Y88.292 E5.62201
G1 X107.371 Y88.341 E5.65266
G1 X108.282 Y88.47 E5.68326
G1 X109.179 Y88.678 E5.71389
G1 X110.055 Y88.962 E5.74451
G1 X110.902 Y89.322 E5.77512
G1 X111.716 Y89.753 E5.80576
G1 X112.488 Y90.254 E5.83637
G1 X113.214 Y90.82 E5.86699
G1 X113.634 Y91.197 E5.88576
G1 X113.863 Y91.414 E5.89625
G1 X114.067 Y91.613 E5.90573
G1 X138.201 Y115.747 E7.04092
G1 X138.669 Y116.227 E7.06322
G1 X139.282 Y116.914 E7.09384
G1 X139.834 Y117.651 E7.12447
G1 X140.319 Y118.433 E7.15507
G1 X140.735 Y119.254 E7.18568
G1 X141.078 Y120.109 E7.21632
G1 X141.346 Y120.99 E7.24695
G1 X141.536 Y121.89 E7.27755
G1 X141.647 Y122.804 E7.30817
G1 X141.679 Y123.724 E7.33879
G1 X141.63 Y124.644 E7.36943
G1 X141.502 Y125.556 E7.40006
G1 X141.295 Y126.453 E7.43068
G1 X141.012 Y127.329 E7.4613
G1 X140.653 Y128.176 E7.49189
G1 X140.222 Y128.99 E7.52253
G1 X139.722 Y129.763 E7.55315
G1 X139.157 Y130.49 E7.58377
G1 X138.791 Y130.899 E7.60203
G1 X138.609 Y131.092 E7.61085
G1 X138.393 Y131.315 E7.62118
G1 X131.555 Y138.153 E7.94282
G1 X131.08 Y138.616 E7.96488
G1 X130.393 Y139.229 E7.9955
G1 X129.656 Y139.78 E8.02611
G1 X128.874 Y140.266 E8.05673
G1 X128.052 Y140.682 E8.08737
G1 X127.198 Y141.025 E8.11798
G1 X126.317 Y141.292 E8.1486
G1 X125.416 Y141.482 E8.17923
G1 X124.502 Y141.593 E8.20985
G1 X123.303 Y141.618 E8.24974
G1 X122.357 Y141.544 E8.2813
G1 X121.449 Y141.392 E8.31192
G1 X120.558 Y141.162 E8.34252
G1 X119.69 Y140.855 E8.37315
G1 X118.851 Y140.474 E8.40379
G1 X118.05 Y140.022 E8.43438
G1 X117.29 Y139.502 E8.46501
G1 X116.384 Y138.739 E8.50441
G1 X116.194 Y138.56 E8.51309
G1 X115.865 Y138.236 E8.52845
G1 X115.542 Y137.904 E8.54385
G1 X113.647 Y136.007 E8.63304
G1 X113.402 Y135.771 E8.64435
G1 X113.145 Y135.518 E8.65635
G1 X112.985 Y135.357 E8.6639
G1 X112.547 Y134.907 E8.68478
G1 X111.937 Y134.224 E8.71524
G1 X111.675 Y133.902 E8.72905
G1 X110.32 Y132.2 E8.8014
G1 X108.687 Y130.264 E8.88564
G1 X106.998 Y128.371 E8.97002
G1 X105.247 Y126.517 E9.05484
G1 X103.491 Y124.762 E9.13742
G1 X101.627 Y122.999 E9.22275
G1 X99.763 Y121.335 E9.30586
G1 X97.803 Y119.681 E9.39116
G1 X96.76 Y118.84 E9.43572
G1 X95.868 Y118.132 E9.4736
G1 X95.154 Y117.511 E9.50507
G1 X94.951 Y117.318 E9.51439
G1 X94.664 Y117.034 E9.52782
G1 X94.248 Y116.607 E9.54764
G1 X92.628 Y115.012 E9.62326
G1 X92.388 Y114.754 E9.63498
G1 X91.793 Y114.166 E9.6628
G1 X91.345 Y113.707 E9.68413
G1 X90.731 Y113.021 E9.71475
G1 X90.18 Y112.284 E9.74536
G1 X89.694 Y111.502 E9.77598
G1 X89.277 Y110.681 E9.80661
G1 X88.934 Y109.827 E9.83722
G1 X88.666 Y108.946 E9.86785
G1 X88.475 Y108.045 E9.89848
G1 X88.363 Y107.131 E9.92911
G1 X88.331 Y106.211 E9.95973
G1 X88.379 Y105.292 E9.99033
G1 X88.507 Y104.38 E10.02096
G1 X88.713 Y103.483 E10.05157
G1 X88.996 Y102.607 E10.08219
G1 X89.355 Y101.759 E10.11282
G1 X89.785 Y100.945 E10.14344
G1 X90.284 Y100.171 E10.17407
G1 X90.849 Y99.444 E10.20469
G1 X91.215 Y99.035 E10.22295
G1 X91.426 Y98.811 E10.23318
G1 X91.647 Y98.584 E10.24372
G1 X98.47 Y91.762 E10.56463
G0 F6000 X98.749 Y92.048
G1 F1200 X99.23 Y91.58 E10.58695
G1 X99.905 Y90.98 E10.61699
G1 X100.63 Y90.441 E10.64704
G1 X101.399 Y89.969 E10.67705
G1 X102.208 Y89.567 E10.70709
G1 X103.049 Y89.238 E10.73713
G1 X103.916 Y88.984 E10.76718
G1 X104.801 Y88.808 E10.79719
G1 X105.699 Y88.711 E10.82723
G1 X106.602 Y88.694 E10.85727
G1 X107.503 Y88.757 E10.88731
G1 X108.395 Y88.9 E10.91736
G1 X109.271 Y89.12 E10.9474
G1 X110.123 Y89.417 E10.97741
G1 X110.947 Y89.789 E11.00748
G1 X111.734 Y90.232 E11.03752
G1 X112.478 Y90.743 E11.06754
G1 X113.359 Y91.487 E11.10589
G1 X113.588 Y91.704 E11.11638
G1 X113.784 Y91.896 E11.12551
G1 X137.914 Y116.026 E12.26051
G1 X138.382 Y116.506 E12.28281
G1 X138.983 Y117.18 E12.31284
G1 X139.523 Y117.905 E12.34291
G1 X139.996 Y118.674 E12.37294
G1 X140.399 Y119.482 E12.40297
G1 X140.729 Y120.323 E12.43302
G1 X140.983 Y121.189 E12.46303
G1 X141.16 Y122.075 E12.49308
G1 X141.258 Y122.973 E12.52313
G1 X141.276 Y123.876 E12.55317
G1 X141.214 Y124.777 E12.58321
G1 X141.073 Y125.669 E12.61324
G1 X140.853 Y126.545 E12.64328
G1 X140.556 Y127.398 E12.67333
G1 X140.186 Y128.221 E12.70334
G1 X139.744 Y129.009 E12.73339
G1 X139.234 Y129.754 E12.76342
G1 X138.5 Y130.625 E12.8013
G1 X138.318 Y130.818 E12.81012
G1 X138.11 Y131.032 E12.82005
G1 X131.276 Y137.866 E13.1415
G1 X130.801 Y138.329 E13.16356
G1 X130.127 Y138.93 E13.1936
G1 X129.402 Y139.469 E13.22365
G1 X128.633 Y139.942 E13.25367
G1 X127.825 Y140.345 E13.2837
G1 X126.984 Y140.675 E13.31375
G1 X126.117 Y140.93 E13.34381
G1 X125.232 Y141.106 E13.37382
G1 X124.334 Y141.204 E13.40387
G1 X123.289 Y141.218 E13.43863
G1 X122.389 Y141.145 E13.46866
G1 X121.498 Y140.994 E13.49872
G1 X120.625 Y140.764 E13.52874
G1 X119.775 Y140.458 E13.55879
G1 X118.956 Y140.078 E13.58882
G1 X118.174 Y139.627 E13.61885
G1 X117.434 Y139.109 E13.64889
G1 X116.659 Y138.448 E13.68277
G1 X116.469 Y138.269 E13.69145
G1 X116.152 Y137.957 E13.70624
G1 X115.83 Y137.626 E13.7216
G1 X113.946 Y135.74 E13.81027
G1 X113.682 Y135.486 E13.82245
G1 X113.425 Y135.233 E13.83445
G1 X112.834 Y134.628 E13.86258
G1 X112.247 Y133.971 E13.89188
G1 X111.988 Y133.653 E13.90552
G1 X110.623 Y131.938 E13.97842
G1 X108.976 Y129.985 E14.0634
G1 X107.305 Y128.113 E14.14686
G1 X105.555 Y126.26 E14.23163
G1 X103.747 Y124.453 E14.31665
G1 X101.921 Y122.726 E14.40024
G1 X100.004 Y121.015 E14.4857
G1 X98.056 Y119.372 E14.57046
G1 X96.946 Y118.476 E14.61791
G1 X96.117 Y117.818 E14.65311
G1 X95.43 Y117.221 E14.68338
G1 X95.227 Y117.028 E14.6927
G1 X94.95 Y116.755 E14.70563
G1 X94.508 Y116.302 E14.72668
G1 X92.909 Y114.727 E14.80133
G1 X92.679 Y114.48 E14.81256
G1 X92.224 Y114.032 E14.8338
G1 X91.632 Y113.427 E14.86195
G1 X91.03 Y112.754 E14.89198
G1 X90.49 Y112.03 E14.92202
G1 X90.017 Y111.261 E14.95205
G1 X89.613 Y110.453 E14.9821
G1 X89.283 Y109.612 E15.01215
G1 X89.028 Y108.746 E15.04217
G1 X88.851 Y107.86 E15.07222
G1 X88.752 Y106.963 E15.10224
G1 X88.734 Y106.06 E15.13228
G1 X88.795 Y105.159 E15.16231
G1 X88.936 Y104.267 E15.19235
G1 X89.156 Y103.391 E15.22239
G1 X89.452 Y102.537 E15.25245
G1 X89.822 Y101.714 E15.28246
G1 X90.263 Y100.926 E15.3125
G1 X90.773 Y100.18 E15.34256
G1 X91.506 Y99.309 E15.38042
G1 X91.717 Y99.085 E15.39065
G1 X91.93 Y98.867 E15.40079
G1 X98.749 Y92.048 E15.72154
G1 F2700 E10.72154
;MESH:setup_clip_v2.3mf
G0 F6000 X105.491 Y98.79
G0 X106.257 Y99.556
G0 X129.422 Y123.627
G0 X128.971 Y124.334
;TYPE:WALL-INNER
G1 F2700 E15.72154
G1 F1200 X105.636 Y100.999 E16.81914
G1 X106.343 Y100.292 E16.8524
G1 X129.678 Y123.627 E17.95
G1 X128.971 Y124.334 E17.98326
G0 F6000 X128.971 Y124.9
G1 F1200 X105.07 Y100.999 E19.10749
G1 X106.343 Y99.726 E19.16737
G1 X130.244 Y123.627 E20.2916
G1 X128.971 Y124.9 E20.35147
G1 F2700 E15.35147
G0 F6000 X123.667 Y130.387
G1 F2700 E20.35147
G0 F6000 X123.667 Y130.769
;TYPE:WALL-OUTER
G1 F1200 X123.313 Y130.415 E20.36813
G1 X128.617 Y125.112 E20.61759
G1 X126.071 Y122.566 E20.73734
G1 X120.768 Y127.87 E20.9868
G1 X120.414 Y127.516 E21.00345
G1 X125.718 Y122.213 E21.25291
G1 X107.757 Y104.252 E22.09774
G1 X102.454 Y109.556 E22.3472
G1 X102.1 Y109.201 E22.36388
G1 X107.404 Y103.899 E22.61332
G1 X104.858 Y101.353 E22.73307
G1 X99.555 Y106.657 E22.98253
G1 X99.201 Y106.302 E22.99921
G1 X106.343 Y99.16 E23.33515
G1 X130.81 Y123.627 E24.486
G1 X123.667 Y130.769 E24.82196
G0 F6000 X123.667 Y130.387
G0 X128.94 Y125.112
G0 X128.774 Y123.981
G0 X128.971 Y123.784
;TYPE:SKIN
G1 F1200 X106.186 Y100.999 E25.8937
G1 X106.343 Y100.842 E25.90108
G1 X129.128 Y123.627 E26.97282
G1 X128.971 Y123.784 E26.9802
G0 F6000 X128.774 Y123.981
G0 X128.82 Y124.301
G0 X128.914 Y125.238
G0 X128.878 Y125.201
;TYPE:SKIN
G1 F1200 X128.737 Y125.343 E26.98278
G1 X124.918 Y129.161 E27.05231
G1 X123.646 Y130.434 E27.07549
G0 F6000 X123.68 Y130.47
G0 X128.94 Y125.112
G0 X126.071 Y122.243
G0 X120.714 Y127.502
G0 X120.746 Y127.535
G1 F1200 X120.888 Y127.393 E27.07807
G1 X125.979 Y122.302 E27.17081
G0 F6000 X125.946 Y122.268
G0 X107.757 Y103.929
G0 X107.665 Y103.988
G1 F1200 X107.524 Y104.13 E27.17341
G1 X102.433 Y109.221 E27.26693
G0 F6000 X102.4 Y109.188
G0 X107.727 Y103.899
G0 X104.858 Y101.03
G0 X99.501 Y106.289
G0 X99.534 Y106.322
G1 F1200 X99.675 Y106.181 E27.26952
G1 X104.483 Y101.372 E27.35783
G1 X104.625 Y101.231 E27.36043
G0 F6000 X104.713 Y101.036
G1 F1200 X104.82 Y101.143 E27.36295
G1 F2700 E22.36295
;MESH:NONMESH
G0 F300 X104.82 Y101.143 Z0.4
G0 F6000 X104.733 Y101.055
G0 X128.971 Y124.334
;TIME_ELAPSED:51.740696
;LAYER:1
M106 S85
;TYPE:WALL-INNER
;MESH:setup_clip_v2.3mf
G1 F2700 E27.36295
G1 F1350 X105.636 Y100.999 E28.46055
G1 X106.343 Y100.292 E28.49381
G1 X129.678 Y123.627 E29.59142
G1 X128.971 Y124.334 E29.62467
G0 F7500 X128.971 Y124.9
G1 F1350 X105.07 Y100.999 E30.7489
G1 X106.343 Y99.726 E30.80878
G1 X130.244 Y123.627 E31.93301
G1 X128.971 Y124.9 E31.99289
G1 F2700 E26.99289
G0 F7500 X123.667 Y130.387
G1 F2700 E31.99289
G0 F7500 X123.667 Y130.769
;TYPE:WALL-OUTER
G1 F1350 X123.313 Y130.415 E32.00954
G1 X128.617 Y125.112 E32.259
G1 X126.071 Y122.566 E32.37875
G1 X120.768 Y127.87 E32.62821
G1 X120.414 Y127.516 E32.64487
G1 X125.718 Y122.213 E32.89433
G1 X107.757 Y104.252 E33.73916
G1 X102.454 Y109.556 E33.98862
G1 X102.1 Y109.201 E34.00529
G1 X107.404 Y103.899 E34.25473
G1 X104.858 Y101.353 E34.37448
G1 X99.555 Y106.657 E34.62394
G1 X99.201 Y106.302 E34.64062
G1 X106.343 Y99.16 E34.97656
G1 X130.81 Y123.627 E36.12741
G1 X123.667 Y130.769 E36.46337
G0 F7500 X123.667 Y130.387
G0 X128.94 Y125.112
G0 X128.774 Y123.981
G0 X128.971 Y123.784
;TYPE:SKIN
G1 F1350 X106.186 Y100.999 E37.53511
G1 X106.343 Y100.842 E37.54249
G1 X129.128 Y123.627 E38.61423
G1 X128.971 Y123.784 E38.62161
G0 F7500 X128.774 Y123.981
G0 X128.96 Y125.032
G0 X128.918 Y125.074
;TYPE:SKIN
G1 F1350 X123.569 Y130.423 E38.74741
G0 F7500 X123.695 Y130.415
G0 X128.94 Y125.112
G0 X126.071 Y122.243
G0 X120.829 Y127.507
G0 X120.74 Y127.595
G1 F1350 X126.089 Y122.246 E38.87321
G0 F7500 X126.071 Y122.183
G0 X107.747 Y103.819
G0 X107.705 Y103.861
G1 F1350 X102.357 Y109.209 E38.99899
G0 F7500 X102.482 Y109.201
G0 X107.727 Y103.899
G0 X104.858 Y101.03
G0 X99.616 Y106.293
G0 X99.528 Y106.381
G1 F1350 X104.876 Y101.032 E39.12478
G0 F7500 X105.268 Y101.081
G1 F2700 E34.12478
;MESH:NONMESH
G0 F300 X105.268 Y101.081 Z0.6
G0 F7500 X128.971 Y124.334
;TIME_ELAPSED:72.521727
;LAYER:2
M106 S170
;TYPE:WALL-INNER
;MESH:setup_clip_v2.3mf
G1 F2700 E39.12478
G1 F1500 X105.636 Y100.999 E40.22239
G1 X106.343 Y100.292 E40.25564
G1 X129.678 Y123.627 E41.35325
G1 X128.971 Y124.334 E41.3865
G0 F9000 X128.971 Y124.9
G1 F1500 X105.07 Y100.999 E42.51073
G1 X106.343 Y99.726 E42.57061
G1 X130.244 Y123.627 E43.69484
G1 X128.971 Y124.9 E43.75472
G1 F2700 E38.75472
G0 F9000 X123.667 Y130.387
G1 F2700 E43.75472
G0 F9000 X123.667 Y130.769
;TYPE:WALL-OUTER
G1 F1500 X123.313 Y130.415 E43.77137
G1 X128.617 Y125.112 E44.02083
G1 X126.071 Y122.566 E44.14059
G1 X120.768 Y127.87 E44.39005
G1 X120.414 Y127.516 E44.4067
G1 X125.718 Y122.213 E44.65616
G1 X107.757 Y104.252 E45.50099
G1 X102.454 Y109.556 E45.75045
G1 X102.1 Y109.201 E45.76712
G1 X107.404 Y103.899 E46.01656
G1 X104.858 Y101.353 E46.13632
G1 X99.555 Y106.657 E46.38578
G1 X99.201 Y106.302 E46.40245
G1 X106.343 Y99.16 E46.73839
G1 X130.81 Y123.627 E47.88924
G1 X123.667 Y130.769 E48.2252
G0 F9000 X123.667 Y130.387
G0 X128.94 Y125.112
G0 X128.774 Y123.981
G0 X128.971 Y123.784
;TYPE:SKIN
G1 F1500 X106.186 Y100.999 E49.29694
G1 X106.343 Y100.842 E49.30433
G1 X129.128 Y123.627 E50.37606
G1 X128.971 Y123.784 E50.38345
G0 F9000 X128.774 Y123.981
G0 X128.82 Y124.301
G0 X128.914 Y125.238
G0 X128.878 Y125.201
;TYPE:SKIN
