;FLAVOR:Marlin
;TIME:5317
;Filament used: 2.55646m
;Layer height: 0.16
;MINX:70.843
;MINY:69.384
;MINZ:0.2
;MAXX:159.147
;MAXY:160.583
;MAXZ:6.84
;Generated with Cura_SteamEngine 4.12.0
M140 S50
M105
M190 S50
M104 S200
M105
M109 S200
M82 ;absolute extrusion mode
; Ender 3 Custom Start G-code
G92 E0 ; Reset Extruder
G28 ; Home all axes
G1 Z2.0 F3000 ; Move Z Axis up little to prevent scratching of Heat Bed
G1 X0.1 Y20 Z0.3 F5000.0 ; Move to start position
G1 X0.1 Y200.0 Z0.3 F1500.0 E15 ; Draw the first line
G1 X0.4 Y200.0 Z0.3 F5000.0 ; Move to side a little
G1 X0.4 Y20 Z0.3 F1500.0 E30 ; Draw the second line
G92 E0 ; Reset Extruder
G1 Z2.0 F3000 ; Move Z Axis up little to prevent scratching of Heat Bed
G1 X5 Y20 Z0.3 F5000.0 ; Move over to prevent blob squish
G92 E0
G92 E0
G1 F2700 E-5
;LAYER_COUNT:37
;LAYER:0
M107
G0 F6000 X89.024 Y73.397 Z0.2
;TYPE:SKIRT
G1 F2700 E0
G1 F1200 X89.65 Y72.699 E0.03118
G1 X90.334 Y72.058 E0.06236
G1 X91.07 Y71.476 E0.09357
G1 X91.853 Y70.96 E0.12476
G1 X92.677 Y70.512 E0.15596
G1 X93.537 Y70.136 E0.18717
G1 X94.425 Y69.835 E0.21836
G1 X95.335 Y69.61 E0.24954
G1 X96.262 Y69.464 E0.28075
G1 X97.203 Y69.397 E0.31213
G1 X97.523 Y69.388 E0.32277
G1 X97.832 Y69.384 E0.33305
G1 X131.951 Y69.385 E1.46785
G1 X132.652 Y69.395 E1.49117
G1 X133.588 Y69.448 E1.52235
G1 X134.517 Y69.581 E1.55357
G1 X135.43 Y69.793 E1.58474
G1 X136.323 Y70.081 E1.61595
G1 X137.187 Y70.445 E1.64713
G1 X138.018 Y70.881 E1.67834
G1 X138.808 Y71.386 E1.70953
G1 X139.552 Y71.956 E1.7407
G1 X140.245 Y72.588 E1.7719
G1 X140.882 Y73.277 E1.80311
G1 X141.458 Y74.017 E1.8343
G1 X141.969 Y74.804 E1.86551
G1 X142.41 Y75.631 E1.89668
G1 X142.644 Y76.151 E1.91565
G1 X143.138 Y77.334 E1.95828
G1 X144.146 Y79.648 E2.04223
G1 X145.216 Y81.925 E2.12591
G1 X146.361 Y84.195 E2.21047
G1 X147.557 Y86.41 E2.2942
G1 X148.808 Y88.574 E2.37733
G1 X150.115 Y90.695 E2.4602
G1 X151.522 Y92.84 E2.54552
G1 X152.959 Y94.902 E2.62911
G1 X154.448 Y96.914 E2.71236
G1 X156.057 Y98.966 E2.79909
G1 X156.35 Y99.358 E2.81537
G1 X156.513 Y99.586 E2.82469
G1 X156.898 Y100.161 E2.84771
G1 X157.034 Y100.379 E2.85625
G1 X157.303 Y100.835 E2.87386
G1 X157.341 Y100.903 E2.87645
G1 X157.699 Y101.601 E2.90255
G1 X157.841 Y101.904 E2.91368
G1 X158.035 Y102.341 E2.92958
G1 X158.08 Y102.449 E2.93347
G1 X158.371 Y103.23 E2.96119
G1 X158.48 Y103.56 E2.97275
G1 X158.74 Y104.478 E3.00448
G1 X158.775 Y104.626 E3.00954
G1 X158.954 Y105.564 E3.0413
G1 X159.03 Y106.083 E3.05875
G1 X159.132 Y107.124 E3.09354
G1 X159.139 Y107.263 E3.09817
G1 X159.146 Y108.194 E3.12913
G1 X159.116 Y109.037 E3.15719
G1 X158.986 Y111.487 E3.23879
G1 X158.924 Y114.01 E3.32273
G1 X158.933 Y116.537 E3.40678
G1 X159.012 Y118.998 E3.48868
G1 X159.084 Y120.154 E3.5272
G1 X159.09 Y120.448 E3.53698
G1 X159.128 Y121.104 E3.55883
G1 X159.147 Y121.746 E3.5802
G1 X159.147 Y122.228 E3.59623
G1 X159.124 Y122.935 E3.61976
G1 X159.109 Y123.168 E3.62752
G1 X158.961 Y124.395 E3.66863
G1 X158.886 Y124.815 E3.68282
G1 X158.653 Y125.833 E3.71755
G1 X158.58 Y126.095 E3.7266
G1 X158.301 Y126.96 E3.75683
G1 X158.2 Y127.233 E3.76651
G1 X157.811 Y128.153 E3.79973
G1 X157.675 Y128.438 E3.81023
G1 X157.198 Y129.329 E3.84385
G1 X157.014 Y129.638 E3.85581
G1 X156.291 Y130.705 E3.89868
G1 X155.56 Y131.658 E3.93863
G1 X155.435 Y131.818 E3.94538
G1 X154.834 Y132.572 E3.97745
G1 X153.328 Y134.574 E4.06077
G1 X151.857 Y136.651 E4.14543
G1 X150.478 Y138.717 E4.22804
G1 X149.125 Y140.877 E4.31281
G1 X147.861 Y143.025 E4.39571
G1 X146.651 Y145.222 E4.47913
G1 X145.493 Y147.474 E4.56335
G1 X144.396 Y149.764 E4.64781
G1 X143.382 Y152.045 E4.73083
G1 X142.736 Y153.604 E4.78696
G1 X142.557 Y154.015 E4.80187
G1 X142.143 Y154.857 E4.83308
G1 X141.658 Y155.659 E4.86425
G1 X141.106 Y156.418 E4.89547
G1 X140.492 Y157.126 E4.92664
G1 X139.819 Y157.78 E4.95785
G1 X139.094 Y158.374 E4.98902
G1 X138.32 Y158.905 E5.02024
G1 X137.504 Y159.367 E5.05143
G1 X136.651 Y159.758 E5.08264
G1 X135.769 Y160.075 E5.11381
G1 X134.862 Y160.316 E5.14502
G1 X133.939 Y160.479 E5.1762
G1 X132.801 Y160.57 E5.21417
G1 X132.514 Y160.578 E5.22372
G1 X132.057 Y160.581 E5.23892
G1 X131.545 Y160.574 E5.25595
G1 X128.914 Y160.574 E5.34346
G1 X128.614 Y160.58 E5.35344
G1 X128.217 Y160.583 E5.36664
G1 X127.975 Y160.582 E5.37469
G1 X127.353 Y160.573 E5.39538
G1 X126.482 Y160.526 E5.42439
G1 X126.034 Y160.481 E5.43937
G1 X123.846 Y160.232 E5.51261
G1 X121.283 Y160.015 E5.59816
G1 X118.824 Y159.875 E5.68008
G1 X116.266 Y159.803 E5.76519
G1 X113.777 Y159.803 E5.84798
G1 X111.219 Y159.875 E5.93309
G1 X108.735 Y160.016 E6.01584
G1 X106.229 Y160.229 E6.09949
G1 X104.804 Y160.382 E6.14716
G1 X103.745 Y160.503 E6.18261
G1 X102.785 Y160.571 E6.21462
G1 X102.523 Y160.578 E6.22334
G1 X102.077 Y160.581 E6.23817
G1 X101.571 Y160.574 E6.25501
G1 X98.937 Y160.574 E6.34261
G1 X98.575 Y160.581 E6.35466
G1 X98.018 Y160.582 E6.37318
G1 X97.359 Y160.573 E6.3951
G1 X96.422 Y160.52 E6.42632
G1 X95.494 Y160.388 E6.45749
G1 X94.58 Y160.177 E6.48869
G1 X93.688 Y159.889 E6.51987
G1 X92.823 Y159.526 E6.55107
G1 X91.992 Y159.09 E6.58228
G1 X91.201 Y158.586 E6.61348
G1 X90.457 Y158.016 E6.64465
G1 X89.763 Y157.384 E6.67587
G1 X89.126 Y156.696 E6.70705
G1 X88.55 Y155.956 E6.73824
G1 X88.039 Y155.17 E6.76943
G1 X87.596 Y154.343 E6.80063
G1 X87.363 Y153.824 E6.81955
G1 X86.91 Y152.741 E6.8586
G1 X85.875 Y150.368 E6.9447
G1 X84.803 Y148.088 E7.0285
G1 X83.654 Y145.812 E7.1133
G1 X82.484 Y143.646 E7.19518
G1 X81.205 Y141.434 E7.28016
G1 X79.898 Y139.314 E7.363
G1 X78.515 Y137.206 E7.44685
G1 X77.057 Y135.116 E7.53161
G1 X75.582 Y133.123 E7.61408
G1 X73.961 Y131.056 E7.70145
G1 X73.659 Y130.652 E7.71822
G1 X73.416 Y130.311 E7.73215
G1 X72.865 Y129.457 E7.76595
G1 X72.726 Y129.218 E7.77515
G1 X72.267 Y128.34 E7.8081
G1 X72.169 Y128.13 E7.81581
G1 X71.957 Y127.645 E7.83341
G1 X71.86 Y127.408 E7.84193
G1 X71.57 Y126.614 E7.87004
G1 X71.493 Y126.375 E7.8784
G1 X71.291 Y125.67 E7.90279
G1 X71.244 Y125.482 E7.90923
G1 X71.031 Y124.4 E7.94591
G1 X70.959 Y123.906 E7.96252
G1 X70.856 Y122.836 E7.99827
G1 X70.849 Y122.687 E8.00323
G1 X70.844 Y121.789 E8.0331
G1 X70.873 Y120.988 E8.05976
G1 X71.004 Y118.504 E8.14249
G1 X71.066 Y115.971 E8.22676
G1 X71.057 Y113.444 E8.31081
G1 X70.977 Y110.958 E8.39354
G1 X70.907 Y109.835 E8.43096
G1 X70.902 Y109.566 E8.43991
G1 X70.862 Y108.882 E8.4627
G1 X70.844 Y108.269 E8.4831
G1 X70.843 Y107.77 E8.49969
G1 X70.868 Y107.002 E8.52525
G1 X70.882 Y106.796 E8.53212
G1 X71.028 Y105.611 E8.57183
G1 X71.115 Y105.123 E8.58832
G1 X71.349 Y104.096 E8.62335
G1 X71.392 Y103.942 E8.62867
G1 X71.678 Y103.063 E8.65941
G1 X71.828 Y102.66 E8.67371
G1 X72.332 Y101.51 E8.71548
G1 X72.45 Y101.278 E8.72413
G1 X72.79 Y100.66 E8.74759
G1 X72.957 Y100.378 E8.75849
G1 X73.431 Y99.645 E8.78753
G1 X73.474 Y99.584 E8.79001
G1 X73.746 Y99.216 E8.80523
G1 X74.474 Y98.271 E8.84491
G1 X75.202 Y97.357 E8.88377
G1 X76.688 Y95.378 E8.96608
G1 X78.157 Y93.304 E9.05061
G1 X79.551 Y91.211 E9.13425
G1 X80.885 Y89.083 E9.21779
G1 X82.165 Y86.902 E9.3019
G1 X83.37 Y84.716 E9.38492
G1 X84.529 Y82.458 E9.46934
G1 X85.608 Y80.203 E9.55248
G1 X86.652 Y77.853 E9.63801
G1 X87.294 Y76.304 E9.69378
G1 X87.473 Y75.894 E9.70866
G1 X87.529 Y75.773 E9.71309
G1 X87.959 Y74.939 E9.7443
G1 X88.458 Y74.145 E9.77549
G1 X89.024 Y73.397 E9.80669
G0 F6000 X89.365 Y73.612
G1 F1200 X89.984 Y72.931 E9.8373
G1 X90.66 Y72.306 E9.86792
G1 X91.387 Y71.742 E9.89853
G1 X92.161 Y71.243 E9.92916
G1 X92.975 Y70.813 E9.95977
G1 X93.823 Y70.455 E9.99039
G1 X94.7 Y70.173 E10.02103
G1 X95.597 Y69.967 E10.05164
G1 X96.509 Y69.841 E10.08226
G1 X97.214 Y69.797 E10.10576
G1 X97.534 Y69.788 E10.1164
G1 X97.832 Y69.784 E10.12632
G1 X131.794 Y69.784 E11.2559
G1 X132.646 Y69.795 E11.28424
G1 X133.565 Y69.848 E11.31485
G1 X134.476 Y69.981 E11.34547
G1 X135.372 Y70.192 E11.37609
G1 X136.247 Y70.48 E11.40673
G1 X137.093 Y70.843 E11.43735
G1 X137.904 Y71.278 E11.46796
G1 X138.675 Y71.782 E11.49859
G1 X139.399 Y72.351 E11.52922
G1 X140.071 Y72.98 E11.55984
G1 X140.686 Y73.665 E11.59045
G1 X141.239 Y74.401 E11.62107
G1 X141.726 Y75.183 E11.65171
G1 X142.275 Y76.306 E11.69329
G1 X142.739 Y77.416 E11.7333
G1 X143.795 Y79.841 E11.82127
G1 X144.861 Y82.111 E11.90469
G1 X146.006 Y84.379 E11.98919
G1 X147.202 Y86.594 E12.07291
G1 X148.464 Y88.778 E12.15681
G1 X149.8 Y90.945 E12.24148
G1 X151.175 Y93.043 E12.32491
G1 X152.625 Y95.123 E12.40924
G1 X154.128 Y97.154 E12.49328
G1 X155.743 Y99.213 E12.58031
G1 X156.025 Y99.59 E12.59597
G1 X156.188 Y99.818 E12.6053
G1 X156.558 Y100.372 E12.62745
G1 X156.694 Y100.59 E12.636
G1 X156.954 Y101.03 E12.653
G1 X156.992 Y101.098 E12.65559
G1 X157.337 Y101.771 E12.68074
G1 X157.479 Y102.074 E12.69187
G1 X157.666 Y102.495 E12.70719
G1 X157.711 Y102.603 E12.71109
G1 X157.991 Y103.355 E12.73777
G1 X158.1 Y103.685 E12.74933
G1 X158.35 Y104.571 E12.77995
G1 X158.385 Y104.719 E12.78501
G1 X158.558 Y105.622 E12.81559
G1 X158.634 Y106.141 E12.83304
G1 X158.733 Y107.144 E12.86656
G1 X158.74 Y107.283 E12.87119
G1 X158.747 Y108.181 E12.90106
G1 X158.725 Y108.82 E12.92232
G1 X158.587 Y111.456 E13.01012
G1 X158.524 Y114.002 E13.09482
G1 X158.533 Y116.516 E13.17844
G1 X158.615 Y119.068 E13.26336
G1 X158.684 Y120.179 E13.30039
G1 X158.689 Y120.448 E13.30933
G1 X158.729 Y121.127 E13.33196
G1 X158.747 Y121.746 E13.35255
G1 X158.747 Y122.228 E13.36859
G1 X158.725 Y122.909 E13.39125
G1 X158.71 Y123.142 E13.39901
G1 X158.567 Y124.324 E13.43861
G1 X158.492 Y124.744 E13.4528
G1 X158.268 Y125.726 E13.4863
G1 X158.195 Y125.988 E13.49535
G1 X157.925 Y126.821 E13.52447
G1 X157.824 Y127.094 E13.53416
G1 X157.45 Y127.981 E13.56617
G1 X157.314 Y128.266 E13.57668
G1 X156.855 Y129.124 E13.60904
G1 X156.671 Y129.433 E13.621
G1 X155.974 Y130.461 E13.66231
G1 X155.243 Y131.414 E13.70226
G1 X155.122 Y131.569 E13.7088
G1 X154.517 Y132.328 E13.74108
G1 X153.002 Y134.342 E13.8249
G1 X151.525 Y136.427 E13.90989
G1 X150.139 Y138.504 E13.99294
G1 X148.8 Y140.641 E14.07682
G1 X147.509 Y142.835 E14.16148
G1 X146.288 Y145.052 E14.24567
G1 X145.134 Y147.297 E14.32962
G1 X144.047 Y149.565 E14.41327
G1 X142.998 Y151.924 E14.49914
G1 X142.366 Y153.451 E14.55411
G1 X142.192 Y153.854 E14.56871
G1 X141.784 Y154.679 E14.59932
G1 X141.306 Y155.466 E14.62994
G1 X140.761 Y156.208 E14.66056
G1 X140.154 Y156.901 E14.69121
G1 X139.49 Y157.538 E14.72181
G1 X138.772 Y158.115 E14.75245
G1 X138.007 Y158.627 E14.78306
G1 X137.201 Y159.072 E14.81368
G1 X136.359 Y159.444 E14.8443
G1 X135.488 Y159.742 E14.87492
G1 X134.594 Y159.964 E14.90556
G1 X133.685 Y160.107 E14.93616
G1 X132.789 Y160.17 E14.96604
G1 X132.502 Y160.178 E14.97559
G1 X132.062 Y160.181 E14.99022
G1 X131.55 Y160.174 E15.00725
G1 X128.905 Y160.174 E15.09523
G1 X128.611 Y160.18 E15.10501
G1 X128.214 Y160.183 E15.11821
G1 X127.981 Y160.182 E15.12596
G1 X127.359 Y160.173 E15.14665
G1 X126.52 Y160.127 E15.1746
G1 X126.08 Y160.084 E15.1893
G1 X123.858 Y159.831 E15.26368
G1 X121.341 Y159.618 E15.3477
G1 X118.822 Y159.475 E15.43162
G1 X116.277 Y159.403 E15.5163
G1 X113.766 Y159.403 E15.59981
G1 X111.221 Y159.475 E15.68449
G1 X108.712 Y159.617 E15.76808
G1 X106.151 Y159.835 E15.85356
G1 X104.784 Y159.982 E15.89929
G1 X103.699 Y160.106 E15.93561
G1 X102.774 Y160.171 E15.96646
G1 X102.512 Y160.178 E15.97517
G1 X102.082 Y160.181 E15.98948
G1 X101.576 Y160.174 E16.00631
G1 X98.928 Y160.174 E16.09438
G1 X98.573 Y160.181 E16.10619
G1 X98.023 Y160.182 E16.12448
G1 X97.364 Y160.173 E16.1464
G1 X96.445 Y160.12 E16.17702
G1 X95.534 Y159.988 E16.20764
G1 X94.638 Y159.778 E16.23824
G1 X93.763 Y159.49 E16.26888
G1 X92.917 Y159.128 E16.29949
G1 X92.105 Y158.693 E16.33013
G1 X91.334 Y158.19 E16.36075
G1 X90.61 Y157.622 E16.39135
G1 X89.938 Y156.993 E16.42197
G1 X89.323 Y156.308 E16.45258
G1 X88.769 Y155.572 E16.48322
G1 X88.282 Y154.791 E16.51384
G1 X87.732 Y153.67 E16.55537
G1 X87.263 Y152.551 E16.59572
G1 X86.246 Y150.217 E16.6804
G1 X85.158 Y147.902 E16.76548
G1 X84.028 Y145.663 E16.84889
G1 X82.81 Y143.409 E16.93411
G1 X81.564 Y141.255 E17.01687
G1 X80.224 Y139.081 E17.10181
G1 X78.851 Y136.988 E17.18507
G1 X77.39 Y134.895 E17.26996
G1 X75.885 Y132.861 E17.35412
G1 X74.276 Y130.809 E17.44085
G1 X73.985 Y130.42 E17.45701
G1 X73.742 Y130.079 E17.47093
G1 X73.211 Y129.256 E17.50351
G1 X73.072 Y129.017 E17.51271
G1 X72.629 Y128.171 E17.54447
G1 X72.531 Y127.961 E17.55218
G1 X72.327 Y127.493 E17.56916
G1 X72.23 Y127.256 E17.57767
G1 X71.951 Y126.492 E17.60473
G1 X71.874 Y126.253 E17.61308
G1 X71.679 Y125.573 E17.63661
G1 X71.632 Y125.385 E17.64305
G1 X71.427 Y124.343 E17.67837
G1 X71.355 Y123.849 E17.69498
G1 X71.256 Y122.817 E17.72946
G1 X71.249 Y122.668 E17.73442
G1 X71.243 Y121.803 E17.76319
G1 X71.264 Y121.198 E17.78332
G1 X71.403 Y118.535 E17.87202
G1 X71.466 Y115.98 E17.95702
G1 X71.457 Y113.465 E18.04067
G1 X71.376 Y110.921 E18.12533
G1 X71.306 Y109.81 E18.16235
G1 X71.3 Y109.523 E18.1719
G1 X71.262 Y108.859 E18.19402
G1 X71.244 Y108.268 E18.21369
G1 X71.243 Y107.769 E18.23029
G1 X71.267 Y107.029 E18.25491
G1 X71.281 Y106.823 E18.26178
G1 X71.422 Y105.682 E18.30002
G1 X71.509 Y105.194 E18.3165
G1 X71.735 Y104.203 E18.35031
G1 X71.778 Y104.049 E18.35563
G1 X72.053 Y103.202 E18.38525
G1 X72.203 Y102.799 E18.39955
G1 X72.689 Y101.691 E18.43979
G1 X72.807 Y101.459 E18.44845
G1 X73.134 Y100.864 E18.47103
G1 X73.301 Y100.582 E18.48193
G1 X73.758 Y99.876 E18.5099
G1 X74.063 Y99.46 E18.52706
G1 X74.787 Y98.52 E18.56652
G1 X75.502 Y97.622 E18.6047
G1 X77.036 Y95.581 E18.68962
G1 X78.484 Y93.535 E18.77299
G1 X79.89 Y91.423 E18.85738
G1 X81.216 Y89.308 E18.9404
G1 X82.511 Y87.103 E19.02545
G1 X83.733 Y84.886 E19.10965
G1 X84.888 Y82.634 E19.19383
G1 X85.976 Y80.36 E19.27768
G1 X87.001 Y78.054 E19.36161
G1 X87.663 Y76.457 E19.41911
G1 X87.836 Y76.062 E19.43345
G1 X87.892 Y75.941 E19.43789
G1 X88.315 Y75.123 E19.46851
G1 X88.807 Y74.345 E19.49913
G1 X89.365 Y73.612 E19.52977
G0 F6000 X89.705 Y73.829
G1 F1200 X90.316 Y73.164 E19.55981
G1 X90.984 Y72.556 E19.58985
G1 X91.703 Y72.009 E19.6199
G1 X92.467 Y71.528 E19.64993
G1 X93.271 Y71.116 E19.67997
G1 X94.108 Y70.778 E19.71
G1 X94.972 Y70.514 E19.74004
G1 X95.856 Y70.328 E19.77009
G1 X96.753 Y70.221 E19.80014
G1 X97.225 Y70.197 E19.81585
G1 X97.545 Y70.188 E19.8265
G1 X97.832 Y70.184 E19.83605
G1 X131.794 Y70.184 E20.96563
G1 X132.64 Y70.195 E20.99377
G1 X133.542 Y70.248 E21.02382
G1 X134.435 Y70.38 E21.05385
G1 X135.314 Y70.591 E21.08391
G1 X136.17 Y70.879 E21.11395
G1 X136.997 Y71.241 E21.14398
G1 X137.789 Y71.675 E21.17402
G1 X138.539 Y72.178 E21.20405
G1 X139.242 Y72.745 E21.23409
G1 X139.892 Y73.371 E21.26411
G1 X140.485 Y74.053 E21.29416
G1 X141.014 Y74.785 E21.3242
G1 X141.477 Y75.56 E21.35423
G1 X141.906 Y76.46 E21.38739
G1 X142.385 Y77.605 E21.42867
G1 X143.424 Y79.993 E21.51529
G1 X144.5 Y82.282 E21.59941
G1 X145.655 Y84.571 E21.68469
G1 X146.847 Y86.778 E21.76812
G1 X148.135 Y89.008 E21.85377
G1 X149.457 Y91.152 E21.93754
G1 X150.84 Y93.261 E22.02143
G1 X152.308 Y95.367 E22.10681
G1 X153.807 Y97.393 E22.19063
G1 X155.428 Y99.46 E22.278
G1 X155.7 Y99.823 E22.29309
G1 X155.863 Y100.051 E22.30241
G1 X156.219 Y100.584 E22.32373
G1 X156.355 Y100.802 E22.33228
G1 X156.605 Y101.225 E22.34862
G1 X156.643 Y101.293 E22.35121
G1 X156.975 Y101.941 E22.37543
G1 X157.117 Y102.244 E22.38656
G1 X157.296 Y102.649 E22.40128
G1 X157.341 Y102.757 E22.40517
G1 X157.611 Y103.481 E22.43087
G1 X157.72 Y103.811 E22.44243
G1 X157.961 Y104.663 E22.47188
G1 X157.996 Y104.811 E22.47694
G1 X158.162 Y105.68 E22.50637
G1 X158.238 Y106.199 E22.52381
G1 X158.333 Y107.164 E22.55606
G1 X158.34 Y107.303 E22.56069
G1 X158.347 Y108.167 E22.58943
G1 X158.317 Y108.995 E22.61699
G1 X158.186 Y111.461 E22.69912
G1 X158.124 Y113.994 E22.7834
G1 X158.133 Y116.529 E22.86771
G1 X158.214 Y119.074 E22.9524
G1 X158.285 Y120.204 E22.99006
G1 X158.289 Y120.458 E22.99851
G1 X158.33 Y121.15 E23.02157
G1 X158.347 Y121.746 E23.0414
G1 X158.347 Y122.228 E23.05743
G1 X158.326 Y122.883 E23.07922
G1 X158.311 Y123.116 E23.08699
G1 X158.173 Y124.254 E23.12512
G1 X158.098 Y124.674 E23.13931
G1 X157.883 Y125.619 E23.17154
G1 X157.81 Y125.881 E23.18059
