;FLAVOR:Marlin
;TIME:2048
;Filament used: 1.16076m
;Layer height: 0.16
;MINX:79.425
;MINY:79.457
;MINZ:0.2
;MAXX:150.526
;MAXY:150.593
;MAXZ:7
;Generated with Cura_SteamEngine 4.12.0
M140 S50
M105
M190 S50
M104 S200
M105
M109 S200
M82 ;absolute extrusion mode
; Ender 3 Custom Start G-code
G92 E0 ; Reset Extruder
G28 ; Home all axes
G1 Z2.0 F3000 ; Move Z Axis up little to prevent scratching of Heat Bed
G1 X0.1 Y20 Z0.3 F5000.0 ; Move to start position
G1 X0.1 Y200.0 Z0.3 F1500.0 E15 ; Draw the first line
G1 X0.4 Y200.0 Z0.3 F5000.0 ; Move to side a little
G1 X0.4 Y20 Z0.3 F1500.0 E30 ; Draw the second line
G92 E0 ; Reset Extruder
G1 Z2.0 F3000 ; Move Z Axis up little to prevent scratching of Heat Bed
G1 X5 Y20 Z0.3 F5000.0 ; Move over to prevent blob squish
G92 E0
G92 E0
G1 F2700 E-5
;LAYER_COUNT:36
;LAYER:0
M107
G0 F6000 X98.234 Y91.476 Z0.2
;TYPE:SKIRT
G1 F2700 E0
G1 F1200 X99.019 Y90.671 E0.0374
G1 X99.77 Y89.908 E0.07301
G1 X106.638 Y83.041 E0.39603
G1 X107.119 Y82.573 E0.41835
G1 X107.819 Y81.948 E0.44956
G1 X108.569 Y81.385 E0.48076
G1 X109.364 Y80.888 E0.51194
G1 X110.199 Y80.461 E0.54313
G1 X111.067 Y80.106 E0.57432
G1 X111.962 Y79.827 E0.6055
G1 X112.878 Y79.624 E0.63671
G1 X113.808 Y79.501 E0.66791
G1 X114.745 Y79.457 E0.69911
G1 X115.682 Y79.493 E0.7303
G1 X116.613 Y79.609 E0.7615
G1 X117.53 Y79.804 E0.79268
G1 X118.428 Y80.076 E0.82389
G1 X119.299 Y80.423 E0.85508
G1 X120.137 Y80.844 E0.88627
G1 X120.936 Y81.334 E0.91744
G1 X121.691 Y81.891 E0.94865
G1 X122.345 Y82.462 E0.97752
G1 X122.581 Y82.685 E0.98832
G1 X122.914 Y83.013 E1.00387
G1 X123.229 Y83.337 E1.0189
G1 X125.057 Y85.167 E1.10493
G1 X125.209 Y85.314 E1.11196
G1 X125.596 Y85.695 E1.13002
G1 X125.772 Y85.872 E1.13833
G1 X126.204 Y86.317 E1.15895
G1 X126.826 Y87.015 E1.19005
G1 X127.136 Y87.396 E1.20639
G1 X128.393 Y88.979 E1.27362
G1 X130.007 Y90.897 E1.35699
G1 X131.705 Y92.802 E1.44187
G1 X133.41 Y94.611 E1.52455
G1 X135.198 Y96.402 E1.60872
G1 X136.993 Y98.103 E1.69097
G1 X138.92 Y99.825 E1.77693
G1 X140.847 Y101.456 E1.86089
G1 X142.01 Y102.394 E1.91059
G1 X142.844 Y103.057 E1.94603
G1 X143.545 Y103.664 E1.97687
G1 X143.789 Y103.894 E1.98802
G1 X144.13 Y104.229 E2.00392
G1 X144.45 Y104.558 E2.01918
G1 X146.068 Y106.157 E2.09484
G1 X146.289 Y106.395 E2.10565
G1 X146.782 Y106.88 E2.12865
G1 X146.945 Y107.044 E2.13634
G1 X147.404 Y107.515 E2.15821
G1 X148.029 Y108.214 E2.1894
G1 X148.593 Y108.963 E2.22058
G1 X149.09 Y109.758 E2.25177
G1 X149.518 Y110.593 E2.28298
G1 X149.874 Y111.461 E2.31418
G1 X150.154 Y112.356 E2.34537
G1 X150.357 Y113.272 E2.37658
G1 X150.481 Y114.201 E2.40775
G1 X150.526 Y115.138 E2.43895
G1 X150.49 Y116.075 E2.47014
G1 X150.375 Y117.006 E2.50134
G1 X150.181 Y117.924 E2.53254
G1 X149.91 Y118.821 E2.56371
G1 X149.563 Y119.693 E2.59493
G1 X149.143 Y120.531 E2.6261
G1 X148.654 Y121.331 E2.65729
G1 X148.097 Y122.086 E2.68849
G1 X147.546 Y122.72 E2.71643
G1 X147.347 Y122.932 E2.7261
G1 X147.105 Y123.183 E2.7377
G1 X140.214 Y130.073 E3.06181
G1 X139.431 Y130.877 E3.09913
G1 X138.713 Y131.605 E3.13314
G1 X131.425 Y138.895 E3.47599
G1 X130.668 Y139.647 E3.51148
G1 X130.212 Y140.11 E3.5331
G1 X123.322 Y146.999 E3.85716
G1 X122.833 Y147.475 E3.87986
G1 X122.133 Y148.1 E3.91107
G1 X121.383 Y148.663 E3.94226
G1 X120.588 Y149.16 E3.97344
G1 X119.753 Y149.588 E4.00465
G1 X118.885 Y149.943 E4.03584
G1 X117.99 Y150.223 E4.06703
G1 X117.074 Y150.425 E4.09823
G1 X116.145 Y150.549 E4.1294
G1 X115.208 Y150.593 E4.1606
G1 X114.271 Y150.557 E4.19179
G1 X113.34 Y150.441 E4.22299
G1 X112.422 Y150.247 E4.2542
G1 X111.525 Y149.975 E4.28538
G1 X110.654 Y149.628 E4.31656
G1 X109.815 Y149.207 E4.34778
G1 X109.016 Y148.717 E4.37896
G1 X108.261 Y148.16 E4.41016
G1 X107.585 Y147.57 E4.44001
G1 X107.327 Y147.325 E4.45184
G1 X107.007 Y147.007 E4.46684
G1 X106.745 Y146.737 E4.47936
G1 X104.893 Y144.883 E4.56652
G1 X104.741 Y144.736 E4.57355
G1 X104.354 Y144.355 E4.59161
G1 X104.179 Y144.179 E4.59987
G1 X103.745 Y143.732 E4.62059
G1 X103.116 Y143.026 E4.65204
G1 X102.814 Y142.654 E4.66798
G1 X101.557 Y141.071 E4.73521
G1 X99.943 Y139.153 E4.81858
G1 X98.245 Y137.248 E4.90346
G1 X96.54 Y135.439 E4.98614
G1 X94.751 Y133.647 E5.07036
G1 X92.953 Y131.944 E5.15273
G1 X91.03 Y130.225 E5.23851
G1 X89.103 Y128.594 E5.32248
G1 X87.929 Y127.647 E5.37265
G1 X87.106 Y126.993 E5.40761
G1 X86.412 Y126.393 E5.43813
G1 X86.175 Y126.17 E5.44895
G1 X85.823 Y125.824 E5.46537
G1 X85.483 Y125.474 E5.4816
G1 X83.604 Y123.595 E5.56998
G1 X83.201 Y123.201 E5.58872
G1 X83.015 Y123.015 E5.59747
G1 X82.549 Y122.537 E5.61968
G1 X81.923 Y121.838 E5.65089
G1 X81.359 Y121.088 E5.6821
G1 X80.862 Y120.293 E5.71328
G1 X80.433 Y119.459 E5.74447
G1 X80.078 Y118.591 E5.77566
G1 X79.797 Y117.696 E5.80687
G1 X79.594 Y116.781 E5.83804
G1 X79.47 Y115.851 E5.86924
G1 X79.425 Y114.914 E5.90044
G1 X79.46 Y113.977 E5.93163
G1 X79.575 Y113.046 E5.96283
G1 X79.769 Y112.129 E5.99401
G1 X80.04 Y111.231 E6.0252
G1 X80.387 Y110.359 E6.05642
G1 X80.807 Y109.521 E6.0876
G1 X81.296 Y108.721 E6.11878
G1 X81.852 Y107.965 E6.14999
G1 X82.377 Y107.359 E6.17666
G1 X82.541 Y107.183 E6.18466
G1 X82.751 Y106.964 E6.19475
G1 X82.944 Y106.768 E6.2039
G1 X90.071 Y99.641 E6.53914
G1 X90.878 Y98.84 E6.57695
G1 X91.342 Y98.368 E6.59897
G1 X98.234 Y91.476 E6.92315
G0 F6000 X98.481 Y91.795
G1 F1200 X99.304 Y90.951 E6.96235
G1 X100.115 Y90.129 E7.00076
G1 X106.917 Y83.328 E7.32068
G1 X107.398 Y82.86 E7.343
G1 X108.085 Y82.247 E7.37363
G1 X108.823 Y81.696 E7.40426
G1 X109.606 Y81.211 E7.43489
G1 X110.427 Y80.796 E7.46549
G1 X111.282 Y80.454 E7.49612
G1 X112.163 Y80.188 E7.52673
G1 X113.064 Y79.998 E7.55735
G1 X113.978 Y79.888 E7.58797
G1 X114.898 Y79.858 E7.61859
G1 X115.818 Y79.907 E7.64923
G1 X116.729 Y80.036 E7.67983
G1 X117.626 Y80.244 E7.71046
G1 X118.502 Y80.528 E7.74109
G1 X119.349 Y80.888 E7.7717
G1 X120.163 Y81.319 E7.80233
G1 X120.935 Y81.82 E7.83294
G1 X121.661 Y82.386 E7.86356
G1 X122.07 Y82.752 E7.88182
G1 X122.306 Y82.975 E7.89262
G1 X122.627 Y83.292 E7.90762
G1 X122.906 Y83.579 E7.92093
G1 X124.826 Y85.5 E8.01127
G1 X125.316 Y85.98 E8.03408
G1 X125.485 Y86.151 E8.04208
G1 X125.917 Y86.596 E8.06271
G1 X126.516 Y87.268 E8.09265
G1 X126.823 Y87.645 E8.10882
G1 X128.092 Y89.243 E8.17669
G1 X129.701 Y91.155 E8.2598
G1 X131.398 Y93.06 E8.34466
G1 X133.118 Y94.885 E8.42807
G1 X134.923 Y96.692 E8.51302
G1 X136.753 Y98.426 E8.59687
G1 X138.64 Y100.113 E8.68105
G1 X140.573 Y101.748 E8.76526
G1 X141.77 Y102.714 E8.81642
G1 X142.595 Y103.37 E8.85147
G1 X143.271 Y103.955 E8.88121
G1 X143.515 Y104.185 E8.89236
G1 X143.843 Y104.508 E8.90767
G1 X144.164 Y104.839 E8.92301
G1 X145.787 Y106.442 E8.99888
G1 X146.008 Y106.68 E9.00968
G1 X146.501 Y107.165 E9.03268
G1 X146.658 Y107.323 E9.04009
G1 X147.117 Y107.794 E9.06197
G1 X147.731 Y108.481 E9.09261
G1 X148.282 Y109.218 E9.12322
G1 X148.767 Y110 E9.15382
G1 X149.183 Y110.822 E9.18447
G1 X149.526 Y111.676 E9.21508
G1 X149.793 Y112.557 E9.24569
G1 X149.983 Y113.458 E9.27632
G1 X150.094 Y114.372 E9.30694
G1 X150.126 Y115.292 E9.33756
G1 X150.077 Y116.211 E9.36817
G1 X149.949 Y117.123 E9.3988
G1 X149.742 Y118.02 E9.42942
G1 X149.458 Y118.896 E9.46005
G1 X149.099 Y119.744 E9.49068
G1 X148.668 Y120.557 E9.52128
G1 X148.168 Y121.33 E9.5519
G1 X147.603 Y122.057 E9.58252
G1 X147.255 Y122.447 E9.59991
G1 X147.056 Y122.659 E9.60958
G1 X146.822 Y122.9 E9.62075
G1 X139.928 Y129.793 E9.945
G1 X139.146 Y130.596 E9.98228
G1 X138.43 Y131.322 E10.0162
G1 X131.143 Y138.612 E10.35903
G1 X130.304 Y139.446 E10.39837
G1 X129.927 Y139.829 E10.41625
G1 X123.043 Y146.713 E10.74005
G1 X122.554 Y147.189 E10.76275
G1 X121.867 Y147.802 E10.79337
G1 X121.129 Y148.353 E10.824
G1 X120.347 Y148.837 E10.85459
G1 X119.525 Y149.253 E10.88523
G1 X118.67 Y149.595 E10.91586
G1 X117.789 Y149.862 E10.94648
G1 X116.888 Y150.051 E10.9771
G1 X115.974 Y150.162 E11.00772
G1 X115.054 Y150.192 E11.03834
G1 X114.135 Y150.143 E11.06895
G1 X113.223 Y150.015 E11.09958
G1 X112.326 Y149.807 E11.1302
G1 X111.45 Y149.523 E11.16083
G1 X110.603 Y149.163 E11.19144
G1 X109.79 Y148.732 E11.22205
G1 X109.017 Y148.231 E11.25268
G1 X108.29 Y147.666 E11.28331
G1 X107.861 Y147.279 E11.30252
G1 X107.603 Y147.034 E11.31436
G1 X107.294 Y146.729 E11.3288
G1 X107.033 Y146.459 E11.34129
G1 X105.124 Y144.55 E11.43108
G1 X104.634 Y144.07 E11.4539
G1 X104.466 Y143.9 E11.46185
G1 X104.032 Y143.453 E11.48257
G1 X103.426 Y142.773 E11.51286
G1 X103.127 Y142.405 E11.52863
G1 X101.858 Y140.807 E11.5965
G1 X100.249 Y138.895 E11.67962
G1 X98.552 Y136.99 E11.76447
G1 X96.832 Y135.165 E11.84788
G1 X95.026 Y133.357 E11.93288
G1 X93.197 Y131.624 E12.01668
G1 X91.31 Y129.937 E12.10087
G1 X89.377 Y128.302 E12.18507
G1 X88.18 Y127.336 E12.23623
G1 X87.355 Y126.68 E12.27129
G1 X86.686 Y126.102 E12.3007
G1 X86.449 Y125.879 E12.31152
G1 X86.11 Y125.545 E12.32735
G1 X85.77 Y125.195 E12.34358
G1 X83.884 Y123.309 E12.43229
G1 X83.481 Y122.915 E12.45103
G1 X83.301 Y122.735 E12.4595
G1 X82.835 Y122.257 E12.4817
G1 X82.222 Y121.571 E12.5123
G1 X81.67 Y120.834 E12.54293
G1 X81.185 Y120.052 E12.57353
G1 X80.769 Y119.23 E12.60418
G1 X80.426 Y118.376 E12.63479
G1 X80.158 Y117.495 E12.66541
G1 X79.968 Y116.594 E12.69604
G1 X79.857 Y115.68 E12.72666
G1 X79.825 Y114.76 E12.75728
G1 X79.874 Y113.841 E12.78789
G1 X80.002 Y112.929 E12.81852
G1 X80.209 Y112.032 E12.84914
G1 X80.492 Y111.156 E12.87976
G1 X80.851 Y110.308 E12.91039
G1 X81.282 Y109.494 E12.94102
G1 X81.782 Y108.721 E12.97164
G1 X82.347 Y107.995 E13.00224
G1 X82.67 Y107.632 E13.0184
G1 X82.834 Y107.456 E13.0264
G1 X83.036 Y107.245 E13.03612
G1 X83.229 Y107.049 E13.04526
G1 X90.353 Y99.925 E13.38036
G1 X91.136 Y99.147 E13.41707
G1 X91.688 Y98.588 E13.4432
G1 X98.481 Y91.795 E13.76272
G0 F6000 X98.768 Y92.074
G1 F1200 X99.59 Y91.232 E13.80186
G1 X100.341 Y90.469 E13.83747
G1 X107.196 Y83.614 E14.1599
G1 X107.677 Y83.146 E14.18222
G1 X108.352 Y82.546 E14.21226
G1 X109.077 Y82.007 E14.24231
G1 X109.846 Y81.535 E14.27232
G1 X110.655 Y81.133 E14.30237
G1 X111.496 Y80.804 E14.3324
G1 X112.363 Y80.55 E14.36245
G1 X113.248 Y80.374 E14.39246
G1 X114.146 Y80.277 E14.4225
G1 X115.049 Y80.26 E14.45254
G1 X115.95 Y80.323 E14.48258
G1 X116.842 Y80.466 E14.51263
G1 X117.718 Y80.686 E14.54267
G1 X118.57 Y80.983 E14.57268
G1 X119.394 Y81.355 E14.60275
G1 X120.181 Y81.798 E14.63279
G1 X120.925 Y82.309 E14.66281
G1 X121.795 Y83.043 E14.70067
G1 X122.031 Y83.266 E14.71147
G1 X122.34 Y83.571 E14.72591
G1 X122.619 Y83.858 E14.73922
G1 X124.549 Y85.789 E14.83003
G1 X125.035 Y86.265 E14.85265
G1 X125.198 Y86.429 E14.86034
G1 X125.63 Y86.874 E14.88097
G1 X126.207 Y87.522 E14.90983
G1 X126.51 Y87.894 E14.92579
G1 X127.789 Y89.504 E14.99418
G1 X129.397 Y91.415 E15.07724
G1 X131.091 Y93.317 E15.16196
G1 X132.844 Y95.176 E15.24694
G1 X134.629 Y96.964 E15.33097
G1 X136.494 Y98.731 E15.41642
G1 X138.361 Y100.4 E15.49972
G1 X140.349 Y102.082 E15.58633
G1 X141.46 Y102.978 E15.6338
G1 X142.347 Y103.683 E15.67149
G1 X142.996 Y104.246 E15.70006
G1 X143.24 Y104.476 E15.71121
G1 X143.556 Y104.786 E15.72594
G1 X143.879 Y105.118 E15.74134
G1 X145.506 Y106.726 E15.81743
G1 X145.726 Y106.964 E15.82821
G1 X146.372 Y107.602 E15.8584
G1 X146.831 Y108.073 E15.88028
G1 X147.432 Y108.747 E15.91031
G1 X147.971 Y109.472 E15.94036
G1 X148.444 Y110.241 E15.97039
G1 X148.847 Y111.049 E16.00042
G1 X149.177 Y111.89 E16.03047
G1 X149.431 Y112.757 E16.06052
G1 X149.608 Y113.642 E16.09054
G1 X149.705 Y114.54 E16.12058
G1 X149.723 Y115.443 E16.15062
G1 X149.661 Y116.344 E16.18066
G1 X149.519 Y117.236 E16.2107
G1 X149.299 Y118.112 E16.24074
G1 X149.003 Y118.965 E16.27077
G1 X148.632 Y119.788 E16.30079
G1 X148.189 Y120.576 E16.33086
G1 X147.679 Y121.321 E16.36089
G1 X146.963 Y122.173 E16.3979
G1 X146.764 Y122.385 E16.40758
G1 X146.539 Y122.617 E16.41832
G1 X139.641 Y129.514 E16.74276
G1 X138.861 Y130.315 E16.77995
G1 X138.147 Y131.039 E16.81377
G1 X130.861 Y138.328 E17.15655
G1 X130.022 Y139.162 E17.1959
G1 X129.642 Y139.548 E17.21391
G1 X122.764 Y146.426 E17.53743
G1 X122.275 Y146.902 E17.56013
G1 X121.6 Y147.503 E17.59019
G1 X120.875 Y148.041 E17.62022
G1 X120.106 Y148.514 E17.65025
G1 X119.297 Y148.916 E17.68029
G1 X118.456 Y149.246 E17.71034
G1 X117.59 Y149.499 E17.74035
G1 X116.704 Y149.675 E17.77039
G1 X115.806 Y149.773 E17.80044
G1 X114.903 Y149.79 E17.83048
G1 X114.002 Y149.727 E17.86052
G1 X113.11 Y149.585 E17.89056
G1 X112.235 Y149.364 E17.92057
G1 X111.382 Y149.067 E17.95062
G1 X110.558 Y148.696 E17.98067
G1 X109.771 Y148.253 E18.01071
G1 X109.026 Y147.743 E18.04074
G1 X108.136 Y146.989 E18.07953
G1 X107.878 Y146.744 E18.09137
G1 X107.581 Y146.45 E18.10527
G1 X107.32 Y146.181 E18.11773
G1 X105.401 Y144.261 E18.20802
G1 X104.915 Y143.785 E18.23065
G1 X104.753 Y143.621 E18.23831
G1 X104.319 Y143.174 E18.25904
G1 X103.736 Y142.52 E18.28818
G1 X103.44 Y142.156 E18.30378
G1 X102.161 Y140.546 E18.37217
G1 X100.553 Y138.635 E18.45524
G1 X98.859 Y136.733 E18.53995
G1 X97.106 Y134.874 E18.62494
G1 X95.32 Y133.085 E18.70902
G1 X93.456 Y131.319 E18.79442
G1 X91.589 Y129.65 E18.87771
G1 X89.601 Y127.968 E18.96432
G1 X88.49 Y127.072 E19.01179
G1 X87.603 Y126.367 E19.04948
G1 X86.96 Y125.811 E19.07775
G1 X86.723 Y125.588 E19.08858
G1 X86.397 Y125.266 E19.10382
G1 X86.057 Y124.916 E19.12005
G1 X84.208 Y123.067 E19.20702
G1 X83.76 Y122.629 E19.22786
G1 X83.587 Y122.456 E19.23599
G1 X83.121 Y121.978 E19.2582
G1 X82.52 Y121.304 E19.28823
G1 X81.981 Y120.58 E19.31825
G1 X81.508 Y119.811 E19.34828
G1 X81.105 Y119.002 E19.37834
G1 X80.775 Y118.162 E19.40836
G1 X80.52 Y117.295 E19.43842
G1 X80.344 Y116.41 E19.46843
G1 X80.246 Y115.512 E19.49847
G1 X80.228 Y114.609 E19.52851
G1 X80.29 Y113.708 E19.55855
G1 X80.432 Y112.816 E19.58859
G1 X80.651 Y111.94 E19.61863
G1 X80.948 Y111.087 E19.64867
G1 X81.318 Y110.263 E19.67871
G1 X81.761 Y109.476 E19.70875
G1 X82.271 Y108.731 E19.73878
G1 X82.963 Y107.904 E19.77464
G1 X83.127 Y107.728 E19.78264
G1 X83.321 Y107.525 E19.79198
G1 X90.635 Y100.209 E20.13606
G1 X91.421 Y99.428 E20.17291
G1 X91.971 Y98.871 E20.19895
G1 X98.768 Y92.074 E20.51866
G1 F2700 E15.51866
;MESH:setup_clip_v3.3mf
G0 F6000 X105.509 Y98.816
G0 X106.275 Y99.582
G0 X129.423 Y123.669
G0 X128.973 Y124.376
;TYPE:WALL-INNER
G1 F2700 E20.51866
G1 F1200 X105.638 Y101.041 E21.61626
G1 X106.345 Y100.334 E21.64952
G1 X129.679 Y123.669 E22.7471
G1 X128.973 Y124.376 E22.78033
G0 F6000 X128.973 Y124.942
G1 F1200 X105.072 Y101.041 E23.90456
G1 X106.345 Y99.768 E23.96444
G1 X130.245 Y123.669 E25.08865
G1 X128.973 Y124.942 E25.1485
G1 F2700 E20.1485
G0 F6000 X123.669 Y130.429
G1 F2700 E25.1485
G0 F6000 X123.669 Y130.811
;TYPE:WALL-OUTER
G1 F1200 X123.244 Y130.386 E25.16849
G1 X128.548 Y125.083 E25.41795
G1 X126.144 Y122.679 E25.53103
G1 X120.841 Y127.983 E25.78049
G1 X120.416 Y127.558 E25.80048
G1 X125.72 Y122.255 E26.04994
G1 X107.759 Y104.294 E26.89477
G1 X102.456 Y109.598 E27.14423
G1 X102.031 Y109.173 E27.16422
G1 X107.335 Y103.87 E27.41368
G1 X104.931 Y101.465 E27.52678
G1 X99.627 Y106.77 E27.77629
G1 X99.202 Y106.345 E27.79628
G1 X106.345 Y99.202 E28.13227
G1 X130.811 Y123.669 E29.2831
G1 X123.669 Y130.811 E29.61903
G0 F6000 X123.669 Y130.429
G0 X128.871 Y125.083
G0 X128.775 Y124.022
G0 X128.972 Y123.825
;TYPE:SKIN
G1 F1200 X106.188 Y101.041 E30.69072
G1 X106.345 Y100.884 E30.69811
G1 X129.128 Y123.668 E31.76977
G1 X128.972 Y123.825 E31.77713
G0 F6000 X128.775 Y124.022
G0 X128.865 Y125.189
G0 X128.865 Y125.188
;TYPE:SKIN
G1 F1200 X128.723 Y125.329 E31.78144
G1 X124.905 Y129.148 E31.89759
G1 X123.632 Y130.42 E31.93629
G0 F6000 X123.632 Y130.421
G0 X128.871 Y125.083
G0 X126.144 Y122.356
G0 X120.807 Y127.594
G0 X120.804 Y127.593
G1 F1200 X120.946 Y127.451 E31.94063
G1 X126.037 Y122.36 E32.09592
G0 F6000 X126.039 Y122.361
G0 X107.759 Y103.971
G0 X107.652 Y103.975
G1 F1200 X107.511 Y104.117 E32.10023
G1 X103.692 Y107.935 E32.21666
G1 X102.42 Y109.208 E32.25545
G0 F6000 X102.422 Y109.209
G0 X107.658 Y103.87
G0 X104.931 Y101.142
G0 X99.593 Y106.381
G0 X99.591 Y106.38
G1 F1200 X99.733 Y106.238 E32.25978
G1 X104.824 Y101.147 E32.41479
G1 F2700 E27.41479
;MESH:setup_clip_v3.3mf(1)
