;FLAVOR:Marlin
;TIME:596
;Filament used: 0.344537m
;Layer height: 0.16
;MINX:89.36
;MINY:89.356
;MINZ:0.2
;MAXX:140.679
;MAXY:140.673
;MAXZ:7
;Generated with Cura_SteamEngine 4.12.0
M140 S50
M105
M190 S50
M104 S200
M105
M109 S200
M82 ;absolute extrusion mode
; Ender 3 Custom Start G-code
G92 E0 ; Reset Extruder
G28 ; Home all axes
G1 Z2.0 F3000 ; Move Z Axis up little to prevent scratching of Heat Bed
G1 X0.1 Y20 Z0.3 F5000.0 ; Move to start position
G1 X0.1 Y200.0 Z0.3 F1500.0 E15 ; Draw the first line
G1 X0.4 Y200.0 Z0.3 F5000.0 ; Move to side a little
G1 X0.4 Y20 Z0.3 F1500.0 E30 ; Draw the second line
G92 E0 ; Reset Extruder
G1 Z2.0 F3000 ; Move Z Axis up little to prevent scratching of Heat Bed
G1 X5 Y20 Z0.3 F5000.0 ; Move over to prevent blob squish
G92 E0
G92 E0
G1 F2700 E-5
;LAYER_COUNT:36
;LAYER:0
M107
G0 F6000 X96.782 Y92.949 Z0.2
;TYPE:SKIRT
G1 F2700 E0
G1 F1200 X97.27 Y92.474 E0.02265
G1 X97.969 Y91.849 E0.05384
G1 X98.719 Y91.286 E0.08503
G1 X99.514 Y90.788 E0.11623
G1 X100.349 Y90.361 E0.14742
G1 X101.217 Y90.006 E0.17861
G1 X102.112 Y89.726 E0.2098
G1 X103.028 Y89.524 E0.241
G1 X103.958 Y89.4 E0.27221
G1 X104.894 Y89.356 E0.30337
G1 X105.832 Y89.392 E0.3346
G1 X106.762 Y89.508 E0.36577
G1 X107.68 Y89.702 E0.39697
G1 X108.577 Y89.974 E0.42815
G1 X109.449 Y90.322 E0.45938
G1 X110.287 Y90.742 E0.49055
G1 X111.087 Y91.232 E0.52176
G1 X111.841 Y91.789 E0.55294
G1 X112.461 Y92.327 E0.58024
G1 X112.697 Y92.548 E0.59099
G1 X112.956 Y92.799 E0.60299
G1 X137.087 Y116.931 E1.73806
G1 X137.555 Y117.411 E1.76036
G1 X138.181 Y118.11 E1.79157
G1 X138.744 Y118.859 E1.82273
G1 X139.242 Y119.654 E1.85393
G1 X139.67 Y120.488 E1.88511
G1 X140.026 Y121.356 E1.91631
G1 X140.306 Y122.251 E1.9475
G1 X140.51 Y123.167 E1.97872
G1 X140.634 Y124.096 E2.00989
G1 X140.679 Y125.033 E2.04109
G1 X140.644 Y125.97 E2.07228
G1 X140.529 Y126.901 E2.10348
G1 X140.335 Y127.819 E2.13468
G1 X140.064 Y128.717 E2.16588
G1 X139.717 Y129.588 E2.19707
G1 X139.298 Y130.427 E2.22826
G1 X138.808 Y131.227 E2.25946
G1 X138.252 Y131.982 E2.29065
G1 X137.701 Y132.616 E2.31858
G1 X137.519 Y132.81 E2.32743
G1 X137.277 Y133.06 E2.339
G1 X133.305 Y137.033 E2.52586
G1 X132.763 Y137.56 E2.551
G1 X132.064 Y138.184 E2.58217
G1 X131.313 Y138.747 E2.61339
G1 X130.518 Y139.243 E2.64455
G1 X129.683 Y139.671 E2.67576
G1 X128.814 Y140.025 E2.70697
G1 X127.919 Y140.304 E2.73815
G1 X127.003 Y140.506 E2.76935
G1 X126.074 Y140.629 E2.80052
G1 X125.137 Y140.673 E2.83171
G1 X124.199 Y140.636 E2.86294
G1 X123.269 Y140.52 E2.89411
G1 X122.351 Y140.325 E2.92532
G1 X121.454 Y140.053 E2.9565
G1 X120.583 Y139.705 E2.98769
G1 X119.745 Y139.284 E3.01889
G1 X118.946 Y138.794 E3.05006
G1 X118.191 Y138.237 E3.08127
G1 X117.534 Y137.663 E3.11028
G1 X117.329 Y137.469 E3.11967
G1 X117.006 Y137.149 E3.13479
G1 X116.604 Y136.736 E3.15396
G1 X114.979 Y135.133 E3.22988
G1 X114.78 Y134.92 E3.23958
G1 X114.292 Y134.439 E3.26237
G1 X114.126 Y134.272 E3.2702
G1 X113.688 Y133.822 E3.29108
G1 X113.056 Y133.113 E3.32268
G1 X112.79 Y132.787 E3.33667
G1 X111.428 Y131.076 E3.40941
G1 X109.813 Y129.161 E3.49273
G1 X108.138 Y127.284 E3.5764
G1 X106.401 Y125.445 E3.66053
G1 X104.625 Y123.67 E3.74405
G1 X102.798 Y121.942 E3.82769
G1 X100.93 Y120.275 E3.91096
G1 X98.955 Y118.608 E3.99692
G1 X97.939 Y117.789 E4.04033
G1 X97.047 Y117.081 E4.0782
G1 X96.302 Y116.432 E4.11107
G1 X96.094 Y116.234 E4.12062
G1 X95.793 Y115.937 E4.13468
G1 X95.433 Y115.567 E4.15185
G1 X93.608 Y113.74 E4.23774
G1 X93.336 Y113.478 E4.2503
G1 X93.079 Y113.225 E4.2623
G1 X92.922 Y113.067 E4.26971
G1 X92.486 Y112.62 E4.29047
G1 X91.86 Y111.921 E4.32168
G1 X91.296 Y111.172 E4.35287
G1 X90.798 Y110.377 E4.38407
G1 X90.37 Y109.543 E4.41525
G1 X90.014 Y108.675 E4.44645
G1 X89.733 Y107.78 E4.47765
G1 X89.53 Y106.864 E4.50886
G1 X89.405 Y105.935 E4.54003
G1 X89.36 Y104.998 E4.57123
G1 X89.395 Y104.061 E4.60242
G1 X89.51 Y103.13 E4.63362
G1 X89.703 Y102.212 E4.66482
G1 X89.974 Y101.314 E4.69602
G1 X90.321 Y100.443 E4.7272
G1 X90.74 Y99.604 E4.7584
G1 X91.23 Y98.804 E4.7896
G1 X91.786 Y98.049 E4.82078
G1 X92.387 Y97.361 E4.85117
G1 X92.636 Y97.099 E4.86319
G1 X92.83 Y96.9 E4.87243
G1 X96.782 Y92.949 E5.0583
G0 F6000 X97.061 Y93.235
G1 F1200 X97.549 Y92.76 E5.08095
G1 X98.236 Y92.147 E5.11157
G1 X98.973 Y91.596 E5.14218
G1 X99.756 Y91.111 E5.17281
G1 X100.577 Y90.696 E5.20341
G1 X101.432 Y90.354 E5.23404
G1 X102.313 Y90.087 E5.26466
G1 X103.214 Y89.898 E5.29528
G1 X104.128 Y89.787 E5.3259
G1 X105.048 Y89.757 E5.35652
G1 X105.968 Y89.806 E5.38716
G1 X106.879 Y89.935 E5.41776
G1 X107.776 Y90.142 E5.44838
G1 X108.652 Y90.426 E5.47901
G1 X109.499 Y90.786 E5.50962
G1 X110.313 Y91.217 E5.54025
G1 X111.085 Y91.718 E5.57086
G1 X111.812 Y92.283 E5.60149
G1 X112.187 Y92.619 E5.61823
G1 X112.423 Y92.84 E5.62899
G1 X112.673 Y93.082 E5.64056
G1 X136.801 Y117.21 E6.77547
G1 X137.269 Y117.69 E6.79776
G1 X137.882 Y118.377 E6.82839
G1 X138.434 Y119.114 E6.85901
G1 X138.919 Y119.896 E6.88962
G1 X139.335 Y120.717 E6.92023
G1 X139.678 Y121.572 E6.95087
G1 X139.946 Y122.453 E6.9815
G1 X140.136 Y123.353 E7.01209
G1 X140.247 Y124.267 E7.04272
G1 X140.279 Y125.187 E7.07333
G1 X140.23 Y126.107 E7.10398
G1 X140.102 Y127.019 E7.13461
G1 X139.895 Y127.916 E7.16523
G1 X139.612 Y128.792 E7.19584
G1 X139.253 Y129.639 E7.22644
G1 X138.822 Y130.453 E7.25708
G1 X138.322 Y131.226 E7.2877
G1 X137.757 Y131.953 E7.31832
G1 X137.41 Y132.342 E7.33566
G1 X137.228 Y132.536 E7.3445
G1 X136.994 Y132.777 E7.35568
G1 X133.026 Y136.746 E7.54234
G1 X132.484 Y137.273 E7.56749
G1 X131.797 Y137.885 E7.59809
G1 X131.059 Y138.436 E7.62872
G1 X130.276 Y138.92 E7.65934
G1 X129.454 Y139.335 E7.68996
G1 X128.6 Y139.677 E7.72056
G1 X127.718 Y139.943 E7.7512
G1 X126.817 Y140.132 E7.78182
G1 X125.903 Y140.242 E7.81244
G1 X124.983 Y140.272 E7.84306
G1 X124.064 Y140.223 E7.87367
G1 X123.152 Y140.093 E7.90431
G1 X122.255 Y139.886 E7.93492
G1 X121.38 Y139.601 E7.96553
G1 X120.532 Y139.241 E7.99617
G1 X119.719 Y138.809 E8.02679
G1 X118.947 Y138.308 E8.0574
G1 X118.221 Y137.742 E8.08802
G1 X117.809 Y137.372 E8.10644
G1 X117.604 Y137.178 E8.11583
G1 X117.292 Y136.871 E8.13038
G1 X116.865 Y136.432 E8.15075
G1 X115.26 Y134.849 E8.22573
G1 X115.06 Y134.634 E8.2355
G1 X114.573 Y134.154 E8.25824
G1 X114.413 Y133.993 E8.26579
G1 X113.975 Y133.543 E8.28668
G1 X113.365 Y132.86 E8.31714
G1 X113.103 Y132.538 E8.33094
G1 X111.748 Y130.836 E8.4033
G1 X110.115 Y128.9 E8.48754
G1 X108.426 Y127.007 E8.57192
G1 X106.675 Y125.153 E8.65674
G1 X104.919 Y123.398 E8.73931
G1 X103.055 Y121.635 E8.82465
G1 X101.191 Y119.971 E8.90775
G1 X99.231 Y118.317 E8.99305
G1 X98.188 Y117.476 E9.03761
G1 X97.296 Y116.768 E9.07549
G1 X96.577 Y116.143 E9.10718
G1 X96.369 Y115.945 E9.11673
G1 X96.08 Y115.658 E9.13028
G1 X95.757 Y115.326 E9.14568
G1 X93.862 Y113.429 E9.23486
G1 X93.617 Y113.193 E9.24618
G1 X93.36 Y112.94 E9.25817
G1 X93.208 Y112.787 E9.26535
G1 X92.772 Y112.34 E9.28612
G1 X92.158 Y111.654 E9.31674
G1 X91.607 Y110.917 E9.34734
G1 X91.121 Y110.135 E9.37797
G1 X90.705 Y109.314 E9.40858
G1 X90.362 Y108.459 E9.43922
G1 X90.094 Y107.578 E9.46985
G1 X89.904 Y106.678 E9.50044
G1 X89.792 Y105.764 E9.53107
G1 X89.76 Y104.844 E9.56168
G1 X89.809 Y103.924 E9.59233
G1 X89.937 Y103.013 E9.62292
G1 X90.143 Y102.115 E9.65357
G1 X90.427 Y101.239 E9.6842
G1 X90.785 Y100.391 E9.71481
G1 X91.216 Y99.578 E9.74542
G1 X91.715 Y98.805 E9.77602
G1 X92.28 Y98.078 E9.80664
G1 X92.676 Y97.637 E9.82636
G1 X92.925 Y97.375 E9.83838
G1 X93.113 Y97.183 E9.84732
G1 X97.061 Y93.235 E10.03302
G0 F6000 X97.34 Y93.522
G1 F1200 X97.828 Y93.047 E10.05567
G1 X98.502 Y92.446 E10.0857
G1 X99.227 Y91.908 E10.11573
G1 X99.997 Y91.435 E10.14579
G1 X100.805 Y91.033 E10.1758
G1 X101.646 Y90.703 E10.20585
G1 X102.513 Y90.45 E10.23589
G1 X103.398 Y90.273 E10.26591
G1 X104.296 Y90.176 E10.29595
G1 X105.199 Y90.159 E10.32599
G1 X106.1 Y90.222 E10.35603
G1 X106.992 Y90.364 E10.38607
G1 X107.868 Y90.585 E10.41612
G1 X108.721 Y90.882 E10.44616
G1 X109.544 Y91.253 E10.47619
G1 X110.331 Y91.696 E10.50623
G1 X111.076 Y92.206 E10.53625
G1 X111.914 Y92.911 E10.57268
G1 X112.15 Y93.132 E10.58343
G1 X112.39 Y93.365 E10.59456
G1 X136.514 Y117.489 E11.72928
G1 X136.982 Y117.969 E11.75157
G1 X137.583 Y118.643 E11.78161
G1 X138.123 Y119.368 E11.81168
G1 X138.596 Y120.137 E11.8417
G1 X138.999 Y120.945 E11.87173
G1 X139.329 Y121.786 E11.90178
G1 X139.583 Y122.652 E11.9318
G1 X139.76 Y123.538 E11.96185
G1 X139.858 Y124.436 E11.9919
G1 X139.876 Y125.339 E12.02194
G1 X139.814 Y126.24 E12.05197
G1 X139.673 Y127.132 E12.08201
G1 X139.453 Y128.008 E12.11205
G1 X139.156 Y128.861 E12.14209
G1 X138.786 Y129.684 E12.1721
G1 X138.344 Y130.472 E12.20215
G1 X137.834 Y131.217 E12.23218
G1 X137.118 Y132.069 E12.2692
G1 X136.936 Y132.263 E12.27805
G1 X136.711 Y132.495 E12.2888
G1 X132.748 Y136.459 E12.47523
G1 X132.206 Y136.986 E12.50037
G1 X131.531 Y137.586 E12.53041
G1 X130.806 Y138.125 E12.56046
G1 X130.036 Y138.597 E12.59049
G1 X129.227 Y138.999 E12.62054
G1 X128.386 Y139.328 E12.65058
G1 X127.519 Y139.581 E12.68062
G1 X126.633 Y139.756 E12.71065
G1 X125.735 Y139.853 E12.7407
G1 X124.832 Y139.87 E12.77073
G1 X123.931 Y139.806 E12.80078
G1 X123.04 Y139.664 E12.83079
G1 X122.164 Y139.443 E12.86083
G1 X121.311 Y139.145 E12.89089
G1 X120.488 Y138.773 E12.92093
G1 X119.701 Y138.33 E12.95096
G1 X118.957 Y137.819 E12.98098
G1 X118.084 Y137.082 E13.01898
G1 X117.879 Y136.888 E13.02837
G1 X117.579 Y136.592 E13.04239
G1 X117.15 Y136.151 E13.06285
G1 X115.541 Y134.564 E13.13802
G1 X115.341 Y134.349 E13.14779
G1 X114.854 Y133.869 E13.17053
G1 X114.7 Y133.714 E13.1778
G1 X114.262 Y133.264 E13.19868
G1 X113.675 Y132.607 E13.22798
G1 X113.416 Y132.289 E13.24163
G1 X112.051 Y130.574 E13.31453
G1 X110.404 Y128.621 E13.3995
G1 X108.733 Y126.749 E13.48296
G1 X106.983 Y124.896 E13.56773
G1 X105.175 Y123.089 E13.65275
G1 X103.349 Y121.362 E13.73634
G1 X101.432 Y119.651 E13.82181
G1 X99.484 Y118.008 E13.90657
G1 X98.374 Y117.112 E13.95401
G1 X97.545 Y116.454 E13.98921
G1 X96.853 Y115.853 E14.0197
G1 X96.645 Y115.655 E14.02925
G1 X96.367 Y115.379 E14.04228
G1 X96.045 Y115.048 E14.05764
G1 X94.161 Y113.162 E14.1463
G1 X93.897 Y112.908 E14.15849
G1 X93.64 Y112.655 E14.17048
G1 X93.058 Y112.061 E14.19814
G1 X92.457 Y111.387 E14.22818
G1 X91.917 Y110.663 E14.25822
G1 X91.444 Y109.894 E14.28825
G1 X91.041 Y109.086 E14.31828
G1 X90.711 Y108.245 E14.34833
G1 X90.456 Y107.379 E14.37835
G1 X90.279 Y106.493 E14.4084
G1 X90.181 Y105.595 E14.43845
G1 X90.163 Y104.692 E14.46849
G1 X90.225 Y103.791 E14.49853
G1 X90.366 Y102.899 E14.52856
G1 X90.586 Y102.023 E14.5586
G1 X90.882 Y101.17 E14.58863
G1 X91.252 Y100.347 E14.61865
G1 X91.694 Y99.559 E14.6487
G1 X92.204 Y98.814 E14.67872
G1 X92.966 Y97.912 E14.718
G1 X93.215 Y97.65 E14.73002
G1 X93.396 Y97.465 E14.73863
G1 X97.34 Y93.522 E14.92412
G1 F2700 E9.92412
;MESH:setup_clip.3mf
G0 F6000 X104.081 Y100.264
G0 X104.848 Y101.03
G0 X128.022 Y125.091
G0 X127.571 Y125.798
;TYPE:WALL-INNER
G1 F2700 E14.92412
G1 F1200 X104.236 Y102.463 E16.02172
G1 X104.943 Y101.756 E16.05498
G1 X128.278 Y125.091 E17.15259
G1 X127.571 Y125.798 E17.18584
G0 F6000 X127.571 Y126.364
G1 F1200 X103.67 Y102.463 E18.31007
G1 X104.943 Y101.19 E18.36995
G1 X128.844 Y125.091 E19.49418
G1 X127.571 Y126.364 E19.55406
G1 F2700 E14.55406
G0 F6000 X125.097 Y129.022
G1 F2700 E19.55406
G0 F6000 X125.096 Y129.405
;TYPE:WALL-OUTER
G1 F1200 X124.742 Y129.05 E19.57073
G1 X127.217 Y126.576 E19.68712
G1 X124.671 Y124.03 E19.80688
G1 X122.196 Y126.506 E19.92332
G1 X121.842 Y126.152 E19.93997
G1 X124.318 Y123.677 E20.05641
G1 X106.357 Y105.716 E20.90124
G1 X103.882 Y108.192 E21.01768
G1 X103.528 Y107.838 E21.03433
G1 X106.004 Y105.363 E21.15077
G1 X103.458 Y102.817 E21.27053
G1 X100.983 Y105.293 E21.38697
G1 X100.629 Y104.939 E21.40362
G1 X104.943 Y100.624 E21.60656
G1 X129.41 Y125.091 E22.75741
G1 X125.096 Y129.405 E22.96033
G0 F6000 X125.097 Y129.022
G0 X127.54 Y126.576
G0 X127.374 Y125.445
G0 X127.571 Y125.248
;TYPE:SKIN
G1 F1200 X104.786 Y102.463 E24.03207
G1 X104.943 Y102.306 E24.03945
G1 X127.728 Y125.091 E25.11119
G1 X127.571 Y125.248 E25.11857
G0 F6000 X127.374 Y125.445
G0 X127.532 Y126.684
G0 X127.496 Y126.648
;TYPE:SKIN
G1 F1200 X127.355 Y126.789 E25.12125
G1 X125.092 Y129.052 E25.16423
G0 F6000 X125.127 Y129.087
G0 X127.54 Y126.576
G0 X124.671 Y123.707
G0 X122.16 Y126.119
G0 X122.193 Y126.153
G1 F1200 X122.334 Y126.011 E25.16691
G1 X124.597 Y123.749 E25.2098
G0 F6000 X124.564 Y123.715
G0 X106.357 Y105.393
G0 X106.283 Y105.435
G1 F1200 X106.142 Y105.576 E25.21247
G1 X103.879 Y107.839 E25.25536
G0 F6000 X103.846 Y107.805
G0 X106.327 Y105.363
G0 X103.458 Y102.494
G0 X100.947 Y104.906
G0 X100.98 Y104.94
G1 F1200 X101.121 Y104.798 E25.25803
G1 X103.243 Y102.677 E25.29808
G0 F6000 X103.331 Y102.483
G1 F1200 X103.438 Y102.589 E25.30058
G1 F2700 E20.30058
;MESH:NONMESH
G0 F300 X103.438 Y102.589 Z0.4
G0 F6000 X103.351 Y102.501
G0 X127.571 Y125.798
;TIME_ELAPSED:47.676338
;LAYER:1
M106 S85
;TYPE:WALL-INNER
;MESH:setup_clip.3mf
G1 F2700 E25.30058
G1 F1350 X104.236 Y102.463 E26.39819
G1 X104.943 Y101.756 E26.43145
G1 X128.278 Y125.091 E27.52905
G1 X127.571 Y125.798 E27.56231
G0 F7500 X127.571 Y126.364
G1 F1350 X103.67 Y102.463 E28.68654
G1 X104.943 Y101.19 E28.74642
G1 X128.844 Y125.091 E29.87065
G1 X127.571 Y126.364 E29.93052
G1 F2700 E24.93052
G0 F7500 X125.097 Y129.022
G1 F2700 E29.93052
G0 F7500 X125.096 Y129.405
;TYPE:WALL-OUTER
G1 F1350 X124.742 Y129.05 E29.9472
G1 X127.217 Y126.576 E30.06359
G1 X124.671 Y124.03 E30.18335
G1 X122.196 Y126.506 E30.29979
G1 X121.842 Y126.152 E30.31644
G1 X124.318 Y123.677 E30.43288
G1 X106.357 Y105.716 E31.27771
G1 X103.882 Y108.192 E31.39415
G1 X103.528 Y107.838 E31.4108
G1 X106.004 Y105.363 E31.52724
G1 X103.458 Y102.817 E31.647
G1 X100.983 Y105.293 E31.76344
G1 X100.629 Y104.939 E31.78009
G1 X104.943 Y100.624 E31.98303
G1 X129.41 Y125.091 E33.13388
G1 X125.096 Y129.405 E33.3368
G0 F7500 X125.097 Y129.022
G0 X127.54 Y126.576
G0 X127.374 Y125.445
G0 X127.571 Y125.248
;TYPE:SKIN
G1 F1350 X104.786 Y102.463 E34.40853
G1 X104.943 Y102.306 E34.41592
G1 X127.728 Y125.091 E35.48765
G1 X127.571 Y125.248 E35.49504
G0 F7500 X127.374 Y125.445
G0 X124.701 Y123.677
G0 X124.657 Y123.677
;TYPE:SKIN
G1 F1350 X122.137 Y126.198 E35.55432
G1 F2700 E30.55432
G0 F7500 X122.225 Y126.111
G0 X124.641 Y123.677
G0 X103.458 Y102.494
G0 X101.011 Y104.897
G1 F2700 E35.55432
G0 F7500 X100.923 Y104.985
G1 F1350 X103.444 Y102.464 E35.61361
G0 F7500 X103.951 Y102.463
G1 F2700 E30.61361
;MESH:NONMESH
G0 F300 X103.951 Y102.463 Z0.6
G0 F7500 X127.571 Y125.798
;TIME_ELAPSED:65.367731
;LAYER:2
M106 S170
;TYPE:WALL-INNER
;MESH:setup_clip.3mf
G1 F2700 E35.61361
G1 F1500 X104.236 Y102.463 E36.71121
G1 X104.943 Y101.756 E36.74447
G1 X128.278 Y125.091 E37.84208
G1 X127.571 Y125.798 E37.87533
G0 F9000 X127.571 Y126.364
G1 F1500 X103.67 Y102.463 E38.99956
G1 X104.943 Y101.19 E39.05944
G1 X128.844 Y125.091 E40.18367
G1 X127.571 Y126.364 E40.24355
G1 F2700 E35.24355
G0 F9000 X125.097 Y129.022
G1 F2700 E40.24355
G0 F9000 X125.096 Y129.405
;TYPE:WALL-OUTER
G1 F1500 X124.742 Y129.05 E40.26022
G1 X127.217 Y126.576 E40.37662
G1 X124.671 Y124.03 E40.49637
G1 X122.196 Y126.506 E40.61281
G1 X121.842 Y126.152 E40.62946
G1 X124.318 Y123.677 E40.7459
G1 X106.357 Y105.716 E41.59073
G1 X103.882 Y108.192 E41.70717
G1 X103.528 Y107.838 E41.72382
G1 X106.004 Y105.363 E41.84026
G1 X103.458 Y102.817 E41.96002
G1 X100.983 Y105.293 E42.07646
G1 X100.629 Y104.939 E42.09311
G1 X104.943 Y100.624 E42.29605
G1 X129.41 Y125.091 E43.4469
G1 X125.096 Y129.405 E43.64982
G0 F9000 X125.097 Y129.022
G0 X127.54 Y126.576
G0 X127.374 Y125.445
G0 X127.571 Y125.248
;TYPE:SKIN
G1 F1500 X104.786 Y102.463 E44.72156
G1 X104.943 Y102.306 E44.72894
G1 X127.728 Y125.091 E45.80068
G1 X127.571 Y125.248 E45.80806
G0 F9000 X127.374 Y125.445
G0 X127.532 Y126.684
G0 X127.496 Y126.648
;TYPE:SKIN
G1 F1500 X127.355 Y126.789 E45.81074
G1 X125.092 Y129.052 E45.85372
G0 F9000 X125.127 Y129.087
G0 X127.54 Y126.576
G0 X124.671 Y123.707
G0 X122.16 Y126.119
G0 X122.193 Y126.153
