;FLAVOR:Marlin
;TIME:917
;Filament used: 0.468936m
;Layer height: 0.16
;MINX:91.517
;MINY:91.515
;MINZ:0.2
;MAXX:138.487
;MAXY:138.489
;MAXZ:3
;Generated with Cura_SteamEngine 4.12.0
M140 S50
M105
M190 S50
M104 S200
M105
M109 S200
M82 ;absolute extrusion mode
; Ender 3 Custom Start G-code
G92 E0 ; Reset Extruder
G28 ; Home all axes
G1 Z2.0 F3000 ; Move Z Axis up little to prevent scratching of Heat Bed
G1 X0.1 Y20 Z0.3 F5000.0 ; Move to start position
G1 X0.1 Y200.0 Z0.3 F1500.0 E15 ; Draw the first line
G1 X0.4 Y200.0 Z0.3 F5000.0 ; Move to side a little
G1 X0.4 Y20 Z0.3 F1500.0 E30 ; Draw the second line
G92 E0 ; Reset Extruder
G1 Z2.0 F3000 ; Move Z Axis up little to prevent scratching of Heat Bed
G1 X5 Y20 Z0.3 F5000.0 ; Move over to prevent blob squish
G92 E0
G92 E0
G1 F2700 E-5
;LAYER_COUNT:18
;LAYER:0
M107
G0 F6000 X98.364 Y98.425 Z0.2
;TYPE:SKIRT
G1 F2700 E0
G1 F1200 X98.647 Y98.145 E0.01324
G1 X99.021 Y97.788 E0.03044
G1 X99.32 Y97.513 E0.04395
G1 X99.496 Y97.357 E0.05177
G1 X99.729 Y97.156 E0.06201
G1 X100.086 Y96.857 E0.07749
G1 X100.389 Y96.612 E0.09045
G1 X100.751 Y96.33 E0.10572
G1 X101.077 Y96.086 E0.11926
G1 X101.407 Y95.848 E0.13279
G1 X101.686 Y95.653 E0.14411
G1 X102.04 Y95.414 E0.15832
G1 X102.337 Y95.221 E0.1701
G1 X102.693 Y94.997 E0.18409
G1 X103.016 Y94.801 E0.19666
G1 X103.344 Y94.61 E0.20928
G1 X103.665 Y94.43 E0.22152
G1 X104.044 Y94.226 E0.23584
G1 X104.36 Y94.063 E0.24766
G1 X104.732 Y93.878 E0.26148
G1 X105.099 Y93.703 E0.27501
G1 X105.568 Y93.491 E0.29212
G1 X105.858 Y93.365 E0.30264
G1 X106.071 Y93.276 E0.31032
G1 X106.46 Y93.123 E0.32422
G1 X107.118 Y92.877 E0.34759
G1 X107.794 Y92.649 E0.37131
G1 X108.613 Y92.402 E0.39977
G1 X108.998 Y92.293 E0.41307
G1 X109.436 Y92.183 E0.42809
G1 X109.947 Y92.065 E0.44554
G1 X110.341 Y91.982 E0.45893
G1 X110.834 Y91.887 E0.47563
G1 X111.191 Y91.824 E0.48769
G1 X111.506 Y91.774 E0.49829
G1 X111.887 Y91.72 E0.51109
G1 X112.334 Y91.665 E0.52607
G1 X112.678 Y91.628 E0.53758
G1 X113.018 Y91.597 E0.54894
G1 X113.4 Y91.569 E0.56167
G1 X114.059 Y91.532 E0.58363
G1 X114.78 Y91.515 E0.60762
G1 X115.629 Y91.523 E0.63585
G1 X116.085 Y91.537 E0.65103
G1 X116.512 Y91.562 E0.66525
G1 X117.073 Y91.606 E0.68397
G1 X117.437 Y91.64 E0.69613
G1 X117.83 Y91.684 E0.70928
G1 X118.191 Y91.731 E0.72139
G1 X118.651 Y91.798 E0.73685
G1 X119.055 Y91.864 E0.75047
G1 X119.278 Y91.905 E0.75801
G1 X119.598 Y91.969 E0.76886
G1 X120.264 Y92.112 E0.79152
G1 X120.694 Y92.214 E0.80622
G1 X121.187 Y92.344 E0.82318
G1 X121.754 Y92.506 E0.84279
G1 X122.146 Y92.626 E0.85642
G1 X122.437 Y92.721 E0.86661
G1 X122.75 Y92.829 E0.87762
G1 X123.136 Y92.968 E0.89126
G1 X123.467 Y93.093 E0.90303
G1 X123.923 Y93.274 E0.91935
G1 X124.3 Y93.432 E0.93294
G1 X124.586 Y93.558 E0.94334
G1 X124.906 Y93.705 E0.95505
G1 X125.367 Y93.926 E0.97206
G1 X125.705 Y94.095 E0.98462
G1 X126.086 Y94.294 E0.99892
G1 X126.431 Y94.482 E1.01199
G1 X126.795 Y94.689 E1.02592
G1 X127.049 Y94.838 E1.03571
G1 X127.264 Y94.968 E1.04407
G1 X127.622 Y95.194 E1.05815
G1 X128.202 Y95.576 E1.08125
G1 X128.522 Y95.795 E1.09414
G1 X128.705 Y95.925 E1.10161
G1 X128.976 Y96.124 E1.11279
G1 X129.384 Y96.433 E1.12982
G1 X129.672 Y96.659 E1.14199
G1 X129.889 Y96.835 E1.15128
G1 X130.181 Y97.08 E1.16396
G1 X130.659 Y97.496 E1.18504
G1 X130.935 Y97.744 E1.19738
G1 X131.168 Y97.961 E1.20797
G1 X131.449 Y98.233 E1.22098
G1 X131.666 Y98.45 E1.23118
G1 X131.887 Y98.678 E1.24175
G1 X132.257 Y99.07 E1.25967
G1 X132.549 Y99.391 E1.27411
G1 X132.869 Y99.758 E1.2903
G1 X133.068 Y99.993 E1.30054
G1 X133.241 Y100.203 E1.30959
G1 X133.475 Y100.497 E1.32209
G1 X133.763 Y100.872 E1.33782
G1 X133.994 Y101.184 E1.35073
G1 X134.223 Y101.505 E1.36384
G1 X134.421 Y101.791 E1.37541
G1 X134.707 Y102.22 E1.39256
G1 X134.946 Y102.595 E1.40735
G1 X135.121 Y102.882 E1.41853
G1 X135.286 Y103.162 E1.42934
G1 X135.51 Y103.555 E1.44439
G1 X135.652 Y103.812 E1.45415
G1 X135.774 Y104.04 E1.46275
G1 X135.971 Y104.428 E1.47723
G1 X136.283 Y105.071 E1.501
G1 X136.455 Y105.443 E1.51463
G1 X136.554 Y105.668 E1.52281
G1 X136.683 Y105.972 E1.53379
G1 X136.842 Y106.365 E1.54789
G1 X136.972 Y106.704 E1.55997
G1 X137.144 Y107.173 E1.57658
G1 X137.273 Y107.545 E1.58968
G1 X137.354 Y107.793 E1.59835
G1 X137.457 Y108.123 E1.60985
G1 X137.632 Y108.722 E1.63061
G1 X137.745 Y109.139 E1.64498
G1 X137.808 Y109.391 E1.65362
G1 X137.872 Y109.664 E1.66294
G1 X137.988 Y110.184 E1.68066
G1 X138.07 Y110.585 E1.69428
G1 X138.124 Y110.878 E1.70419
G1 X138.185 Y111.243 E1.71649
G1 X138.25 Y111.677 E1.73109
G1 X138.297 Y112.034 E1.74307
G1 X138.358 Y112.558 E1.76061
G1 X138.395 Y112.924 E1.77285
G1 X138.425 Y113.287 E1.78496
G1 X138.449 Y113.667 E1.79763
G1 X138.469 Y114.085 E1.81154
G1 X138.481 Y114.451 E1.82372
G1 X138.487 Y114.863 E1.83743
G1 X138.486 Y115.234 E1.84977
G1 X138.478 Y115.651 E1.86364
G1 X138.465 Y116.016 E1.87579
G1 X138.442 Y116.455 E1.89041
G1 X138.416 Y116.828 E1.90285
G1 X138.381 Y117.232 E1.91633
G1 X138.345 Y117.584 E1.9281
G1 X138.297 Y117.987 E1.9416
G1 X138.244 Y118.375 E1.95463
G1 X138.175 Y118.819 E1.96957
G1 X138.115 Y119.164 E1.98122
G1 X138.042 Y119.552 E1.99435
G1 X137.97 Y119.904 E2.0063
G1 X137.878 Y120.318 E2.0204
G1 X137.783 Y120.711 E2.03385
G1 X137.689 Y121.071 E2.04623
G1 X137.591 Y121.423 E2.05838
G1 X137.42 Y121.999 E2.07836
G1 X137.318 Y122.324 E2.08969
G1 X137.271 Y122.466 E2.09467
G1 X137.144 Y122.828 E2.10743
G1 X136.929 Y123.409 E2.12803
G1 X136.779 Y123.792 E2.14171
G1 X136.61 Y124.201 E2.15643
G1 X136.435 Y124.604 E2.17105
G1 X136.277 Y124.943 E2.18349
G1 X135.938 Y125.638 E2.2092
G1 X135.776 Y125.957 E2.2211
G1 X135.693 Y126.114 E2.22701
G1 X135.494 Y126.473 E2.24066
G1 X135.203 Y126.977 E2.26002
G1 X135.014 Y127.292 E2.27224
G1 X134.839 Y127.573 E2.28325
G1 X134.645 Y127.874 E2.29516
G1 X134.447 Y128.17 E2.307
G1 X134.235 Y128.476 E2.31938
G1 X133.887 Y128.96 E2.33921
G1 X133.661 Y129.262 E2.35176
G1 X133.437 Y129.552 E2.36394
G1 X133.223 Y129.821 E2.37538
G1 X133.069 Y130.008 E2.38343
G1 X132.826 Y130.293 E2.39589
G1 X132.436 Y130.735 E2.4155
G1 X132.187 Y131.008 E2.42779
G1 X131.968 Y131.24 E2.4384
G1 X131.688 Y131.526 E2.45171
G1 X131.222 Y131.985 E2.47347
G1 X130.683 Y132.482 E2.49785
G1 X129.975 Y133.092 E2.52893
G1 X129.379 Y133.57 E2.55434
G1 X128.75 Y134.04 E2.58046
G1 X128.186 Y134.435 E2.60336
G1 X127.588 Y134.826 E2.62713
G1 X127.252 Y135.037 E2.64032
G1 X126.967 Y135.209 E2.65139
G1 X126.666 Y135.384 E2.66297
G1 X126.306 Y135.586 E2.6767
G1 X125.947 Y135.779 E2.69026
G1 X125.425 Y136.047 E2.70978
G1 X124.794 Y136.346 E2.733
G1 X124.025 Y136.681 E2.7609
G1 X123.684 Y136.822 E2.77317
G1 X123.525 Y136.885 E2.77886
G1 X123.169 Y137.019 E2.79151
G1 X122.628 Y137.212 E2.81062
G1 X122.258 Y137.337 E2.82361
G1 X121.968 Y137.429 E2.83373
G1 X121.622 Y137.533 E2.84574
G1 X121.153 Y137.665 E2.86195
G1 X120.807 Y137.756 E2.87385
G1 X120.365 Y137.865 E2.88899
G1 X120.013 Y137.946 E2.901
G1 X119.598 Y138.034 E2.91511
G1 X119.156 Y138.118 E2.93008
G1 X118.756 Y138.182 E2.94355
G1 X117.872 Y138.308 E2.97325
G1 X117.144 Y138.387 E2.9976
G1 X116.492 Y138.436 E3.01935
G1 X116.103 Y138.458 E3.03231
G1 X115.572 Y138.479 E3.04998
G1 X115.207 Y138.488 E3.06213
G1 X115.05 Y138.489 E3.06735
G1 X114.721 Y138.486 E3.07829
G1 X114.297 Y138.476 E3.0924
G1 X113.893 Y138.459 E3.10585
G1 X113.28 Y138.422 E3.12627
G1 X112.927 Y138.395 E3.13805
G1 X112.679 Y138.372 E3.14633
G1 X112.297 Y138.33 E3.15911
G1 X111.774 Y138.263 E3.17665
G1 X111.383 Y138.206 E3.18979
G1 X110.94 Y138.133 E3.20473
G1 X110.592 Y138.069 E3.2165
G1 X110.284 Y138.008 E3.22694
G1 X109.937 Y137.934 E3.23874
G1 X109.497 Y137.832 E3.25376
G1 X109.122 Y137.738 E3.26662
G1 X108.639 Y137.608 E3.28326
G1 X108.288 Y137.507 E3.2954
G1 X107.993 Y137.417 E3.30566
G1 X107.645 Y137.305 E3.31782
G1 X107.212 Y137.157 E3.33304
G1 X106.855 Y137.028 E3.34567
G1 X106.406 Y136.857 E3.36165
G1 X106.059 Y136.718 E3.37408
G1 X105.733 Y136.581 E3.38584
G1 X105.395 Y136.432 E3.39813
G1 X104.954 Y136.229 E3.41427
G1 X104.651 Y136.084 E3.42545
G1 X104.414 Y135.966 E3.43425
G1 X104.089 Y135.797 E3.44644
G1 X103.578 Y135.521 E3.46575
G1 X103.208 Y135.312 E3.47989
G1 X102.868 Y135.111 E3.49302
G1 X102.567 Y134.927 E3.50476
G1 X102.301 Y134.758 E3.51524
G1 X101.989 Y134.552 E3.52767
G1 X101.454 Y134.186 E3.54923
G1 X101.068 Y133.91 E3.56502
G1 X100.797 Y133.704 E3.57634
G1 X100.33 Y133.338 E3.59607
G1 X100.028 Y133.093 E3.60901
G1 X99.622 Y132.751 E3.62666
G1 X99.35 Y132.514 E3.63866
G1 X99.21 Y132.388 E3.64493
G1 X98.948 Y132.144 E3.65683
G1 X98.617 Y131.826 E3.6721
G1 X98.334 Y131.545 E3.68537
G1 X97.88 Y131.076 E3.70708
G1 X97.567 Y130.74 E3.72235
G1 X97.298 Y130.434 E3.7359
G1 X96.925 Y129.994 E3.75509
G1 X96.687 Y129.703 E3.76759
G1 X96.434 Y129.383 E3.78116
G1 X96.215 Y129.096 E3.79316
G1 X95.955 Y128.744 E3.80772
G1 X95.732 Y128.432 E3.82047
G1 X95.614 Y128.26 E3.82741
G1 X95.438 Y127.995 E3.83799
G1 X95.112 Y127.489 E3.85801
G1 X94.884 Y127.119 E3.87247
G1 X94.687 Y126.785 E3.88537
G1 X94.515 Y126.483 E3.89692
G1 X94.252 Y126.003 E3.91513
G1 X94.089 Y125.694 E3.92675
G1 X93.951 Y125.422 E3.93689
G1 X93.773 Y125.055 E3.95046
G1 X93.689 Y124.873 E3.95713
G1 X93.551 Y124.559 E3.96853
G1 X93.215 Y123.767 E3.99715
G1 X93.044 Y123.34 E4.01245
G1 X92.93 Y123.028 E4.0235
G1 X92.735 Y122.467 E4.04325
G1 X92.62 Y122.119 E4.05544
G1 X92.492 Y121.707 E4.06979
G1 X92.377 Y121.31 E4.08354
G1 X92.296 Y121.01 E4.09387
G1 X92.218 Y120.704 E4.10437
G1 X92.105 Y120.232 E4.12052
G1 X92.021 Y119.848 E4.13359
G1 X91.938 Y119.437 E4.14754
G1 X91.868 Y119.057 E4.16039
G1 X91.79 Y118.586 E4.17627
G1 X91.738 Y118.237 E4.188
G1 X91.704 Y117.981 E4.19659
G1 X91.663 Y117.628 E4.20841
G1 X91.608 Y117.078 E4.2268
G1 X91.575 Y116.682 E4.24001
G1 X91.547 Y116.242 E4.25468
G1 X91.53 Y115.881 E4.2667
G1 X91.522 Y115.621 E4.27535
G1 X91.517 Y115.283 E4.28659
G1 X91.517 Y114.706 E4.30578
G1 X91.524 Y114.301 E4.31926
G1 X91.537 Y113.948 E4.331
G1 X91.556 Y113.602 E4.34253
G1 X91.582 Y113.222 E4.3552
G1 X91.616 Y112.824 E4.36848
G1 X91.677 Y112.243 E4.38791
G1 X91.717 Y111.91 E4.39907
G1 X91.748 Y111.682 E4.40672
G1 X91.807 Y111.302 E4.41951
G1 X91.892 Y110.807 E4.43622
G1 X91.959 Y110.452 E4.44823
G1 X92.038 Y110.068 E4.46127
G1 X92.125 Y109.678 E4.47456
G1 X92.236 Y109.223 E4.49014
G1 X92.326 Y108.88 E4.50193
G1 X92.434 Y108.492 E4.51533
G1 X92.534 Y108.153 E4.52709
G1 X92.633 Y107.837 E4.5381
G1 X92.75 Y107.485 E4.55044
G1 X92.931 Y106.969 E4.56862
G1 X93.056 Y106.63 E4.58064
G1 X93.174 Y106.326 E4.59149
G1 X93.33 Y105.945 E4.60518
G1 X93.536 Y105.468 E4.62246
G1 X93.683 Y105.142 E4.63436
G1 X93.837 Y104.815 E4.64638
G1 X93.983 Y104.518 E4.65739
G1 X94.168 Y104.154 E4.67097
G1 X94.36 Y103.793 E4.68457
G1 X94.524 Y103.498 E4.69579
G1 X94.701 Y103.192 E4.70755
G1 X95.007 Y102.681 E4.72736
G1 X95.202 Y102.366 E4.73968
G1 X95.375 Y102.098 E4.75029
G1 X95.595 Y101.771 E4.7634
G1 X95.844 Y101.414 E4.77788
G1 X96.042 Y101.139 E4.78915
G1 X96.339 Y100.74 E4.80569
G1 X96.573 Y100.436 E4.81845
G1 X96.721 Y100.251 E4.82633
G1 X96.951 Y99.974 E4.8383
G1 X97.364 Y99.491 E4.85944
G1 X97.612 Y99.21 E4.87191
G1 X97.71 Y99.103 E4.87673
G1 X97.944 Y98.856 E4.88805
G1 X98.364 Y98.425 E4.90807
G0 F6000 X98.65 Y98.704
G1 F1200 X98.923 Y98.434 E4.92084
G1 X99.297 Y98.077 E4.93803
G1 X99.585 Y97.813 E4.95103
G1 X99.761 Y97.657 E4.95885
G1 X99.986 Y97.463 E4.96873
G1 X100.343 Y97.164 E4.98422
G1 X100.635 Y96.928 E4.99671
G1 X100.997 Y96.646 E5.01197
G1 X101.311 Y96.411 E5.02501
G1 X101.641 Y96.173 E5.03855
G1 X101.91 Y95.985 E5.04946
G1 X102.264 Y95.746 E5.06367
G1 X102.55 Y95.559 E5.07503
G1 X102.906 Y95.335 E5.08902
G1 X103.217 Y95.147 E5.10111
G1 X103.545 Y94.956 E5.11373
G1 X103.855 Y94.782 E5.12556
G1 X104.234 Y94.578 E5.13987
G1 X104.538 Y94.421 E5.15125
G1 X104.91 Y94.236 E5.16507
G1 X105.264 Y94.068 E5.1781
G1 X105.733 Y93.856 E5.19522
G1 X106.012 Y93.734 E5.20535
G1 X106.225 Y93.645 E5.21303
G1 X106.6 Y93.497 E5.22644
G1 X107.258 Y93.251 E5.2498
G1 X107.909 Y93.031 E5.27266
G1 X108.728 Y92.784 E5.30111
G1 X109.1 Y92.68 E5.31396
G1 X109.526 Y92.573 E5.32857
G1 X110.037 Y92.455 E5.34601
G1 X110.416 Y92.374 E5.3589
G1 X110.909 Y92.279 E5.3756
G1 X111.253 Y92.219 E5.38721
G1 X111.568 Y92.169 E5.39782
G1 X111.936 Y92.117 E5.41018
G1 X112.383 Y92.062 E5.42516
G1 X112.715 Y92.027 E5.43626
G1 X113.055 Y91.996 E5.44762
G1 X113.423 Y91.969 E5.45989
G1 X114.082 Y91.932 E5.48185
G1 X114.776 Y91.915 E5.50493
G1 X115.625 Y91.923 E5.53317
G1 X116.069 Y91.936 E5.54795
G1 X116.481 Y91.96 E5.56167
G1 X117.042 Y92.004 E5.58039
G1 X117.392 Y92.038 E5.59209
G1 X117.785 Y92.082 E5.60524
G1 X118.134 Y92.127 E5.61694
G1 X118.594 Y92.194 E5.6324
G1 X118.983 Y92.258 E5.64552
G1 X119.206 Y92.299 E5.65306
G1 X119.514 Y92.36 E5.6635
G1 X120.18 Y92.503 E5.68616
G1 X120.595 Y92.601 E5.70034
G1 X120.805 Y92.655 E5.70755
G1 X121.077 Y92.729 E5.71693
G1 X121.644 Y92.891 E5.73654
G1 X122.022 Y93.006 E5.74968
G1 X122.313 Y93.101 E5.75986
G1 X122.614 Y93.205 E5.77045
G1 X123 Y93.344 E5.7841
G1 X123.32 Y93.465 E5.79548
G1 X123.776 Y93.646 E5.8118
G1 X124.139 Y93.798 E5.82489
G1 X124.425 Y93.924 E5.83528
G1 X124.733 Y94.066 E5.84656
G1 X125.194 Y94.287 E5.86356
G1 X125.519 Y94.449 E5.87564
G1 X125.9 Y94.648 E5.88994
G1 X126.233 Y94.83 E5.90256
G1 X126.597 Y95.037 E5.91649
G1 X126.842 Y95.18 E5.92592
G1 X127.057 Y95.31 E5.93428
G1 X127.402 Y95.529 E5.94787
G1 X127.982 Y95.911 E5.97097
G1 X128.291 Y96.122 E5.98342
G1 X128.474 Y96.252 E5.99088
G1 X128.735 Y96.443 E6.00164
G1 X129.143 Y96.752 E6.01866
G1 X129.42 Y96.969 E6.03036
G1 X129.637 Y97.145 E6.03966
G1 X129.919 Y97.382 E6.05191
G1 X130.397 Y97.798 E6.07299
G1 X130.662 Y98.037 E6.08485
G1 X130.895 Y98.254 E6.09544
G1 X131.166 Y98.516 E6.10798
G1 X131.383 Y98.733 E6.11819
G1 X131.597 Y98.952 E6.12837
G1 X131.967 Y99.344 E6.1463
G1 X132.247 Y99.654 E6.1602
G1 X132.567 Y100.021 E6.17639
G1 X132.759 Y100.247 E6.18625
G1 X132.932 Y100.457 E6.1953
G1 X133.158 Y100.741 E6.20737
G1 X133.446 Y101.116 E6.2231
G1 X133.668 Y101.416 E6.23551
G1 X133.897 Y101.737 E6.24863
G1 X134.088 Y102.013 E6.25979
G1 X134.374 Y102.442 E6.27694
G1 X134.604 Y102.804 E6.29121
G1 X134.779 Y103.091 E6.30239
G1 X134.938 Y103.36 E6.31278
G1 X135.162 Y103.753 E6.32782
G1 X135.299 Y104.001 E6.33725
G1 X135.421 Y104.229 E6.34585
G1 X135.612 Y104.603 E6.35982
G1 X135.924 Y105.246 E6.38359
G1 X136.089 Y105.604 E6.3967
G1 X136.188 Y105.829 E6.40487
G1 X136.312 Y106.122 E6.41546
G1 X136.471 Y106.515 E6.42956
G1 X136.597 Y106.841 E6.44118
G1 X136.769 Y107.31 E6.4578
G1 X136.893 Y107.669 E6.47043
G1 X136.974 Y107.917 E6.47911
G1 X137.073 Y108.235 E6.49018
G1 X137.248 Y108.834 E6.51094
G1 X137.357 Y109.236 E6.52479
G1 X137.42 Y109.488 E6.53343
G1 X137.482 Y109.751 E6.54242
G1 X137.598 Y110.271 E6.56014
G1 X137.676 Y110.658 E6.57327
G1 X137.73 Y110.951 E6.58318
G1 X137.789 Y111.302 E6.59502
G1 X137.854 Y111.736 E6.60961
G1 X137.9 Y112.08 E6.62116
G1 X137.961 Y112.604 E6.6387
G1 X137.996 Y112.957 E6.6505
G1 X138.026 Y113.32 E6.66262
G1 X138.05 Y113.686 E6.67482
G1 X138.07 Y114.104 E6.68873
G1 X138.081 Y114.457 E6.70048
G1 X138.087 Y114.869 E6.71418
G1 X138.086 Y115.226 E6.72606
G1 X138.078 Y115.643 E6.73993
G1 X138.065 Y115.995 E6.75165
G1 X138.042 Y116.434 E6.76627
G1 X138.017 Y116.794 E6.77827
G1 X137.982 Y117.198 E6.79176
G1 X137.948 Y117.537 E6.80309
G1 X137.9 Y117.94 E6.81659
G1 X137.848 Y118.314 E6.82915
G1 X137.779 Y118.758 E6.84409
G1 X137.722 Y119.09 E6.8553
G1 X137.649 Y119.478 E6.86843
G1 X137.58 Y119.817 E6.87993
G1 X137.488 Y120.231 E6.89404
G1 X137.396 Y120.61 E6.90701
G1 X137.302 Y120.97 E6.91939
G1 X137.208 Y121.309 E6.93109
G1 X137.037 Y121.885 E6.95107
G1 X136.938 Y122.199 E6.96202
G1 X136.891 Y122.341 E6.967
G1 X136.769 Y122.689 E6.97926
G1 X136.554 Y123.27 E6.99987
G1 X136.41 Y123.639 E7.01304
G1 X136.241 Y124.048 E7.02776
G1 X136.07 Y124.441 E7.04201
G1 X135.917 Y124.768 E7.05402
G1 X135.578 Y125.463 E7.07974
G1 X135.422 Y125.77 E7.09119
G1 X135.339 Y125.927 E7.0971
G1 X135.148 Y126.273 E7.11025
G1 X134.857 Y126.777 E7.1296
G1 X134.675 Y127.081 E7.14139
