;FLAVOR:Marlin
;TIME:553
;Filament used: 0.197059m
;Layer height: 0.16
;MINX:98.989
;MINY:99.65
;MINZ:0.2
;MAXX:131.012
;MAXY:130.35
;MAXZ:8.72
;Generated with Cura_SteamEngine 4.12.0
M140 S50
M105
M190 S50
M104 S200
M105
M109 S200
M82 ;absolute extrusion mode
; Ender 3 Custom Start G-code
G92 E0 ; Reset Extruder
G28 ; Home all axes
G1 Z2.0 F3000 ; Move Z Axis up little to prevent scratching of Heat Bed
G1 X0.1 Y20 Z0.3 F5000.0 ; Move to start position
G1 X0.1 Y200.0 Z0.3 F1500.0 E15 ; Draw the first line
G1 X0.4 Y200.0 Z0.3 F5000.0 ; Move to side a little
G1 X0.4 Y20 Z0.3 F1500.0 E30 ; Draw the second line
G92 E0 ; Reset Extruder
G1 Z2.0 F3000 ; Move Z Axis up little to prevent scratching of Heat Bed
G1 X5 Y20 Z0.3 F5000.0 ; Move over to prevent blob squish
G92 E0
G92 E0
G1 F2700 E-5
;LAYER_COUNT:47
;LAYER:0
M107
G0 F6000 X104.776 Y102.822 Z0.2
;TYPE:SKIRT
G1 F2700 E0
G1 F1200 X105.471 Y102.193 E0.03118
G1 X106.218 Y101.626 E0.06237
G1 X107.01 Y101.124 E0.09356
G1 X107.843 Y100.692 E0.12477
G1 X108.709 Y100.332 E0.15596
G1 X109.602 Y100.047 E0.18714
G1 X110.517 Y99.839 E0.21835
G1 X111.446 Y99.71 E0.24954
G1 X112.336 Y99.661 E0.27919
G1 X113.188 Y99.65 E0.30753
G1 X116.804 Y99.65 E0.4278
G1 X117.662 Y99.661 E0.45634
G1 X118.598 Y99.714 E0.48752
G1 X119.527 Y99.847 E0.51873
G1 X120.44 Y100.059 E0.54991
G1 X121.333 Y100.347 E0.58111
G1 X122.197 Y100.711 E0.6123
G1 X123.028 Y101.147 E0.64351
G1 X123.818 Y101.652 E0.67469
G1 X124.562 Y102.222 E0.70587
G1 X125.255 Y102.854 E0.73706
G1 X125.892 Y103.543 E0.76827
G1 X126.468 Y104.283 E0.79946
G1 X126.949 Y105.019 E0.8287
G1 X127.387 Y105.755 E0.85719
G1 X129.292 Y109.056 E0.98395
G1 X129.613 Y109.63 E1.00583
G1 X130.035 Y110.467 E1.037
G1 X130.385 Y111.338 E1.06823
G1 X130.659 Y112.234 E1.09939
G1 X130.856 Y113.151 E1.13058
G1 X130.974 Y114.082 E1.1618
G1 X131.012 Y115.019 E1.19299
G1 X130.97 Y115.956 E1.22418
G1 X130.849 Y116.886 E1.25538
G1 X130.649 Y117.802 E1.28656
G1 X130.371 Y118.698 E1.31776
G1 X130.019 Y119.567 E1.34895
G1 X129.619 Y120.357 E1.3784
G1 X129.2 Y121.106 E1.40694
G1 X127.39 Y124.24 E1.52732
G1 X126.956 Y124.969 E1.55553
G1 X126.443 Y125.754 E1.58672
G1 X125.864 Y126.492 E1.61792
G1 X125.224 Y127.178 E1.64913
G1 X124.528 Y127.807 E1.68033
G1 X123.782 Y128.374 E1.71149
G1 X122.989 Y128.876 E1.74271
G1 X122.157 Y129.308 E1.77389
G1 X121.291 Y129.668 E1.80508
G1 X120.397 Y129.953 E1.83629
G1 X119.483 Y130.161 E1.86747
G1 X118.554 Y130.29 E1.89866
G1 X117.664 Y130.339 E1.92831
G1 X116.812 Y130.35 E1.95665
G1 X113.039 Y130.349 E2.08214
G1 X112.338 Y130.339 E2.10546
G1 X111.402 Y130.286 E2.13664
G1 X110.473 Y130.153 E2.16785
G1 X109.56 Y129.941 E2.19903
G1 X108.667 Y129.653 E2.23024
G1 X107.803 Y129.289 E2.26142
G1 X106.972 Y128.853 E2.29263
G1 X106.182 Y128.348 E2.32382
G1 X105.438 Y127.778 E2.35499
G1 X104.745 Y127.146 E2.38618
G1 X104.108 Y126.457 E2.41739
G1 X103.532 Y125.717 E2.44858
G1 X103.05 Y124.979 E2.4779
G1 X102.609 Y124.238 E2.50658
G1 X100.783 Y121.076 E2.62803
G1 X100.377 Y120.349 E2.65572
G1 X99.956 Y119.511 E2.68691
G1 X99.609 Y118.64 E2.7181
G1 X99.336 Y117.743 E2.74928
G1 X99.141 Y116.825 E2.7805
G1 X99.025 Y115.894 E2.8117
G1 X98.989 Y114.957 E2.84289
G1 X99.033 Y114.02 E2.87409
G1 X99.156 Y113.091 E2.90526
G1 X99.358 Y112.175 E2.93645
G1 X99.637 Y111.28 E2.96764
G1 X99.992 Y110.411 E2.99886
G1 X100.379 Y109.647 E3.02734
G1 X100.801 Y108.893 E3.05608
G1 X102.688 Y105.627 E3.18154
G1 X103.043 Y105.031 E3.20461
G1 X103.557 Y104.246 E3.23582
G1 X104.136 Y103.508 E3.26702
G1 X104.776 Y102.822 E3.29822
G0 F6000 X105.093 Y103.072
G1 F1200 X105.779 Y102.458 E3.32884
G1 X106.516 Y101.907 E3.35945
G1 X107.298 Y101.421 E3.39007
G1 X108.119 Y101.005 E3.42068
G1 X108.974 Y100.662 E3.45132
G1 X109.854 Y100.394 E3.48192
G1 X110.755 Y100.204 E3.51255
G1 X111.669 Y100.092 E3.54317
G1 X112.341 Y100.061 E3.56555
G1 X113.188 Y100.05 E3.59372
G1 X116.804 Y100.05 E3.71399
G1 X117.656 Y100.061 E3.74233
G1 X118.575 Y100.114 E3.77295
G1 X119.486 Y100.247 E3.80357
G1 X120.382 Y100.458 E3.83418
G1 X121.257 Y100.746 E3.86482
G1 X122.103 Y101.109 E3.89544
G1 X122.914 Y101.544 E3.92605
G1 X123.685 Y102.048 E3.95669
G1 X124.409 Y102.617 E3.98731
G1 X125.081 Y103.246 E4.01793
G1 X125.696 Y103.931 E4.04855
G1 X126.249 Y104.667 E4.07917
G1 X126.605 Y105.224 E4.10115
G1 X127.04 Y105.955 E4.12944
G1 X128.943 Y109.251 E4.25603
G1 X129.264 Y109.825 E4.2779
G1 X129.678 Y110.647 E4.30852
G1 X130.019 Y111.503 E4.33916
G1 X130.284 Y112.384 E4.36976
G1 X130.473 Y113.285 E4.40038
G1 X130.582 Y114.199 E4.431
G1 X130.611 Y115.12 E4.46164
G1 X130.561 Y116.039 E4.49226
G1 X130.431 Y116.95 E4.52286
G1 X130.222 Y117.847 E4.5535
G1 X129.937 Y118.722 E4.5841
G1 X129.576 Y119.569 E4.61473
G1 X129.269 Y120.162 E4.63694
G1 X128.853 Y120.906 E4.66529
G1 X126.971 Y124.164 E4.79043
G1 X126.613 Y124.765 E4.8137
G1 X126.108 Y125.534 E4.84429
G1 X125.538 Y126.257 E4.87492
G1 X124.907 Y126.928 E4.90555
G1 X124.221 Y127.542 E4.93617
G1 X123.484 Y128.094 E4.9668
G1 X122.702 Y128.579 E4.9974
G1 X121.88 Y128.995 E5.02805
G1 X121.026 Y129.338 E5.05866
G1 X120.145 Y129.606 E5.08928
G1 X119.244 Y129.796 E5.11991
G1 X118.331 Y129.908 E5.1505
G1 X117.659 Y129.939 E5.17288
G1 X116.812 Y129.95 E5.20105
G1 X113.045 Y129.949 E5.32634
G1 X112.344 Y129.939 E5.34966
G1 X111.425 Y129.886 E5.38028
G1 X110.514 Y129.753 E5.4109
G1 X109.618 Y129.542 E5.44152
G1 X108.743 Y129.254 E5.47215
G1 X107.897 Y128.891 E5.50277
G1 X107.086 Y128.456 E5.53338
G1 X106.315 Y127.952 E5.56402
G1 X105.591 Y127.383 E5.59465
G1 X104.919 Y126.754 E5.62526
G1 X104.304 Y126.069 E5.65588
G1 X103.751 Y125.333 E5.6865
G1 X103.394 Y124.774 E5.70856
G1 X102.956 Y124.038 E5.73704
G1 X101.047 Y120.73 E5.86407
G1 X100.727 Y120.155 E5.88596
G1 X100.314 Y119.332 E5.91659
G1 X99.975 Y118.476 E5.94721
G1 X99.711 Y117.594 E5.97783
G1 X99.525 Y116.692 E6.00846
G1 X99.418 Y115.778 E6.03907
G1 X99.39 Y114.857 E6.06972
G1 X99.442 Y113.938 E6.10033
G1 X99.574 Y113.027 E6.13095
G1 X99.785 Y112.131 E6.16156
G1 X100.072 Y111.256 E6.19219
G1 X100.434 Y110.41 E6.2228
G1 X100.729 Y109.842 E6.24409
G1 X101.147 Y109.093 E6.27262
G1 X103.032 Y105.832 E6.39789
G1 X103.387 Y105.236 E6.42097
G1 X103.892 Y104.466 E6.45159
G1 X104.462 Y103.743 E6.48221
G1 X105.093 Y103.072 E6.51285
G0 F6000 X105.409 Y103.322
G1 F1200 X106.086 Y102.724 E6.54289
G1 X106.813 Y102.189 E6.57292
G1 X107.584 Y101.719 E6.60295
G1 X108.394 Y101.32 E6.63298
G1 X109.237 Y100.994 E6.66304
G1 X110.104 Y100.744 E6.69305
G1 X110.991 Y100.571 E6.72311
G1 X111.889 Y100.478 E6.75314
G1 X112.347 Y100.461 E6.76838
G1 X113.188 Y100.45 E6.79636
G1 X116.804 Y100.45 E6.91662
G1 X117.65 Y100.461 E6.94477
G1 X118.552 Y100.514 E6.97482
G1 X119.445 Y100.646 E7.00484
G1 X120.324 Y100.857 E7.03491
G1 X121.18 Y101.145 E7.06495
G1 X122.007 Y101.507 E7.09497
G1 X122.799 Y101.941 E7.12501
G1 X123.549 Y102.444 E7.15505
G1 X124.252 Y103.011 E7.18509
G1 X124.902 Y103.637 E7.2151
G1 X125.495 Y104.319 E7.24516
G1 X126.262 Y105.429 E7.29003
G1 X126.694 Y106.155 E7.31813
G1 X128.593 Y109.446 E7.44451
G1 X128.914 Y110.02 E7.46638
G1 X129.32 Y110.827 E7.49643
G1 X129.652 Y111.667 E7.52647
G1 X129.909 Y112.533 E7.55651
G1 X130.089 Y113.418 E7.58655
G1 X130.189 Y114.315 E7.61657
G1 X130.21 Y115.218 E7.64661
G1 X130.15 Y116.12 E7.67668
G1 X130.011 Y117.012 E7.70671
G1 X129.794 Y117.888 E7.73672
G1 X129.5 Y118.742 E7.76676
G1 X129.132 Y119.567 E7.79681
G1 X128.92 Y119.968 E7.8119
G1 X128.507 Y120.706 E7.84002
G1 X126.627 Y123.959 E7.96499
G1 X126.269 Y124.56 E7.98825
G1 X125.773 Y125.315 E8.0183
G1 X125.212 Y126.022 E8.04832
G1 X124.591 Y126.678 E8.07836
G1 X123.914 Y127.276 E8.10841
G1 X123.187 Y127.812 E8.13845
G1 X122.415 Y128.281 E8.16849
G1 X121.605 Y128.68 E8.19852
G1 X120.763 Y129.006 E8.22855
G1 X119.895 Y129.256 E8.2586
G1 X119.009 Y129.429 E8.28862
G1 X118.111 Y129.522 E8.31865
G1 X117.653 Y129.539 E8.33389
G1 X116.812 Y129.55 E8.36187
G1 X113.051 Y129.549 E8.48696
G1 X112.35 Y129.539 E8.51028
G1 X111.448 Y129.486 E8.54033
G1 X110.555 Y129.354 E8.57035
G1 X109.676 Y129.143 E8.60042
G1 X108.82 Y128.855 E8.63046
G1 X107.993 Y128.493 E8.66048
G1 X107.201 Y128.059 E8.69052
G1 X106.451 Y127.556 E8.72056
G1 X105.748 Y126.989 E8.7506
G1 X105.098 Y126.363 E8.78061
G1 X104.505 Y125.681 E8.81067
G1 X103.737 Y124.569 E8.85562
G1 X103.302 Y123.838 E8.88391
G1 X101.396 Y120.535 E9.01075
G1 X101.076 Y119.96 E9.03264
G1 X100.672 Y119.152 E9.06268
G1 X100.342 Y118.312 E9.0927
G1 X100.087 Y117.446 E9.12273
G1 X99.909 Y116.56 E9.15278
G1 X99.811 Y115.662 E9.18283
G1 X99.792 Y114.76 E9.21284
G1 X99.853 Y113.859 E9.24287
G1 X99.994 Y112.966 E9.27294
G1 X100.213 Y112.09 E9.30297
G1 X100.509 Y111.237 E9.333
G1 X101.078 Y110.036 E9.37721
G1 X101.493 Y109.294 E9.40548
G1 X103.376 Y106.036 E9.53064
G1 X103.731 Y105.44 E9.55371
G1 X104.227 Y104.686 E9.58373
G1 X104.788 Y103.978 E9.61378
G1 X105.409 Y103.322 E9.64382
G1 F2700 E4.64382
;MESH:clip_v1.stl
G0 F6000 X111.793 Y110.527
G0 X112.729 Y111.067
G0 X116.834 Y111.826
G0 X118.666 Y115
G0 X116.935 Y118.35
;TYPE:WALL-INNER
G1 F2700 E9.64382
G1 F1200 X113.065 Y118.35 E9.77254
G1 X111.131 Y115 E9.90119
G1 X113.065 Y111.65 E10.02985
G1 X116.935 Y111.65 E10.15857
G1 X118.869 Y115 E10.28722
G1 X116.935 Y118.35 E10.41588
G0 F6000 X117.165 Y118.75
G1 F1200 X112.835 Y118.75 E10.5599
G1 X110.669 Y115 E10.70393
G1 X112.835 Y111.25 E10.84797
G1 X117.165 Y111.25 E10.99198
G1 X119.331 Y115 E11.13602
G1 X117.165 Y118.75 E11.28006
G0 F6000 X117.396 Y119.15
;TYPE:WALL-OUTER
G1 F1200 X112.604 Y119.15 E11.43944
G1 X110.208 Y115 E11.59882
G1 X112.604 Y110.85 E11.7582
G1 X117.396 Y110.85 E11.91759
G1 X119.792 Y115 E12.07697
G1 X117.396 Y119.15 E12.23635
G0 F6000 X117.125 Y118.739
G0 X116.71 Y117.96
;TYPE:SKIN
G1 F1200 X113.289 Y117.96 E12.35014
G1 X111.581 Y115.001 E12.46377
G1 X113.29 Y112.04 E12.57748
G1 X116.71 Y112.04 E12.69123
G1 X118.418 Y115 E12.80489
G1 X116.71 Y117.96 E12.91856
G0 F6000 X116.951 Y118.099
G0 X113.839 Y118.24
G0 X113.839 Y117.799
G1 F1200 X112.755 Y116.715 E12.96955
G0 F6000 X112.375 Y116.933
G0 X111.603 Y115.595
G0 X111.983 Y115.377
G1 F1200 X114.404 Y117.799 E13.08345
G0 F6000 X114.97 Y117.799
G1 F1200 X111.913 Y114.742 E13.22724
G0 F6000 X112.12 Y114.383
G1 F1200 X115.536 Y117.799 E13.38792
G0 F6000 X116.101 Y117.799
G1 F1200 X112.328 Y114.025 E13.56541
G0 F6000 X112.534 Y113.666
G1 F1200 X116.636 Y117.767 E13.75833
G0 F6000 X116.843 Y117.409
G1 F1200 X112.741 Y113.307 E13.95128
G0 F6000 X112.948 Y112.948
G1 F1200 X117.05 Y117.05 E14.14422
G0 F6000 X117.257 Y116.691
G1 F1200 X113.155 Y112.589 E14.33717
G0 F6000 X113.362 Y112.231
G1 F1200 X117.463 Y116.332 E14.53007
G0 F6000 X117.671 Y115.973
G1 F1200 X113.897 Y112.2 E14.70756
G0 F6000 X114.462 Y112.2
G1 F1200 X117.878 Y115.615 E14.86822
G0 F6000 X118.084 Y115.256
G1 F1200 X115.028 Y112.2 E15.01196
G0 F6000 X115.594 Y112.2
G1 F1200 X118.012 Y114.618 E15.1257
G0 F6000 X118.394 Y114.399
G0 X117.622 Y113.061
G0 X117.24 Y113.28
G1 F1200 X116.159 Y112.2 E15.17652
G0 F6000 X116.159 Y111.46
;MESH:NONMESH
G0 F300 X116.159 Y111.46 Z0.4
G0 F6000 X116.834 Y111.826
G0 X118.666 Y115
G0 X116.935 Y118.35
;TIME_ELAPSED:30.647311
;LAYER:1
M106 S85
;TYPE:WALL-INNER
;MESH:clip_v1.stl
G1 F1017.5 X113.065 Y118.35 E15.30524
G1 X111.131 Y115 E15.43389
G1 X113.065 Y111.65 E15.56255
G1 X116.935 Y111.65 E15.69127
G1 X118.869 Y115 E15.81992
G1 X116.935 Y118.35 E15.94858
G0 F7500 X117.165 Y118.75
G1 F1017.5 X112.835 Y118.75 E16.0926
G1 X110.669 Y115 E16.23663
G1 X112.835 Y111.25 E16.38067
G1 X117.165 Y111.25 E16.52468
G1 X119.331 Y115 E16.66872
G1 X117.165 Y118.75 E16.81276
G0 F7500 X117.396 Y119.15
;TYPE:WALL-OUTER
G1 F1017.5 X112.604 Y119.15 E16.97214
G1 X110.208 Y115 E17.13152
G1 X112.604 Y110.85 E17.2909
G1 X117.396 Y110.85 E17.45029
G1 X119.792 Y115 E17.60967
G1 X117.396 Y119.15 E17.76905
G0 F7500 X117.125 Y118.739
G0 X116.71 Y117.96
;TYPE:SKIN
G1 F1017.5 X113.29 Y117.96 E17.8828
G1 X111.582 Y115 E17.99647
G1 X113.29 Y112.04 E18.11013
G1 X116.71 Y112.04 E18.22388
G1 X118.418 Y115 E18.33755
G1 X116.71 Y117.96 E18.45121
G0 F7500 X116.394 Y117.799
G1 F1017.5 X116.922 Y117.271 E18.47604
G0 F7500 X117.303 Y117.491
G0 X116.834 Y118.174
G0 X115.829 Y118.24
G0 X115.829 Y117.799
G1 F1017.5 X117.692 Y115.935 E18.5637
G0 F7500 X118.073 Y116.155
G0 X118.666 Y115
G0 X118.552 Y114.673
G0 X118.17 Y114.892
G1 F1017.5 X115.263 Y117.799 E18.70043
G0 F7500 X114.697 Y117.799
G1 F1017.5 X117.963 Y114.533 E18.85406
G0 F7500 X117.755 Y114.175
G1 F1017.5 X114.131 Y117.799 E19.02452
G0 F7500 X113.566 Y117.799
G1 F1017.5 X117.548 Y113.816 E19.21184
G0 F7500 X117.342 Y113.457
G1 F1017.5 X113.243 Y117.556 E19.40465
G0 F7500 X113.035 Y117.197
G1 F1017.5 X117.135 Y113.098 E19.59748
G0 F7500 X116.927 Y112.74
G1 F1017.5 X112.828 Y116.839 E19.79028
G0 F7500 X112.622 Y116.48
G1 F1017.5 X116.72 Y112.381 E19.98306
G0 F7500 X116.336 Y112.2
G1 F1017.5 X112.415 Y116.121 E20.16749
G0 F7500 X112.207 Y115.763
G1 F1017.5 X115.771 Y112.2 E20.33511
G0 F7500 X115.205 Y112.2
G1 F1017.5 X112 Y115.404 E20.48584
G0 F7500 X111.794 Y115.045
G1 F1017.5 X114.639 Y112.2 E20.61966
G0 F7500 X114.074 Y112.2
G1 F1017.5 X112.437 Y113.836 E20.69664
G0 F7500 X112.058 Y113.617
G0 X112.829 Y112.282
G0 X113.207 Y112.5
G1 F1017.5 X113.508 Y112.2 E20.71077
G0 F7500 X113.508 Y111.46
;MESH:NONMESH
G0 F300 X113.508 Y111.46 Z0.6
G0 F7500 X116.834 Y111.826
G0 X118.666 Y115
G0 X116.935 Y118.35
;TIME_ELAPSED:42.743257
;LAYER:2
M106 S170
;TYPE:WALL-INNER
;MESH:clip_v1.stl
G1 F1014.9 X113.065 Y118.35 E20.83949
G1 X111.131 Y115 E20.96814
G1 X113.065 Y111.65 E21.0968
G1 X116.935 Y111.65 E21.22552
G1 X118.869 Y115 E21.35417
G1 X116.935 Y118.35 E21.48283
G0 F9000 X117.165 Y118.75
G1 F1014.9 X112.835 Y118.75 E21.62684
G1 X110.669 Y115 E21.77088
G1 X112.835 Y111.25 E21.91492
G1 X117.165 Y111.25 E22.05893
G1 X119.331 Y115 E22.20297
G1 X117.165 Y118.75 E22.34701
G0 F9000 X117.396 Y119.15
;TYPE:WALL-OUTER
G1 F1014.9 X112.604 Y119.15 E22.50639
G1 X110.208 Y115 E22.66577
G1 X112.604 Y110.85 E22.82515
G1 X117.396 Y110.85 E22.98454
G1 X119.792 Y115 E23.14392
G1 X117.396 Y119.15 E23.3033
G0 F9000 X117.125 Y118.739
G0 X116.71 Y117.96
;TYPE:SKIN
G1 F1014.9 X113.29 Y117.96 E23.41705
G1 X111.582 Y115 E23.53072
G1 X113.29 Y112.04 E23.64438
G1 X116.711 Y112.04 E23.75816
G1 X118.418 Y115 E23.87181
G1 X116.71 Y117.96 E23.98548
G0 F9000 X116.951 Y118.099
G0 X113.839 Y118.24
G0 X113.839 Y117.799
G1 F1014.9 X112.758 Y116.718 E24.03632
G0 F9000 X112.377 Y116.936
G0 X111.605 Y115.599
G0 X111.986 Y115.38
G1 F1014.9 X114.404 Y117.799 E24.15008
G0 F9000 X114.97 Y117.799
G1 F1014.9 X111.914 Y114.742 E24.29385
G0 F9000 X112.12 Y114.383
G1 F1014.9 X115.536 Y117.799 E24.45453
G0 F9000 X116.101 Y117.799
G1 F1014.9 X112.328 Y114.025 E24.63202
G0 F9000 X112.535 Y113.666
G1 F1014.9 X116.636 Y117.767 E24.82492
G0 F9000 X116.843 Y117.409
G1 F1014.9 X112.741 Y113.307 E25.01787
G0 F9000 X112.948 Y112.948
G1 F1014.9 X117.05 Y117.05 E25.21081
G0 F9000 X117.257 Y116.691
G1 F1014.9 X113.155 Y112.589 E25.40376
G0 F9000 X113.362 Y112.231
G1 F1014.9 X117.463 Y116.332 E25.59666
G0 F9000 X117.671 Y115.973
G1 F1014.9 X113.897 Y112.2 E25.77415
G0 F9000 X114.462 Y112.2
G1 F1014.9 X117.878 Y115.615 E25.9348
G0 F9000 X118.084 Y115.256
G1 F1014.9 X115.028 Y112.2 E26.07855
G0 F9000 X115.594 Y112.2
G1 F1014.9 X118.013 Y114.619 E26.19233
G0 F9000 X118.394 Y114.4
G0 X117.623 Y113.064
G0 X117.242 Y113.282
G1 F1014.9 X116.159 Y112.2 E26.24325
G0 F9000 X116.159 Y111.46
;MESH:NONMESH
G0 F300 X116.159 Y111.46 Z0.8
G0 F9000 X116.834 Y111.826
G0 X118.666 Y115
G0 X116.935 Y118.35
;TIME_ELAPSED:54.723057
;LAYER:3
M106 S255
;TYPE:WALL-INNER
;MESH:clip_v1.stl
G1 F1014.3 X113.065 Y118.35 E26.37197
G1 X111.131 Y115 E26.50062
G1 X113.065 Y111.65 E26.62928
G1 X116.935 Y111.65 E26.75799
G1 X118.869 Y115 E26.88665
G1 X116.935 Y118.35 E27.01531
G0 F9000 X117.165 Y118.75
G1 F1014.3 X112.835 Y118.75 E27.15932
G1 X110.669 Y115 E27.30336
G1 X112.835 Y111.25 E27.4474
G1 X117.165 Y111.25 E27.59141
G1 X119.331 Y115 E27.73545
G1 X117.165 Y118.75 E27.87948
G0 F9000 X117.396 Y119.15
;TYPE:WALL-OUTER
