;FLAVOR:Marlin
;TIME:859
;Filament used: 0.383169m
;Layer height: 0.16
;MINX:93.448
;MINY:93.448
;MINZ:0.2
;MAXX:136.552
;MAXY:136.552
;MAXZ:6.84
;Generated with Cura_SteamEngine 4.12.0
M140 S50
M105
M190 S50
M104 S200
M105
M109 S200
M82 ;absolute extrusion mode
; Ender 3 Custom Start G-code
G92 E0 ; Reset Extruder
G28 ; Home all axes
G1 Z2.0 F3000 ; Move Z Axis up little to prevent scratching of Heat Bed
G1 X0.1 Y20 Z0.3 F5000.0 ; Move to start position
G1 X0.1 Y200.0 Z0.3 F1500.0 E15 ; Draw the first line
G1 X0.4 Y200.0 Z0.3 F5000.0 ; Move to side a little
G1 X0.4 Y20 Z0.3 F1500.0 E30 ; Draw the second line
G92 E0 ; Reset Extruder
G1 Z2.0 F3000 ; Move Z Axis up little to prevent scratching of Heat Bed
G1 X5 Y20 Z0.3 F5000.0 ; Move over to prevent blob squish
G92 E0
G92 E0
G1 F2700 E-5
;LAYER_COUNT:37
;LAYER:0
M107
G0 F6000 X97.644 Y97.728 Z0.2
;TYPE:SKIRT
G1 F2700 E0
G1 F1200 X98.087 Y97.303 E0.02042
G1 X98.375 Y97.042 E0.03335
G1 X99.365 Y96.245 E0.07562
G1 X99.593 Y96.082 E0.08494
G1 X100.172 Y95.695 E0.1081
G1 X100.387 Y95.561 E0.11653
G1 X100.806 Y95.312 E0.13274
G1 X100.877 Y95.272 E0.13545
G1 X101.594 Y94.902 E0.16229
G1 X101.898 Y94.759 E0.17346
G1 X102.401 Y94.538 E0.19173
G1 X102.513 Y94.492 E0.19576
G1 X103.234 Y94.225 E0.22133
G1 X103.533 Y94.126 E0.23181
G1 X104.35 Y93.89 E0.26009
G1 X104.536 Y93.844 E0.26647
G1 X105.575 Y93.639 E0.30169
G1 X106.071 Y93.566 E0.31836
G1 X107.108 Y93.464 E0.35302
G1 X107.244 Y93.457 E0.35755
G1 X108.186 Y93.448 E0.38888
G1 X108.856 Y93.471 E0.41118
G1 X109.061 Y93.48 E0.418
G1 X111.455 Y93.607 E0.49774
G1 X113.99 Y93.67 E0.58208
G1 X116.507 Y93.662 E0.6658
G1 X118.987 Y93.584 E0.74832
G1 X120.156 Y93.51 E0.78728
G1 X120.484 Y93.503 E0.7982
G1 X121.113 Y93.467 E0.81915
G1 X121.725 Y93.449 E0.83951
G1 X122.223 Y93.448 E0.85608
G1 X122.997 Y93.474 E0.88184
G1 X123.216 Y93.489 E0.88914
G1 X124.383 Y93.632 E0.92824
G1 X124.812 Y93.708 E0.94273
G1 X125.814 Y93.934 E0.9769
G1 X126.05 Y93.999 E0.98504
G1 X127.004 Y94.309 E1.0184
G1 X127.36 Y94.443 E1.03105
G1 X128.421 Y94.907 E1.06957
G1 X128.662 Y95.028 E1.07854
G1 X129.337 Y95.397 E1.10412
G1 X129.622 Y95.566 E1.11514
G1 X130.288 Y95.995 E1.14149
G1 X130.347 Y96.036 E1.14388
G1 X130.797 Y96.366 E1.16244
G1 X131.07 Y96.577 E1.17392
G1 X131.733 Y97.132 E1.20268
G1 X132.04 Y97.418 E1.21663
G1 X132.2 Y97.573 E1.22404
G1 X132.697 Y98.087 E1.24782
G1 X132.958 Y98.375 E1.26075
G1 X133.774 Y99.391 E1.30409
G1 X133.936 Y99.619 E1.31339
G1 X134.283 Y100.137 E1.33413
G1 X134.42 Y100.355 E1.34269
G1 X134.708 Y100.842 E1.36151
G1 X134.746 Y100.91 E1.3641
G1 X135.104 Y101.608 E1.39019
G1 X135.246 Y101.911 E1.40132
G1 X135.431 Y102.328 E1.4165
G1 X135.475 Y102.433 E1.42028
G1 X135.766 Y103.205 E1.44772
G1 X135.868 Y103.511 E1.45845
G1 X136.104 Y104.322 E1.48655
G1 X136.149 Y104.502 E1.49272
G1 X136.359 Y105.563 E1.52869
G1 X136.433 Y106.064 E1.54553
G1 X136.537 Y107.11 E1.5805
G1 X136.544 Y107.247 E1.58506
G1 X136.552 Y108.176 E1.61596
G1 X136.521 Y109.049 E1.64501
G1 X136.393 Y111.458 E1.72525
G1 X136.33 Y113.99 E1.80949
G1 X136.338 Y116.509 E1.89327
G1 X136.416 Y118.972 E1.97523
G1 X136.49 Y120.156 E2.01469
G1 X136.497 Y120.482 E2.02554
G1 X136.533 Y121.111 E2.04649
G1 X136.551 Y121.724 E2.06689
G1 X136.552 Y122.218 E2.08332
G1 X136.527 Y122.975 E2.10851
G1 X136.512 Y123.199 E2.11598
G1 X136.368 Y124.383 E2.15565
G1 X136.292 Y124.812 E2.17014
G1 X136.063 Y125.825 E2.20468
G1 X135.998 Y126.06 E2.21279
G1 X135.692 Y127 E2.24567
G1 X135.557 Y127.359 E2.25843
G1 X135.092 Y128.423 E2.29705
G1 X134.971 Y128.664 E2.30602
G1 X134.59 Y129.358 E2.33235
G1 X134.422 Y129.64 E2.34327
G1 X134.125 Y130.112 E2.36181
G1 X134.085 Y130.172 E2.36421
G1 X133.618 Y130.819 E2.39075
G1 X133.402 Y131.097 E2.40246
G1 X132.974 Y131.615 E2.42481
G1 X132.534 Y132.091 E2.44637
G1 X132.378 Y132.25 E2.45378
G1 X131.913 Y132.697 E2.47523
G1 X131.625 Y132.958 E2.48816
G1 X130.635 Y133.755 E2.53043
G1 X130.407 Y133.918 E2.53975
G1 X129.821 Y134.31 E2.5632
G1 X129.596 Y134.45 E2.57202
G1 X129.079 Y134.752 E2.59193
G1 X128.406 Y135.098 E2.6171
G1 X128.102 Y135.241 E2.62827
G1 X127.599 Y135.462 E2.64655
G1 X127.487 Y135.508 E2.65057
G1 X126.766 Y135.775 E2.67615
G1 X126.467 Y135.874 E2.68662
G1 X125.65 Y136.11 E2.71491
G1 X125.464 Y136.156 E2.72128
G1 X124.425 Y136.361 E2.7565
G1 X123.929 Y136.434 E2.77318
G1 X122.892 Y136.536 E2.80783
G1 X122.756 Y136.543 E2.81236
G1 X121.814 Y136.552 E2.8437
G1 X121.144 Y136.529 E2.86599
G1 X120.939 Y136.52 E2.87282
G1 X118.545 Y136.393 E2.95255
G1 X116.01 Y136.33 E3.0369
G1 X113.493 Y136.338 E3.12061
G1 X111.013 Y136.416 E3.20314
G1 X109.844 Y136.49 E3.2421
G1 X109.516 Y136.497 E3.25301
G1 X108.887 Y136.533 E3.27396
G1 X108.275 Y136.551 E3.29433
G1 X107.777 Y136.552 E3.31089
G1 X107.003 Y136.526 E3.33665
G1 X106.784 Y136.511 E3.34395
G1 X105.617 Y136.368 E3.38305
G1 X105.188 Y136.292 E3.39755
G1 X104.186 Y136.066 E3.43171
G1 X103.95 Y136.001 E3.43985
G1 X102.98 Y135.685 E3.47378
G1 X102.623 Y135.55 E3.48648
G1 X101.578 Y135.092 E3.52442
G1 X101.335 Y134.97 E3.53347
G1 X100.666 Y134.604 E3.55883
G1 X100.384 Y134.437 E3.56973
G1 X99.712 Y134.005 E3.5963
G1 X99.653 Y133.964 E3.59869
G1 X99.227 Y133.653 E3.61624
G1 X98.985 Y133.467 E3.62639
G1 X98.492 Y133.065 E3.64754
G1 X98.418 Y133.001 E3.6508
G1 X97.959 Y132.581 E3.67149
G1 X97.798 Y132.425 E3.67895
G1 X97.301 Y131.91 E3.70275
G1 X97.041 Y131.623 E3.71563
G1 X96.25 Y130.643 E3.75752
G1 X96.086 Y130.414 E3.76689
G1 X95.68 Y129.805 E3.79123
G1 X95.543 Y129.584 E3.79988
G1 X95.269 Y129.117 E3.81789
G1 X94.896 Y128.392 E3.84501
G1 X94.754 Y128.089 E3.85614
G1 X94.571 Y127.677 E3.87113
G1 X94.524 Y127.565 E3.87517
G1 X94.221 Y126.756 E3.9039
G1 X94.122 Y126.456 E3.91441
G1 X93.896 Y125.677 E3.94139
G1 X93.849 Y125.489 E3.94783
G1 X93.636 Y124.407 E3.98451
G1 X93.564 Y123.913 E4.00112
G1 X93.464 Y122.897 E4.03507
G1 X93.457 Y122.762 E4.03957
G1 X93.448 Y121.815 E4.07107
G1 X93.471 Y121.144 E4.0934
G1 X93.48 Y120.939 E4.10022
G1 X93.607 Y118.545 E4.17996
G1 X93.67 Y116.01 E4.2643
G1 X93.662 Y113.491 E4.34808
G1 X93.584 Y111.013 E4.43054
G1 X93.51 Y109.844 E4.4695
G1 X93.503 Y109.518 E4.48035
G1 X93.467 Y108.889 E4.5013
G1 X93.449 Y108.276 E4.5217
G1 X93.448 Y107.777 E4.5383
G1 X93.474 Y107.003 E4.56405
G1 X93.489 Y106.784 E4.57135
G1 X93.632 Y105.617 E4.61046
G1 X93.708 Y105.188 E4.62495
G1 X93.934 Y104.186 E4.65911
G1 X93.999 Y103.95 E4.66726
G1 X94.315 Y102.98 E4.70119
G1 X94.45 Y102.623 E4.71388
G1 X94.9 Y101.595 E4.7512
G1 X95.021 Y101.353 E4.7602
G1 X95.395 Y100.667 E4.78619
G1 X95.562 Y100.385 E4.79709
G1 X96.036 Y99.652 E4.82612
G1 X96.079 Y99.591 E4.82861
G1 X96.365 Y99.204 E4.84461
G1 X96.579 Y98.927 E4.85625
G1 X96.995 Y98.421 E4.87804
G1 X97.036 Y98.374 E4.88012
G1 X97.495 Y97.879 E4.90257
G1 X97.644 Y97.728 E4.90962
G0 F6000 X97.929 Y98.009
G1 F1200 X98.356 Y97.6 E4.92929
G1 X98.644 Y97.339 E4.94222
G1 X99.597 Y96.57 E4.98295
G1 X99.825 Y96.407 E4.99227
G1 X100.383 Y96.034 E5.01459
G1 X100.598 Y95.9 E5.02302
G1 X101.002 Y95.661 E5.03863
G1 X101.073 Y95.621 E5.04134
G1 X101.764 Y95.264 E5.06721
G1 X102.068 Y95.121 E5.07838
G1 X102.553 Y94.908 E5.096
G1 X102.665 Y94.862 E5.10003
G1 X103.36 Y94.604 E5.12469
G1 X103.659 Y94.505 E5.13516
G1 X104.446 Y94.278 E5.16241
G1 X104.632 Y94.232 E5.16878
G1 X105.634 Y94.035 E5.20274
G1 X106.13 Y93.962 E5.21942
G1 X107.128 Y93.863 E5.25277
G1 X107.264 Y93.856 E5.2573
G1 X108.173 Y93.848 E5.28754
G1 X108.843 Y93.871 E5.30984
G1 X111.424 Y94.006 E5.3958
G1 X113.981 Y94.07 E5.48087
G1 X116.487 Y94.063 E5.56422
G1 X119.024 Y93.982 E5.64864
G1 X120.181 Y93.909 E5.6872
G1 X120.526 Y93.902 E5.69868
G1 X121.136 Y93.867 E5.719
G1 X121.726 Y93.849 E5.73863
G1 X122.224 Y93.848 E5.7552
G1 X122.969 Y93.873 E5.77999
G1 X123.188 Y93.888 E5.78729
G1 X124.313 Y94.026 E5.82499
G1 X124.742 Y94.102 E5.83948
G1 X125.708 Y94.32 E5.87242
G1 X125.944 Y94.385 E5.88056
G1 X126.863 Y94.683 E5.91269
G1 X127.219 Y94.817 E5.92534
G1 X128.241 Y95.265 E5.96246
G1 X128.482 Y95.386 E5.97143
G1 X129.133 Y95.741 E5.99609
G1 X129.418 Y95.91 E6.00711
G1 X130.06 Y96.323 E6.0325
G1 X130.119 Y96.364 E6.03489
G1 X130.552 Y96.682 E6.05276
G1 X130.825 Y96.893 E6.06423
G1 X131.464 Y97.428 E6.09195
G1 X131.761 Y97.706 E6.10548
G1 X131.921 Y97.861 E6.11289
G1 X132.4 Y98.356 E6.1358
G1 X132.661 Y98.644 E6.14873
G1 X133.448 Y99.622 E6.19048
G1 X133.61 Y99.85 E6.19978
G1 X133.944 Y100.35 E6.21978
G1 X134.081 Y100.568 E6.22835
G1 X134.359 Y101.037 E6.24648
G1 X134.397 Y101.105 E6.24907
G1 X134.742 Y101.778 E6.27423
G1 X134.884 Y102.081 E6.28536
G1 X135.062 Y102.482 E6.29995
G1 X135.106 Y102.587 E6.30373
G1 X135.386 Y103.332 E6.33021
G1 X135.488 Y103.638 E6.34093
G1 X135.716 Y104.419 E6.36799
G1 X135.761 Y104.599 E6.37417
G1 X135.963 Y105.621 E6.40881
G1 X136.037 Y106.122 E6.42566
G1 X136.137 Y107.13 E6.45935
G1 X136.144 Y107.267 E6.46391
G1 X136.152 Y108.162 E6.49368
G1 X136.13 Y108.82 E6.51558
G1 X136.121 Y109.028 E6.5225
G1 X135.994 Y111.427 E6.60241
G1 X135.93 Y113.981 E6.68738
G1 X135.937 Y116.488 E6.77076
G1 X136.018 Y119.025 E6.85519
G1 X136.091 Y120.181 E6.89371
G1 X136.098 Y120.524 E6.90512
G1 X136.133 Y121.134 E6.92544
G1 X136.151 Y121.725 E6.94511
G1 X136.152 Y122.219 E6.96154
G1 X136.128 Y122.948 E6.9858
G1 X136.113 Y123.172 E6.99327
G1 X135.974 Y124.313 E7.0315
G1 X135.898 Y124.742 E7.04599
G1 X135.677 Y125.719 E7.0793
G1 X135.612 Y125.954 E7.08741
G1 X135.318 Y126.859 E7.11906
G1 X135.183 Y127.218 E7.13182
G1 X134.734 Y128.243 E7.16904
G1 X134.613 Y128.484 E7.17801
G1 X134.246 Y129.153 E7.20339
G1 X134.078 Y129.435 E7.21431
G1 X133.792 Y129.89 E7.23218
G1 X133.752 Y129.95 E7.23458
G1 X133.302 Y130.574 E7.26017
G1 X133.086 Y130.852 E7.27188
G1 X132.672 Y131.353 E7.29349
G1 X132.248 Y131.811 E7.31425
G1 X132.092 Y131.97 E7.32166
G1 X131.644 Y132.4 E7.34231
G1 X131.356 Y132.661 E7.35524
G1 X130.403 Y133.43 E7.39597
G1 X130.175 Y133.593 E7.40529
G1 X129.61 Y133.97 E7.42788
G1 X129.385 Y134.11 E7.4367
G1 X128.946 Y134.369 E7.45365
G1 X128.885 Y134.403 E7.45597
G1 X128.236 Y134.736 E7.48023
G1 X127.932 Y134.879 E7.49141
G1 X127.447 Y135.092 E7.50903
G1 X127.335 Y135.138 E7.51305
G1 X126.64 Y135.396 E7.53771
G1 X126.341 Y135.495 E7.54819
G1 X125.554 Y135.722 E7.57543
G1 X125.368 Y135.768 E7.5818
G1 X124.366 Y135.965 E7.61577
G1 X123.87 Y136.038 E7.63244
G1 X122.872 Y136.137 E7.6658
G1 X122.736 Y136.144 E7.67033
G1 X121.827 Y136.152 E7.70056
G1 X121.157 Y136.129 E7.72286
G1 X118.576 Y135.994 E7.80882
G1 X116.019 Y135.93 E7.89389
G1 X113.513 Y135.937 E7.97724
G1 X110.976 Y136.018 E8.06167
G1 X109.819 Y136.091 E8.10023
G1 X109.474 Y136.098 E8.1117
G1 X108.864 Y136.133 E8.13203
G1 X108.274 Y136.151 E8.15166
G1 X107.776 Y136.152 E8.16822
G1 X107.031 Y136.127 E8.19301
G1 X106.812 Y136.112 E8.20032
G1 X105.687 Y135.974 E8.23801
G1 X105.258 Y135.898 E8.2525
G1 X104.292 Y135.68 E8.28544
G1 X104.056 Y135.615 E8.29358
G1 X103.122 Y135.311 E8.32625
G1 X102.765 Y135.176 E8.33895
G1 X101.758 Y134.734 E8.37552
G1 X101.515 Y134.612 E8.38457
G1 X100.87 Y134.26 E8.40901
G1 X100.588 Y134.093 E8.41991
G1 X99.94 Y133.677 E8.44552
G1 X99.881 Y133.636 E8.44791
G1 X99.47 Y133.335 E8.46485
G1 X99.228 Y133.149 E8.475
G1 X98.754 Y132.762 E8.49536
G1 X98.68 Y132.698 E8.49861
G1 X98.238 Y132.294 E8.51853
G1 X98.077 Y132.138 E8.52598
G1 X97.597 Y131.642 E8.54894
G1 X97.337 Y131.355 E8.56182
G1 X96.575 Y130.41 E8.6022
G1 X96.411 Y130.181 E8.61157
G1 X96.02 Y129.594 E8.63502
G1 X95.883 Y129.373 E8.64367
G1 X95.653 Y128.985 E8.65867
G1 X95.617 Y128.921 E8.66112
G1 X95.258 Y128.222 E8.68725
G1 X95.116 Y127.919 E8.69838
G1 X94.94 Y127.523 E8.7128
G1 X94.893 Y127.411 E8.71684
G1 X94.601 Y126.631 E8.74454
G1 X94.502 Y126.331 E8.75504
G1 X94.284 Y125.58 E8.78105
G1 X94.237 Y125.392 E8.7875
G1 X94.032 Y124.35 E8.82282
G1 X93.96 Y123.856 E8.83942
G1 X93.863 Y122.876 E8.87218
G1 X93.856 Y122.741 E8.87667
G1 X93.848 Y121.829 E8.90701
G1 X93.871 Y121.158 E8.92934
G1 X94.006 Y118.576 E9.01533
G1 X94.07 Y116.019 E9.10041
G1 X94.063 Y113.512 E9.18379
G1 X93.982 Y110.975 E9.26821
G1 X93.909 Y109.819 E9.30674
G1 X93.902 Y109.476 E9.31815
G1 X93.867 Y108.866 E9.33847
G1 X93.849 Y108.275 E9.35814
G1 X93.848 Y107.776 E9.37474
G1 X93.873 Y107.031 E9.39953
G1 X93.888 Y106.812 E9.40683
G1 X94.026 Y105.687 E9.44453
G1 X94.102 Y105.258 E9.45902
G1 X94.32 Y104.292 E9.49196
G1 X94.385 Y104.056 E9.5001
G1 X94.689 Y103.122 E9.53277
G1 X94.824 Y102.765 E9.54546
G1 X95.258 Y101.774 E9.58144
G1 X95.379 Y101.532 E9.59044
G1 X95.739 Y100.871 E9.61548
G1 X95.906 Y100.589 E9.62638
G1 X96.363 Y99.883 E9.65435
G1 X96.406 Y99.822 E9.65683
G1 X96.682 Y99.449 E9.67226
G1 X96.896 Y99.172 E9.68391
G1 X97.296 Y98.684 E9.70489
G1 X97.337 Y98.637 E9.70697
G1 X97.78 Y98.16 E9.72862
G1 X97.929 Y98.009 E9.73568
G0 F6000 X98.214 Y98.29
G1 F1200 X98.625 Y97.896 E9.75461
G1 X98.913 Y97.635 E9.76754
G1 X99.83 Y96.895 E9.80673
G1 X100.058 Y96.732 E9.81605
G1 X100.595 Y96.374 E9.83752
G1 X100.81 Y96.24 E9.84594
G1 X101.198 Y96.009 E9.86096
G1 X101.269 Y95.969 E9.86367
G1 X101.934 Y95.626 E9.88856
G1 X102.238 Y95.483 E9.89973
G1 X102.705 Y95.278 E9.9167
G1 X102.817 Y95.232 E9.92073
G1 X103.486 Y94.984 E9.94446
G1 X103.785 Y94.885 E9.95493
G1 X104.542 Y94.666 E9.98114
G1 X104.728 Y94.62 E9.98751
G1 X105.692 Y94.431 E10.02019
G1 X106.188 Y94.358 E10.03686
G1 X107.149 Y94.262 E10.06898
G1 X107.285 Y94.255 E10.07351
G1 X108.159 Y94.248 E10.10258
G1 X109.018 Y94.279 E10.13117
G1 X111.427 Y94.407 E10.21141
G1 X113.973 Y94.471 E10.29612
G1 X116.5 Y94.462 E10.38017
G1 X119.03 Y94.382 E10.46436
G1 X120.206 Y94.308 E10.50355
G1 X120.541 Y94.302 E10.51469
G1 X121.159 Y94.266 E10.53528
G1 X121.727 Y94.249 E10.55418
G1 X122.225 Y94.248 E10.57074
G1 X122.942 Y94.272 E10.59461
G1 X123.161 Y94.287 E10.60191
G1 X124.243 Y94.419 E10.63816
G1 X124.672 Y94.495 E10.65265
G1 X125.601 Y94.705 E10.68433
G1 X125.837 Y94.77 E10.69247
G1 X126.722 Y95.058 E10.72343
G1 X127.078 Y95.192 E10.73608
G1 X128.062 Y95.622 E10.77179
G1 X128.303 Y95.743 E10.78076
G1 X128.929 Y96.086 E10.80451
G1 X129.214 Y96.255 E10.81553
G1 X129.832 Y96.652 E10.83996
G1 X129.891 Y96.693 E10.84235
G1 X130.308 Y96.999 E10.85955
G1 X130.581 Y97.21 E10.87102
G1 X131.196 Y97.725 E10.8977
G1 X131.483 Y97.993 E10.91076
G1 X131.643 Y98.148 E10.91817
G1 X132.104 Y98.625 E10.94024
G1 X132.365 Y98.913 E10.95316
G1 X133.122 Y99.854 E10.99333
G1 X133.284 Y100.082 E11.00264
G1 X133.605 Y100.563 E11.02187
G1 X133.742 Y100.781 E11.03043
G1 X134.01 Y101.232 E11.04788
G1 X134.048 Y101.3 E11.05047
G1 X134.38 Y101.948 E11.07469
G1 X134.522 Y102.251 E11.08582
G1 X134.693 Y102.637 E11.09986
G1 X134.737 Y102.742 E11.10365
G1 X135.007 Y103.458 E11.1291
G1 X135.109 Y103.764 E11.13983
G1 X135.327 Y104.516 E11.16587
G1 X135.372 Y104.696 E11.17204
G1 X135.568 Y105.68 E11.20541
G1 X135.642 Y106.181 E11.22225
G1 X135.738 Y107.151 E11.25467
G1 X135.745 Y107.288 E11.25924
G1 X135.752 Y108.149 E11.28787
G1 X135.722 Y109.007 E11.31643
G1 X135.593 Y111.432 E11.3972
G1 X135.529 Y113.973 E11.48174
G1 X135.538 Y116.502 E11.56586
G1 X135.618 Y119.03 E11.64998
G1 X135.692 Y120.206 E11.68917
G1 X135.698 Y120.539 E11.70025
G1 X135.734 Y121.157 E11.72084
G1 X135.751 Y121.725 E11.73974
G1 X135.752 Y122.219 E11.75617
G1 X135.729 Y122.922 E11.77956
G1 X135.714 Y123.146 E11.78703
G1 X135.581 Y124.243 E11.82378
G1 X135.505 Y124.672 E11.83827
G1 X135.292 Y125.612 E11.87033
G1 X135.227 Y125.847 E11.87844
G1 X134.943 Y126.718 E11.90891
G1 X134.808 Y127.077 E11.92167
G1 X134.377 Y128.064 E11.95749
G1 X134.256 Y128.305 E11.96646
G1 X133.903 Y128.948 E11.99086
G1 X133.735 Y129.23 E12.00177
G1 X133.459 Y129.668 E12.01899
G1 X133.419 Y129.728 E12.02139
G1 X132.987 Y130.328 E12.04598
G1 X132.771 Y130.606 E12.05769
G1 X132.37 Y131.09 E12.0786
G1 X131.963 Y131.53 E12.09853
G1 X131.807 Y131.689 E12.10594
G1 X131.375 Y132.104 E12.12586
G1 X131.087 Y132.365 E12.13879
G1 X130.17 Y133.105 E12.17798
G1 X129.942 Y133.268 E12.1873
G1 X129.399 Y133.63 E12.20901
G1 X129.174 Y133.77 E12.21782
G1 X128.751 Y134.02 E12.23417
G1 X128.69 Y134.054 E12.23649
